indra/newview/app_settings/luts/H1.cube
#Created by: Affinity Photo (Serif Europe Ltd.)
TITLE "Exported LUT"
#LUT size
LUT_3D_SIZE 8
#data domain
DOMAIN_MIN 0.0 0.0 0.0
DOMAIN_MAX 1.0 1.0 1.0
#LUT data points
0.072026 0.088849 0.078743
0.137968 0.089473 0.079368
0.323431 0.091231 0.081125
0.622994 0.094069 0.083964
0.825720 0.095990 0.085884
0.901712 0.096710 0.086604
0.920154 0.096884 0.086779
0.922838 0.096910 0.086805
0.072388 0.159594 0.079105
0.138329 0.160219 0.079730
0.323793 0.161976 0.081487
0.623355 0.164814 0.084325
0.826081 0.166735 0.086246
0.902073 0.167455 0.086966
0.920515 0.167630 0.087141
0.923200 0.167655 0.087166
0.076862 0.356166 0.083579
0.142804 0.356790 0.084204
0.328267 0.358548 0.085961
0.627830 0.361386 0.088800
0.830556 0.363307 0.090720
0.906548 0.364027 0.091440
0.924990 0.364201 0.091615
0.927674 0.364227 0.091640
0.087867 0.671045 0.094584
0.153808 0.671669 0.095209
0.339272 0.673427 0.096966
0.638834 0.676265 0.099804
0.841560 0.678185 0.101725
0.917552 0.678905 0.102445
0.935994 0.679080 0.102619
0.938678 0.679106 0.102645
0.096482 0.883324 0.103199
0.162423 0.883949 0.103824
0.347887 0.885706 0.105581
0.647449 0.888544 0.108419
0.850175 0.890465 0.110340
0.926167 0.891185 0.111060
0.944609 0.891360 0.111235
0.947294 0.891385 0.111260
0.099863 0.962792 0.106580
0.165804 0.963417 0.107205
0.351268 0.965174 0.108962
0.650830 0.968012 0.111800
0.853556 0.969933 0.113721
0.929548 0.970653 0.114441
0.947990 0.970828 0.114616
0.950674 0.970853 0.114641
0.100693 0.982071 0.107411
0.166635 0.982696 0.108036
0.352099 0.984453 0.109793
0.651661 0.987291 0.112631
0.854387 0.989212 0.114552
0.930379 0.989932 0.115272
0.948821 0.990106 0.115446
0.951505 0.990132 0.115472
0.100815 0.984876 0.107532
0.166756 0.985501 0.108157
0.352220 0.987258 0.109914
0.651782 0.990097 0.112752
0.854508 0.992017 0.114673
0.930500 0.992737 0.115393
0.948942 0.992912 0.115568
0.951627 0.992938 0.115593
0.072026 0.088849 0.149740
0.137968 0.089473 0.150365
0.323431 0.091231 0.152122
0.622994 0.094069 0.154960
0.825720 0.095990 0.156881
0.901712 0.096710 0.157601
0.920154 0.096884 0.157776
0.922838 0.096910 0.157801
0.072388 0.159594 0.150102
0.138329 0.160219 0.150726
0.323793 0.161976 0.152484
0.623355 0.164814 0.155322
0.826081 0.166735 0.157243
0.902073 0.167455 0.157963
0.920515 0.167630 0.158137
0.923200 0.167655 0.158163
0.076862 0.356166 0.154576
0.142804 0.356790 0.155201
0.328267 0.358548 0.156958
0.627830 0.361386 0.159796
0.830556 0.363307 0.161717
0.906548 0.364027 0.162437
0.924990 0.364201 0.162612
0.927674 0.364227 0.162637
0.087867 0.671045 0.165580
0.153808 0.671669 0.166205
0.339272 0.673427 0.167962
0.638834 0.676265 0.170801
0.841560 0.678186 0.172721
0.917552 0.678905 0.173441
0.935994 0.679080 0.173616
0.938678 0.679106 0.173642
0.096482 0.883324 0.174196
0.162423 0.883949 0.174820
0.347887 0.885706 0.176578
0.647449 0.888544 0.179416
0.850175 0.890465 0.181337
0.926167 0.891185 0.182056
0.944609 0.891360 0.182231
0.947294 0.891385 0.182257
0.099863 0.962792 0.177577
0.165804 0.963417 0.178201
0.351268 0.965174 0.179959
0.650830 0.968012 0.182797
0.853556 0.969933 0.184717
0.929548 0.970653 0.185437
0.947990 0.970828 0.185612
0.950674 0.970853 0.185638
0.100693 0.982071 0.178407
0.166635 0.982696 0.179032
0.352099 0.984453 0.180789
0.651661 0.987291 0.183628
0.854387 0.989212 0.185548
0.930379 0.989932 0.186268
0.948821 0.990106 0.186443
0.951505 0.990132 0.186468
0.100815 0.984876 0.178529
0.166756 0.985501 0.179153
0.352220 0.987258 0.180911
0.651782 0.990097 0.183749
0.854508 0.992017 0.185670
0.930500 0.992737 0.186390
0.948942 0.992912 0.186564
0.951627 0.992938 0.186590
0.072026 0.088849 0.349421
0.137968 0.089473 0.350046
0.323431 0.091231 0.351803
0.622994 0.094069 0.354641
0.825720 0.095990 0.356562
0.901712 0.096710 0.357282
0.920154 0.096884 0.357457
0.922838 0.096910 0.357482
0.072388 0.159594 0.349783
0.138329 0.160219 0.350407
0.323793 0.161976 0.352165
0.623355 0.164814 0.355003
0.826081 0.166735 0.356924
0.902073 0.167455 0.357644
0.920515 0.167630 0.357818
0.923200 0.167655 0.357844
0.076862 0.356166 0.354257
0.142804 0.356790 0.354882
0.328267 0.358548 0.356639
0.627830 0.361386 0.359477
0.830556 0.363307 0.361398
0.906548 0.364027 0.362118
0.924990 0.364201 0.362293
0.927674 0.364227 0.362318
0.087867 0.671045 0.365261
0.153808 0.671669 0.365886
0.339272 0.673427 0.367643
0.638834 0.676265 0.370482
0.841560 0.678185 0.372402
0.917552 0.678905 0.373122
0.935994 0.679080 0.373297
0.938678 0.679106 0.373323
0.096482 0.883324 0.373877
0.162423 0.883949 0.374501
0.347887 0.885706 0.376259
0.647449 0.888544 0.379097
0.850175 0.890465 0.381018
0.926167 0.891185 0.381738
0.944609 0.891360 0.381912
0.947294 0.891385 0.381938
0.099863 0.962792 0.377258
0.165804 0.963417 0.377882
0.351268 0.965174 0.379640
0.650830 0.968012 0.382478
0.853556 0.969933 0.384398
0.929548 0.970653 0.385118
0.947990 0.970828 0.385293
0.950674 0.970853 0.385319
0.100693 0.982071 0.378088
0.166635 0.982696 0.378713
0.352099 0.984453 0.380470
0.651661 0.987291 0.383309
0.854387 0.989212 0.385229
0.930379 0.989932 0.385949
0.948821 0.990106 0.386124
0.951505 0.990132 0.386149
0.100815 0.984876 0.378210
0.166756 0.985501 0.378834
0.352220 0.987258 0.380592
0.651782 0.990097 0.383430
0.854508 0.992017 0.385351
0.930500 0.992737 0.386071
0.948942 0.992912 0.386245
0.951627 0.992938 0.386271
0.072026 0.088849 0.671947
0.137968 0.089473 0.672572
0.323431 0.091231 0.674329
0.622994 0.094069 0.677167
0.825720 0.095990 0.679088
0.901712 0.096710 0.679808
0.920154 0.096884 0.679983
0.922838 0.096910 0.680008
0.072388 0.159594 0.672309
0.138329 0.160219 0.672933
0.323793 0.161976 0.674691
0.623355 0.164814 0.677529
0.826081 0.166735 0.679450
0.902073 0.167455 0.680170
0.920515 0.167630 0.680344
0.923200 0.167655 0.680370
0.076862 0.356166 0.676783
0.142804 0.356790 0.677408
0.328267 0.358548 0.679165
0.627830 0.361386 0.682003
0.830556 0.363307 0.683924
0.906548 0.364027 0.684644
0.924990 0.364201 0.684819
0.927674 0.364227 0.684844
0.087867 0.671045 0.687788
0.153808 0.671669 0.688412
0.339272 0.673427 0.690170
0.638834 0.676265 0.693008
0.841560 0.678185 0.694928
0.917552 0.678905 0.695648
0.935994 0.679080 0.695823
0.938678 0.679106 0.695849
0.096482 0.883324 0.696403
0.162423 0.883949 0.697027
0.347887 0.885706 0.698785
0.647449 0.888544 0.701623
0.850175 0.890465 0.703544
0.926167 0.891185 0.704264
0.944609 0.891360 0.704438
0.947294 0.891385 0.704464
0.099863 0.962792 0.699784
0.165804 0.963417 0.700408
0.351268 0.965174 0.702166
0.650830 0.968012 0.705004
0.853556 0.969933 0.706925
0.929548 0.970653 0.707645
0.947990 0.970828 0.707819
0.950674 0.970853 0.707845
0.100693 0.982071 0.700614
0.166635 0.982696 0.701239
0.352099 0.984453 0.702996
0.651661 0.987291 0.705835
0.854387 0.989212 0.707755
0.930379 0.989932 0.708475
0.948821 0.990106 0.708650
0.951505 0.990132 0.708676
0.100815 0.984876 0.700736
0.166756 0.985501 0.701361
0.352220 0.987258 0.703118
0.651782 0.990097 0.705956
0.854508 0.992017 0.707877
0.930500 0.992737 0.708597
0.948942 0.992912 0.708771
0.951627 0.992938 0.708797
0.072026 0.088849 0.890214
0.137968 0.089473 0.890838
0.323431 0.091231 0.892596
0.622994 0.094069 0.895434
0.825720 0.095990 0.897355
0.901712 0.096710 0.898075
0.920154 0.096884 0.898249
0.922838 0.096910 0.898275
0.072388 0.159594 0.890575
0.138329 0.160219 0.891200
0.323793 0.161976 0.892957
0.623355 0.164814 0.895795
0.826081 0.166735 0.897716
0.902073 0.167455 0.898436
0.920515 0.167630 0.898611
0.923200 0.167655 0.898636
0.076862 0.356166 0.895050
0.142804 0.356790 0.895674
0.328267 0.358548 0.897432
0.627830 0.361386 0.900270
0.830556 0.363307 0.902191
0.906548 0.364027 0.902911
0.924990 0.364201 0.903085
0.927674 0.364227 0.903111
0.087867 0.671045 0.906054
0.153808 0.671669 0.906679
0.339272 0.673427 0.908436
0.638834 0.676265 0.911274
0.841560 0.678186 0.913195
0.917552 0.678905 0.913915
0.935994 0.679080 0.914090
0.938678 0.679106 0.914115
0.096482 0.883324 0.914669
0.162423 0.883949 0.915294
0.347887 0.885706 0.917051
0.647449 0.888545 0.919890
0.850175 0.890465 0.921810
0.926167 0.891185 0.922530
0.944609 0.891360 0.922705
0.947294 0.891385 0.922730
0.099863 0.962792 0.918050
0.165804 0.963417 0.918675
0.351268 0.965174 0.920432
0.650830 0.968012 0.923270
0.853556 0.969933 0.925191
0.929548 0.970653 0.925911
0.947990 0.970828 0.926086
0.950674 0.970853 0.926111
0.100693 0.982071 0.918881
0.166635 0.982695 0.919506
0.352099 0.984453 0.921263
0.651661 0.987291 0.924101
0.854387 0.989212 0.926022
0.930379 0.989932 0.926742
0.948821 0.990106 0.926917
0.951505 0.990132 0.926942
0.100815 0.984876 0.919002
0.166756 0.985501 0.919627
0.352220 0.987258 0.921384
0.651782 0.990097 0.924223
0.854508 0.992017 0.926143
0.930500 0.992737 0.926863
0.948942 0.992912 0.927038
0.951627 0.992938 0.927063
0.072026 0.088849 0.972031
0.137968 0.089473 0.972656
0.323431 0.091231 0.974413
0.622994 0.094069 0.977251
0.825720 0.095990 0.979172
0.901712 0.096710 0.979892
0.920154 0.096884 0.980067
0.922838 0.096910 0.980092
0.072388 0.159594 0.972393
0.138329 0.160219 0.973017
0.323793 0.161976 0.974775
0.623355 0.164814 0.977613
0.826081 0.166735 0.979534
0.902073 0.167455 0.980254
0.920515 0.167630 0.980428
0.923200 0.167655 0.980454
0.076862 0.356166 0.976867
0.142804 0.356791 0.977492
0.328268 0.358548 0.979249
0.627830 0.361386 0.982087
0.830556 0.363307 0.984008
0.906548 0.364027 0.984728
0.924990 0.364201 0.984903
0.927674 0.364227 0.984928
0.087867 0.671045 0.987871
0.153808 0.671669 0.988496
0.339272 0.673427 0.990253
0.638834 0.676265 0.993092
0.841560 0.678186 0.995012
0.917552 0.678905 0.995732
0.935994 0.679080 0.995907
0.938678 0.679106 0.995933
0.096482 0.883324 0.996487
0.162423 0.883949 0.997111
0.347887 0.885706 0.998869
0.651461 0.888665 1.000000
0.853203 0.891745 1.000000
0.926330 0.893366 1.000000
0.943781 0.893814 1.000000
0.946310 0.893881 1.000000
0.099863 0.962792 0.999867
0.168926 0.963085 1.000000
0.364683 0.963817 1.000000
0.675366 0.966025 1.000000
0.874299 0.969629 1.000000
0.941647 0.972327 1.000000
0.956722 0.973218 1.000000
0.958859 0.973359 1.000000
0.105709 0.981491 1.000000
0.176054 0.981612 1.000000
0.373295 0.982067 1.000000
0.687711 0.983579 1.000000
0.889710 0.986612 1.000000
0.955978 0.989511 1.000000
0.969851 0.990626 1.000000
0.971755 0.990810 1.000000
0.106800 0.984177 1.000000
0.177223 0.984284 1.000000
0.374745 0.984687 1.000000
0.689973 0.986047 1.000000
0.893019 0.988885 1.000000
0.959509 0.991743 1.000000
0.973252 0.992882 1.000000
0.975123 0.993073 1.000000
0.072026 0.088849 0.991887
0.137968 0.089473 0.992512
0.323431 0.091231 0.994269
0.622994 0.094069 0.997107
0.825720 0.095990 0.999028
0.901712 0.096710 0.999748
0.920154 0.096884 0.999923
0.922838 0.096910 0.999948
0.072388 0.159594 0.992249
0.138329 0.160219 0.992873
0.323793 0.161976 0.994631
0.623355 0.164814 0.997469
0.826081 0.166735 0.999389
0.901985 0.167527 1.000000
0.920277 0.167819 1.000000
0.922938 0.167861 1.000000
0.076862 0.356166 0.996723
0.142804 0.356790 0.997348
0.328267 0.358548 0.999105
0.627621 0.362413 1.000000
0.828379 0.365677 1.000000
0.903120 0.366996 1.000000
0.921213 0.367325 1.000000
0.923845 0.367373 1.000000
0.103846 0.671994 1.000000
0.169845 0.672926 1.000000
0.354056 0.675811 1.000000
0.646087 0.681496 1.000000
0.838528 0.686311 1.000000
0.909261 0.688377 1.000000
0.926293 0.688904 1.000000
0.928768 0.688981 1.000000
0.163810 0.879081 1.000000
0.229519 0.880067 1.000000
0.411653 0.883339 1.000000
0.693317 0.890957 1.000000
0.868415 0.899005 1.000000
0.928545 0.903049 1.000000
0.942518 0.904146 1.000000
0.944529 0.904310 1.000000
0.214756 0.951400 1.000000
0.281741 0.952148 1.000000
0.467260 0.954789 1.000000
0.750740 0.962068 1.000000
0.915116 0.972116 1.000000
0.962907 0.978460 1.000000
0.972500 0.980373 1.000000
0.973814 0.980667 1.000000
0.232751 0.967901 1.000000
0.300534 0.968500 1.000000
0.488613 0.970664 1.000000
0.776887 0.977049 1.000000
0.941604 0.987033 1.000000
0.985146 0.994169 1.000000
0.992677 0.996467 1.000000
0.993641 0.996826 1.000000
0.235640 0.970253 1.000000
0.303568 0.970825 1.000000
0.492131 0.972898 1.000000
0.781456 0.979087 1.000000
0.946656 0.988981 1.000000
0.989648 0.996220 1.000000
0.996839 0.998581 1.000000
0.997742 0.998952 1.000000
0.072026 0.088849 0.994777
0.137968 0.089473 0.995402
0.323431 0.091231 0.997159
0.622994 0.094069 0.999997
0.824412 0.097209 1.000000
0.899562 0.098452 1.000000
0.917769 0.098759 1.000000
0.920418 0.098804 1.000000
0.072388 0.159594 0.995138
0.138329 0.160219 0.995763
0.323793 0.161976 0.997520
0.623250 0.165016 1.000000
0.824586 0.168173 1.000000
0.899674 0.169427 1.000000
0.917864 0.169738 1.000000
0.920510 0.169783 1.000000
0.076862 0.356166 0.999613
0.142996 0.356875 1.000000
0.329235 0.359382 1.000000
0.627324 0.363938 1.000000
0.826784 0.367444 1.000000
0.901004 0.368860 1.000000
0.918968 0.369213 1.000000
0.921580 0.369265 1.000000
0.109706 0.672371 1.000000
0.175279 0.673383 1.000000
0.358183 0.676511 1.000000
0.647688 0.682667 1.000000
0.838042 0.687871 1.000000
0.907894 0.690102 1.000000
0.924703 0.690670 1.000000
0.927145 0.690754 1.000000
0.174926 0.878478 1.000000
0.240136 0.879557 1.000000
0.420651 0.883130 1.000000
0.698773 0.891409 1.000000
0.870473 0.900091 1.000000
0.929028 0.904428 1.000000
0.942588 0.905602 1.000000
0.944537 0.905777 1.000000
0.229785 0.950068 1.000000
0.296295 0.950904 1.000000
0.480197 0.953846 1.000000
0.759691 0.961869 1.000000
0.919687 0.972733 1.000000
0.965365 0.979471 1.000000
0.974417 0.981485 1.000000
0.975652 0.981794 1.000000
0.249060 0.966330 1.000000
0.316388 0.967014 1.000000
0.502884 0.969472 1.000000
0.787029 0.976628 1.000000
0.946861 0.987522 1.000000
0.988043 0.995098 1.000000
0.995009 0.997502 1.000000
0.995893 0.997876 1.000000
0.252148 0.968644 1.000000
0.319626 0.969300 1.000000
0.506612 0.971667 1.000000
0.791781 0.978632 1.000000
0.951985 0.989457 1.000000
0.992557 0.997147 1.000000
0.999177 0.999615 1.000000
1.000000 1.000000 1.000000
