indra/newview/app_settings/luts/H1.cube
#Created by: Affinity Photo (Serif Europe Ltd.)
TITLE "Exported LUT"
#LUT size
LUT_3D_SIZE 4
#data domain
DOMAIN_MIN 0.0 0.0 0.0
DOMAIN_MAX 1.0 1.0 1.0
#LUT data points
0.072026 0.088849 0.078743
0.420890 0.092154 0.082049
0.886397 0.096564 0.086459
0.922838 0.096910 0.086805
0.080120 0.458832 0.086837
0.428984 0.462137 0.090142
0.894490 0.466547 0.094553
0.930932 0.466893 0.094898
0.099176 0.946781 0.105893
0.448040 0.950086 0.109198
0.913546 0.954497 0.113609
0.949988 0.954842 0.113954
0.100815 0.984876 0.107532
0.449679 0.988182 0.110837
0.915185 0.992592 0.115248
0.951627 0.992938 0.115593
0.072026 0.088849 0.454351
0.420890 0.092154 0.457656
0.886397 0.096564 0.462067
0.922838 0.096910 0.462412
0.080120 0.458832 0.462445
0.428984 0.462137 0.465750
0.894490 0.466547 0.470160
0.930932 0.466893 0.470506
0.099176 0.946781 0.481500
0.448040 0.950086 0.484806
0.913546 0.954497 0.489216
0.949988 0.954842 0.489562
0.100815 0.984876 0.483140
0.449679 0.988182 0.486445
0.915185 0.992592 0.490855
0.951627 0.992938 0.491201
0.072026 0.088849 0.955542
0.420890 0.092154 0.958847
0.886397 0.096564 0.963258
0.922838 0.096910 0.963603
0.080120 0.458832 0.963636
0.428984 0.462137 0.966941
0.894490 0.466547 0.971352
0.930932 0.466893 0.971697
0.099176 0.946781 0.982692
0.448040 0.950086 0.985997
0.913546 0.954497 0.990407
0.949988 0.954842 0.990753
0.100815 0.984876 0.984331
0.449679 0.988182 0.987636
0.915185 0.992592 0.992047
0.951627 0.992938 0.992392
0.072026 0.088849 0.994777
0.420890 0.092154 0.998082
0.884433 0.098198 1.000000
0.920418 0.098804 1.000000
0.083519 0.459658 1.000000
0.432080 0.464700 1.000000
0.887587 0.473218 1.000000
0.922652 0.473995 1.000000
0.215982 0.936152 1.000000
0.557872 0.942438 1.000000
0.944166 0.963860 1.000000
0.965148 0.967263 1.000000
0.252148 0.968644 1.000000
0.602489 0.973355 1.000000
0.985924 0.995309 1.000000
1.000000 1.000000 1.000000
