indra/newview/app_settings/luts/H1.cube
#Created by: Affinity Photo (Serif Europe Ltd.)
TITLE "Exported LUT"
#LUT size
LUT_3D_SIZE 64
#data domain
DOMAIN_MIN 0.0 0.0 0.0
DOMAIN_MAX 1.0 1.0 1.0
#LUT data points
0.072026 0.088849 0.078743
0.074433 0.088871 0.078766
0.080313 0.088927 0.078822
0.086475 0.088986 0.078880
0.093062 0.089048 0.078943
0.100228 0.089116 0.079011
0.108131 0.089191 0.079086
0.116938 0.089274 0.079169
0.126823 0.089368 0.079263
0.137968 0.089473 0.079368
0.150559 0.089593 0.079487
0.164792 0.089728 0.079622
0.180864 0.089880 0.079775
0.198977 0.090051 0.079946
0.219333 0.090244 0.080139
0.242065 0.090460 0.080354
0.267091 0.090697 0.080592
0.294268 0.090954 0.080849
0.323431 0.091231 0.081125
0.354395 0.091524 0.081419
0.386955 0.091832 0.081727
0.420890 0.092154 0.082049
0.455969 0.092486 0.082381
0.491333 0.092821 0.082716
0.525936 0.093149 0.083044
0.559544 0.093468 0.083362
0.591954 0.093775 0.083670
0.622994 0.094069 0.083964
0.652517 0.094349 0.084243
0.680408 0.094613 0.084508
0.706578 0.094861 0.084756
0.730964 0.095092 0.084987
0.753532 0.095306 0.085200
0.774269 0.095502 0.085397
0.793188 0.095681 0.085576
0.810322 0.095844 0.085738
0.825720 0.095990 0.085884
0.839451 0.096120 0.086014
0.851596 0.096235 0.086130
0.862249 0.096336 0.086230
0.871511 0.096423 0.086318
0.879510 0.096499 0.086394
0.886397 0.096564 0.086459
0.892312 0.096621 0.086515
0.897381 0.096669 0.086563
0.901712 0.096710 0.086604
0.905402 0.096745 0.086639
0.908536 0.096774 0.086669
0.911190 0.096799 0.086694
0.913428 0.096821 0.086715
0.915309 0.096838 0.086733
0.916882 0.096853 0.086748
0.918189 0.096866 0.086760
0.919269 0.096876 0.086771
0.920154 0.096884 0.086779
0.920871 0.096891 0.086786
0.921444 0.096897 0.086791
0.921893 0.096901 0.086796
0.922237 0.096904 0.086799
0.922489 0.096906 0.086801
0.922663 0.096908 0.086803
0.922771 0.096909 0.086804
0.922825 0.096910 0.086804
0.922838 0.096910 0.086805
0.072015 0.091448 0.078732
0.074421 0.091471 0.078755
0.080301 0.091526 0.078810
0.086463 0.091585 0.078869
0.093051 0.091647 0.078931
0.100216 0.091715 0.078999
0.108119 0.091790 0.079074
0.116927 0.091873 0.079157
0.126812 0.091967 0.079251
0.137956 0.092073 0.079357
0.150548 0.092192 0.079476
0.164780 0.092327 0.079611
0.180852 0.092479 0.079763
0.198965 0.092651 0.079935
0.219321 0.092843 0.080128
0.242053 0.093059 0.080343
0.267079 0.093296 0.080580
0.294257 0.093553 0.080838
0.323420 0.093830 0.081114
0.354384 0.094123 0.081407
0.386943 0.094432 0.081716
0.420879 0.094753 0.082037
0.455957 0.095085 0.082370
0.491322 0.095421 0.082705
0.525925 0.095748 0.083033
0.559532 0.096067 0.083351
0.591943 0.096374 0.083658
0.622982 0.096668 0.083952
0.652506 0.096948 0.084232
0.680397 0.097212 0.084496
0.706566 0.097460 0.084744
0.730953 0.097691 0.084975
0.753520 0.097905 0.085189
0.774258 0.098101 0.085385
0.793177 0.098280 0.085565
0.810310 0.098443 0.085727
0.825708 0.098589 0.085873
0.839439 0.098719 0.086003
0.851584 0.098834 0.086118
0.862237 0.098935 0.086219
0.871500 0.099023 0.086307
0.879498 0.099098 0.086382
0.886385 0.099164 0.086448
0.892301 0.099220 0.086504
0.897369 0.099268 0.086552
0.901700 0.099309 0.086593
0.905390 0.099344 0.086628
0.908525 0.099373 0.086657
0.911178 0.099398 0.086683
0.913417 0.099420 0.086704
0.915298 0.099437 0.086722
0.916870 0.099452 0.086737
0.918178 0.099465 0.086749
0.919258 0.099475 0.086759
0.920142 0.099483 0.086768
0.920859 0.099490 0.086774
0.921432 0.099496 0.086780
0.921882 0.099500 0.086784
0.922225 0.099503 0.086787
0.922478 0.099506 0.086790
0.922652 0.099507 0.086791
0.922760 0.099508 0.086792
0.922814 0.099509 0.086793
0.922826 0.099509 0.086793
0.071997 0.097791 0.078714
0.074403 0.097814 0.078737
0.080284 0.097870 0.078793
0.086445 0.097928 0.078851
0.093033 0.097990 0.078913
0.100199 0.098058 0.078981
0.108102 0.098133 0.079056
0.116909 0.098217 0.079140
0.126794 0.098310 0.079233
0.137938 0.098416 0.079339
0.150530 0.098535 0.079458
0.164762 0.098670 0.079593
0.180834 0.098822 0.079745
0.198947 0.098994 0.079917
0.219303 0.099187 0.080110
0.242035 0.099402 0.080325
0.267062 0.099639 0.080562
0.294239 0.099897 0.080820
0.323402 0.100173 0.081096
0.354366 0.100466 0.081389
0.386926 0.100775 0.081698
0.420861 0.101096 0.082019
0.455939 0.101429 0.082352
0.491304 0.101764 0.082687
0.525907 0.102092 0.083015
0.559515 0.102410 0.083333
0.591925 0.102717 0.083640
0.622964 0.103011 0.083934
0.652488 0.103291 0.084214
0.680379 0.103555 0.084478
0.706548 0.103803 0.084726
0.730935 0.104034 0.084957
0.753503 0.104248 0.085171
0.774240 0.104445 0.085368
0.793159 0.104624 0.085547
0.810292 0.104786 0.085709
0.825690 0.104932 0.085855
0.839421 0.105062 0.085985
0.851567 0.105177 0.086100
0.862220 0.105278 0.086201
0.871482 0.105366 0.086289
0.879480 0.105442 0.086365
0.886367 0.105507 0.086430
0.892283 0.105563 0.086486
0.897352 0.105611 0.086534
0.901682 0.105652 0.086575
0.905372 0.105687 0.086610
0.908507 0.105717 0.086640
0.911161 0.105742 0.086665
0.913399 0.105763 0.086686
0.915280 0.105781 0.086704
0.916852 0.105796 0.086719
0.918160 0.105808 0.086731
0.919240 0.105818 0.086741
0.920125 0.105827 0.086750
0.920842 0.105834 0.086757
0.921415 0.105839 0.086762
0.921864 0.105843 0.086766
0.922208 0.105847 0.086770
0.922460 0.105849 0.086772
0.922634 0.105851 0.086774
0.922742 0.105852 0.086775
0.922796 0.105852 0.086775
0.922809 0.105852 0.086775
0.071993 0.104428 0.078710
0.074399 0.104451 0.078733
0.080280 0.104506 0.078789
0.086441 0.104565 0.078847
0.093029 0.104627 0.078909
0.100195 0.104695 0.078977
0.108098 0.104770 0.079052
0.116905 0.104853 0.079136
0.126790 0.104947 0.079229
0.137934 0.105053 0.079335
0.150526 0.105172 0.079454
0.164758 0.105307 0.079589
0.180830 0.105459 0.079741
0.198943 0.105631 0.079913
0.219299 0.105824 0.080106
0.242031 0.106039 0.080321
0.267057 0.106276 0.080558
0.294235 0.106533 0.080816
0.323398 0.106810 0.081092
0.354362 0.107103 0.081385
0.386921 0.107412 0.081694
0.420857 0.107733 0.082015
0.455935 0.108066 0.082348
0.491300 0.108401 0.082683
0.525903 0.108728 0.083011
0.559511 0.109047 0.083329
0.591921 0.109354 0.083636
0.622960 0.109648 0.083930
0.652484 0.109928 0.084210
0.680375 0.110192 0.084474
0.706544 0.110440 0.084722
0.730931 0.110671 0.084953
0.753498 0.110885 0.085167
0.774236 0.111081 0.085364
0.793155 0.111261 0.085543
0.810288 0.111423 0.085705
0.825686 0.111569 0.085851
0.839417 0.111699 0.085981
0.851562 0.111814 0.086096
0.862215 0.111915 0.086197
0.871478 0.112003 0.086285
0.879476 0.112078 0.086361
0.886363 0.112144 0.086426
0.892279 0.112200 0.086482
0.897347 0.112248 0.086530
0.901678 0.112289 0.086571
0.905368 0.112324 0.086606
0.908503 0.112353 0.086636
0.911156 0.112379 0.086661
0.913395 0.112400 0.086682
0.915276 0.112418 0.086700
0.916848 0.112433 0.086715
0.918156 0.112445 0.086727
0.919236 0.112455 0.086737
0.920120 0.112463 0.086746
0.920838 0.112470 0.086753
0.921411 0.112476 0.086758
0.921860 0.112480 0.086762
0.922204 0.112483 0.086765
0.922456 0.112486 0.086768
0.922630 0.112487 0.086770
0.922738 0.112488 0.086771
0.922792 0.112489 0.086771
0.922805 0.112489 0.086771
0.072003 0.111513 0.078721
0.074410 0.111536 0.078743
0.080290 0.111592 0.078799
0.086452 0.111650 0.078857
0.093039 0.111712 0.078920
0.100205 0.111780 0.078988
0.108108 0.111855 0.079063
0.116915 0.111939 0.079146
0.126801 0.112032 0.079240
0.137945 0.112138 0.079345
0.150536 0.112257 0.079465
0.164769 0.112392 0.079599
0.180841 0.112544 0.079752
0.198954 0.112716 0.079923
0.219310 0.112909 0.080116
0.242042 0.113124 0.080332
0.267068 0.113361 0.080569
0.294245 0.113619 0.080826
0.323409 0.113895 0.081103
0.354372 0.114188 0.081396
0.386932 0.114497 0.081704
0.420867 0.114818 0.082026
0.455946 0.115151 0.082358
0.491311 0.115486 0.082693
0.525913 0.115814 0.083021
0.559521 0.116132 0.083340
0.591931 0.116439 0.083647
0.622971 0.116733 0.083941
0.652494 0.117013 0.084220
0.680385 0.117277 0.084485
0.706555 0.117525 0.084733
0.730941 0.117756 0.084964
0.753509 0.117970 0.085178
0.774247 0.118167 0.085374
0.793166 0.118346 0.085553
0.810299 0.118508 0.085716
0.825697 0.118654 0.085862
0.839428 0.118784 0.085992
0.851573 0.118899 0.086107
0.862226 0.119000 0.086208
0.871488 0.119088 0.086295
0.879487 0.119164 0.086371
0.886374 0.119229 0.086436
0.892290 0.119285 0.086492
0.897358 0.119333 0.086540
0.901689 0.119374 0.086582
0.905379 0.119409 0.086616
0.908513 0.119439 0.086646
0.911167 0.119464 0.086671
0.913406 0.119485 0.086693
0.915286 0.119503 0.086710
0.916859 0.119518 0.086725
0.918166 0.119530 0.086738
0.919246 0.119540 0.086748
0.920131 0.119549 0.086756
0.920848 0.119556 0.086763
0.921421 0.119561 0.086768
0.921871 0.119565 0.086773
0.922214 0.119569 0.086776
0.922466 0.119571 0.086778
0.922641 0.119573 0.086780
0.922749 0.119574 0.086781
0.922802 0.119574 0.086782
0.922815 0.119574 0.086782
0.072030 0.119209 0.078748
0.074437 0.119232 0.078770
0.080317 0.119288 0.078826
0.086479 0.119346 0.078885
0.093066 0.119409 0.078947
0.100232 0.119477 0.079015
0.108135 0.119551 0.079090
0.116942 0.119635 0.079173
0.126828 0.119729 0.079267
0.137972 0.119834 0.079372
0.150563 0.119953 0.079492
0.164796 0.120088 0.079627
0.180868 0.120241 0.079779
0.198981 0.120412 0.079950
0.219337 0.120605 0.080143
0.242069 0.120820 0.080359
0.267095 0.121058 0.080596
0.294272 0.121315 0.080853
0.323436 0.121591 0.081130
0.354399 0.121885 0.081423
0.386959 0.122193 0.081731
0.420895 0.122515 0.082053
0.455973 0.122847 0.082385
0.491338 0.123182 0.082720
0.525940 0.123510 0.083048
0.559548 0.123828 0.083367
0.591958 0.124135 0.083674
0.622998 0.124430 0.083968
0.652521 0.124709 0.084248
0.680412 0.124974 0.084512
0.706582 0.125221 0.084760
0.730968 0.125453 0.084991
0.753536 0.125666 0.085205
0.774274 0.125863 0.085401
0.793193 0.126042 0.085580
0.810326 0.126204 0.085743
0.825724 0.126350 0.085889
0.839455 0.126480 0.086019
0.851600 0.126595 0.086134
0.862253 0.126696 0.086235
0.871515 0.126784 0.086322
0.879514 0.126860 0.086398
0.886401 0.126925 0.086463
0.892317 0.126981 0.086520
0.897385 0.127029 0.086568
0.901716 0.127070 0.086609
0.905406 0.127105 0.086644
0.908540 0.127135 0.086673
0.911194 0.127160 0.086698
0.913433 0.127181 0.086720
0.915313 0.127199 0.086737
0.916886 0.127214 0.086752
0.918193 0.127226 0.086765
0.919273 0.127237 0.086775
0.920158 0.127245 0.086783
0.920875 0.127252 0.086790
0.921448 0.127257 0.086796
0.921898 0.127262 0.086800
0.922241 0.127265 0.086803
0.922493 0.127267 0.086805
0.922668 0.127269 0.086807
0.922776 0.127270 0.086808
0.922829 0.127270 0.086809
0.922842 0.127270 0.086809
0.072077 0.127686 0.078795
0.074484 0.127708 0.078817
0.080364 0.127764 0.078873
0.086526 0.127823 0.078931
0.093113 0.127885 0.078994
0.100279 0.127953 0.079062
0.108182 0.128028 0.079137
0.116989 0.128111 0.079220
0.126875 0.128205 0.079314
0.138019 0.128310 0.079419
0.150610 0.128430 0.079539
0.164843 0.128565 0.079673
0.180915 0.128717 0.079826
0.199028 0.128888 0.079997
0.219384 0.129081 0.080190
0.242116 0.129297 0.080406
0.267142 0.129534 0.080643
0.294319 0.129791 0.080900
0.323483 0.130068 0.081177
0.354446 0.130361 0.081470
0.387006 0.130670 0.081778
0.420941 0.130991 0.082100
0.456020 0.131323 0.082432
0.491385 0.131658 0.082767
0.525987 0.131986 0.083095
0.559595 0.132305 0.083414
0.592005 0.132612 0.083721
0.623045 0.132906 0.084015
0.652568 0.133186 0.084294
0.680459 0.133450 0.084559
0.706629 0.133698 0.084807
0.731015 0.133929 0.085038
0.753583 0.134143 0.085252
0.774320 0.134339 0.085448
0.793240 0.134518 0.085627
0.810373 0.134681 0.085790
0.825771 0.134827 0.085936
0.839502 0.134957 0.086066
0.851647 0.135072 0.086181
0.862300 0.135173 0.086282
0.871562 0.135260 0.086369
0.879561 0.135336 0.086445
0.886448 0.135402 0.086510
0.892364 0.135458 0.086566
0.897432 0.135506 0.086614
0.901763 0.135547 0.086656
0.905453 0.135582 0.086690
0.908587 0.135611 0.086720
0.911241 0.135636 0.086745
0.913480 0.135658 0.086767
0.915360 0.135675 0.086784
0.916933 0.135690 0.086799
0.918240 0.135703 0.086812
0.919320 0.135713 0.086822
0.920205 0.135721 0.086830
0.920922 0.135728 0.086837
0.921495 0.135734 0.086842
0.921945 0.135738 0.086847
0.922288 0.135741 0.086850
0.922540 0.135743 0.086852
0.922715 0.135745 0.086854
0.922823 0.135746 0.086855
0.922876 0.135747 0.086856
0.922889 0.135747 0.086856
0.072148 0.137119 0.078866
0.074555 0.137141 0.078889
0.080435 0.137197 0.078944
0.086597 0.137255 0.079003
0.093185 0.137318 0.079065
0.100350 0.137386 0.079133
0.108253 0.137461 0.079208
0.117061 0.137544 0.079291
0.126946 0.137638 0.079385
0.138090 0.137743 0.079491
0.150682 0.137863 0.079610
0.164914 0.137997 0.079745
0.180986 0.138150 0.079897
0.199099 0.138321 0.080069
0.219455 0.138514 0.080261
0.242187 0.138730 0.080477
0.267213 0.138967 0.080714
0.294390 0.139224 0.080971
0.323554 0.139500 0.081248
0.354517 0.139794 0.081541
0.387077 0.140102 0.081850
0.421013 0.140424 0.082171
0.456091 0.140756 0.082503
0.491456 0.141091 0.082839
0.526058 0.141419 0.083166
0.559666 0.141738 0.083485
0.592077 0.142045 0.083792
0.623116 0.142339 0.084086
0.652640 0.142618 0.084366
0.680531 0.142883 0.084630
0.706700 0.143131 0.084878
0.731086 0.143362 0.085109
0.753654 0.143576 0.085323
0.774392 0.143772 0.085519
0.793311 0.143951 0.085699
0.810444 0.144114 0.085861
0.825842 0.144259 0.086007
0.839573 0.144390 0.086137
0.851718 0.144505 0.086252
0.862371 0.144606 0.086353
0.871634 0.144693 0.086441
0.879632 0.144769 0.086516
0.886519 0.144834 0.086582
0.892435 0.144890 0.086638
0.897503 0.144938 0.086686
0.901834 0.144979 0.086727
0.905524 0.145014 0.086762
0.908658 0.145044 0.086791
0.911312 0.145069 0.086817
0.913551 0.145090 0.086838
0.915431 0.145108 0.086856
0.917004 0.145123 0.086870
0.918312 0.145136 0.086883
0.919392 0.145146 0.086893
0.920276 0.145154 0.086901
0.920993 0.145161 0.086908
0.921566 0.145166 0.086914
0.922016 0.145171 0.086918
0.922359 0.145174 0.086921
0.922612 0.145176 0.086924
0.922786 0.145178 0.086925
0.922894 0.145179 0.086926
0.922947 0.145179 0.086927
0.922960 0.145180 0.086927
0.072250 0.147691 0.078967
0.074656 0.147714 0.078990
0.080537 0.147770 0.079045
0.086698 0.147828 0.079104
0.093286 0.147891 0.079166
0.100451 0.147958 0.079234
0.108355 0.148033 0.079309
0.117162 0.148117 0.079392
0.127047 0.148210 0.079486
0.138191 0.148316 0.079592
0.150783 0.148435 0.079711
0.165015 0.148570 0.079846
0.181087 0.148722 0.079998
0.199200 0.148894 0.080170
0.219556 0.149087 0.080363
0.242288 0.149302 0.080578
0.267314 0.149539 0.080815
0.294492 0.149797 0.081073
0.323655 0.150073 0.081349
0.354619 0.150367 0.081642
0.387178 0.150675 0.081951
0.421114 0.150997 0.082272
0.456192 0.151329 0.082605
0.491557 0.151664 0.082940
0.526160 0.151992 0.083268
0.559767 0.152310 0.083586
0.592178 0.152617 0.083893
0.623217 0.152911 0.084187
0.652741 0.153191 0.084467
0.680632 0.153455 0.084731
0.706801 0.153703 0.084979
0.731188 0.153934 0.085210
0.753755 0.154148 0.085424
0.774493 0.154345 0.085620
0.793412 0.154524 0.085800
0.810545 0.154686 0.085962
0.825943 0.154832 0.086108
0.839674 0.154962 0.086238
0.851819 0.155077 0.086353
0.862472 0.155178 0.086454
0.871735 0.155266 0.086542
0.879733 0.155342 0.086618
0.886620 0.155407 0.086683
0.892536 0.155463 0.086739
0.897604 0.155511 0.086787
0.901935 0.155552 0.086828
0.905625 0.155587 0.086863
0.908760 0.155617 0.086893
0.911413 0.155642 0.086918
0.913652 0.155663 0.086939
0.915533 0.155681 0.086957
0.917105 0.155696 0.086972
0.918413 0.155708 0.086984
0.919493 0.155719 0.086994
0.920377 0.155727 0.087003
0.921094 0.155734 0.087009
0.921667 0.155739 0.087015
0.922117 0.155743 0.087019
0.922460 0.155747 0.087022
0.922713 0.155749 0.087025
0.922887 0.155751 0.087026
0.922995 0.155752 0.087027
0.923049 0.155752 0.087028
0.923061 0.155752 0.087028
0.072388 0.159594 0.079105
0.074794 0.159617 0.079128
0.080675 0.159672 0.079184
0.086836 0.159731 0.079242
0.093424 0.159793 0.079304
0.100589 0.159861 0.079372
0.108493 0.159936 0.079447
0.117300 0.160019 0.079531
0.127185 0.160113 0.079624
0.138329 0.160219 0.079730
0.150921 0.160338 0.079849
0.165153 0.160473 0.079984
0.181225 0.160625 0.080136
0.199338 0.160797 0.080308
0.219694 0.160990 0.080501
0.242426 0.161205 0.080716
0.267452 0.161442 0.080953
0.294630 0.161700 0.081211
0.323793 0.161976 0.081487
0.354757 0.162269 0.081780
0.387316 0.162578 0.082089
0.421252 0.162899 0.082410
0.456330 0.163232 0.082743
0.491695 0.163567 0.083078
0.526298 0.163895 0.083406
0.559905 0.164213 0.083724
0.592316 0.164520 0.084031
0.623355 0.164814 0.084325
0.652879 0.165094 0.084605
0.680770 0.165358 0.084869
0.706939 0.165606 0.085117
0.731326 0.165837 0.085348
0.753893 0.166051 0.085562
0.774631 0.166247 0.085758
0.793550 0.166427 0.085938
0.810683 0.166589 0.086100
0.826081 0.166735 0.086246
0.839812 0.166865 0.086376
0.851957 0.166980 0.086491
0.862610 0.167081 0.086592
0.871873 0.167169 0.086680
0.879871 0.167245 0.086756
0.886758 0.167310 0.086821
0.892674 0.167366 0.086877
0.897742 0.167414 0.086925
0.902073 0.167455 0.086966
0.905763 0.167490 0.087001
0.908898 0.167520 0.087031
0.911551 0.167545 0.087056
0.913790 0.167566 0.087077
0.915671 0.167584 0.087095
0.917243 0.167599 0.087110
0.918551 0.167611 0.087122
0.919631 0.167621 0.087132
0.920515 0.167630 0.087141
0.921232 0.167636 0.087147
0.921806 0.167642 0.087153
0.922255 0.167646 0.087157
0.922598 0.167649 0.087160
0.922851 0.167652 0.087163
0.923025 0.167653 0.087164
0.923133 0.167654 0.087165
0.923187 0.167655 0.087166
0.923200 0.167655 0.087166
0.072571 0.173023 0.079288
0.074977 0.173046 0.079311
0.080858 0.173102 0.079367
0.087019 0.173160 0.079425
0.093607 0.173223 0.079487
0.100773 0.173291 0.079555
0.108676 0.173365 0.079630
0.117483 0.173449 0.079714
0.127368 0.173543 0.079807
0.138512 0.173648 0.079913
0.151104 0.173767 0.080032
0.165336 0.173902 0.080167
0.181408 0.174055 0.080319
0.199521 0.174226 0.080491
0.219877 0.174419 0.080684
0.242609 0.174634 0.080899
0.267635 0.174872 0.081136
0.294813 0.175129 0.081394
0.323976 0.175405 0.081670
0.354940 0.175699 0.081963
0.387499 0.176007 0.082272
0.421435 0.176329 0.082593
0.456513 0.176661 0.082926
0.491878 0.176996 0.083261
0.526481 0.177324 0.083589
0.560089 0.177642 0.083907
0.592499 0.177949 0.084214
0.623538 0.178244 0.084508
0.653062 0.178523 0.084788
0.680953 0.178788 0.085052
0.707122 0.179036 0.085300
0.731509 0.179267 0.085531
0.754076 0.179480 0.085745
0.774814 0.179677 0.085942
0.793733 0.179856 0.086121
0.810866 0.180018 0.086283
0.826264 0.180164 0.086429
0.839995 0.180294 0.086559
0.852141 0.180410 0.086674
0.862793 0.180510 0.086775
0.872056 0.180598 0.086863
0.880054 0.180674 0.086939
0.886941 0.180739 0.087004
0.892857 0.180795 0.087060
0.897925 0.180843 0.087108
0.902256 0.180884 0.087149
0.905946 0.180919 0.087184
0.909081 0.180949 0.087214
0.911734 0.180974 0.087239
0.913973 0.180995 0.087260
0.915854 0.181013 0.087278
0.917426 0.181028 0.087293
0.918734 0.181040 0.087305
0.919814 0.181051 0.087315
0.920698 0.181059 0.087324
0.921415 0.181066 0.087331
0.921989 0.181071 0.087336
0.922438 0.181076 0.087340
0.922782 0.181079 0.087343
0.923034 0.181081 0.087346
0.923208 0.181083 0.087348
0.923316 0.181084 0.087349
0.923370 0.181084 0.087349
0.923383 0.181084 0.087349
0.072808 0.188182 0.079526
0.075215 0.188205 0.079548
0.081095 0.188260 0.079604
0.087257 0.188319 0.079662
0.093844 0.188381 0.079725
0.101010 0.188449 0.079793
0.108913 0.188524 0.079868
0.117720 0.188607 0.079951
0.127605 0.188701 0.080045
0.138750 0.188807 0.080150
0.151341 0.188926 0.080270
0.165574 0.189061 0.080404
0.181646 0.189213 0.080557
0.199759 0.189385 0.080728
0.220115 0.189578 0.080921
0.242847 0.189793 0.081137
0.267873 0.190030 0.081374
0.295050 0.190287 0.081631
0.324214 0.190564 0.081907
0.355177 0.190857 0.082201
0.387737 0.191166 0.082509
0.421672 0.191487 0.082831
0.456751 0.191820 0.083163
0.492115 0.192155 0.083498
0.526718 0.192482 0.083826
0.560326 0.192801 0.084145
0.592736 0.193108 0.084452
0.623776 0.193402 0.084746
0.653299 0.193682 0.085025
0.681190 0.193946 0.085290
0.707360 0.194194 0.085538
0.731746 0.194425 0.085769
0.754314 0.194639 0.085983
0.775051 0.194835 0.086179
0.793971 0.195015 0.086358
0.811104 0.195177 0.086521
0.826502 0.195323 0.086666
0.840233 0.195453 0.086797
0.852378 0.195568 0.086912
0.863031 0.195669 0.087013
0.872293 0.195757 0.087100
0.880292 0.195832 0.087176
0.887179 0.195898 0.087241
0.893095 0.195954 0.087297
0.898163 0.196002 0.087345
0.902494 0.196043 0.087386
0.906184 0.196078 0.087421
0.909318 0.196107 0.087451
0.911972 0.196133 0.087476
0.914211 0.196154 0.087497
0.916091 0.196172 0.087515
0.917664 0.196186 0.087530
0.918971 0.196199 0.087543
0.920051 0.196209 0.087553
0.920936 0.196217 0.087561
0.921653 0.196224 0.087568
0.922226 0.196230 0.087573
0.922676 0.196234 0.087578
0.923019 0.196237 0.087581
0.923271 0.196240 0.087583
0.923446 0.196241 0.087585
0.923554 0.196242 0.087586
0.923607 0.196243 0.087586
0.923620 0.196243 0.087587
0.073111 0.205276 0.079828
0.075517 0.205299 0.079851
0.081397 0.205354 0.079906
0.087559 0.205413 0.079965
0.094147 0.205475 0.080027
0.101312 0.205543 0.080095
0.109215 0.205618 0.080170
0.118023 0.205701 0.080253
0.127908 0.205795 0.080347
0.139052 0.205901 0.080453
0.151644 0.206020 0.080572
0.165876 0.206155 0.080707
0.181948 0.206307 0.080859
0.200061 0.206479 0.081031
0.220417 0.206672 0.081224
0.243149 0.206887 0.081439
0.268175 0.207124 0.081676
0.295353 0.207382 0.081933
0.324516 0.207658 0.082210
0.355479 0.207951 0.082503
0.388039 0.208260 0.082812
0.421975 0.208581 0.083133
0.457053 0.208914 0.083466
0.492418 0.209249 0.083801
0.527021 0.209576 0.084128
0.560628 0.209895 0.084447
0.593039 0.210202 0.084754
0.624078 0.210496 0.085048
0.653602 0.210776 0.085328
0.681493 0.211040 0.085592
0.707662 0.211288 0.085840
0.732049 0.211519 0.086071
0.754616 0.211733 0.086285
0.775354 0.211929 0.086481
0.794273 0.212109 0.086661
0.811406 0.212271 0.086823
0.826804 0.212417 0.086969
0.840535 0.212547 0.087099
0.852680 0.212662 0.087214
0.863333 0.212763 0.087315
0.872596 0.212851 0.087403
0.880594 0.212926 0.087478
0.887481 0.212992 0.087544
0.893397 0.213048 0.087600
0.898465 0.213096 0.087648
0.902796 0.213137 0.087689
0.906486 0.213172 0.087724
0.909620 0.213201 0.087753
0.912274 0.213227 0.087779
0.914513 0.213248 0.087800
0.916394 0.213266 0.087818
0.917966 0.213280 0.087832
0.919274 0.213293 0.087845
0.920354 0.213303 0.087855
0.921238 0.213312 0.087864
0.921955 0.213318 0.087870
0.922528 0.213324 0.087876
0.922978 0.213328 0.087880
0.923321 0.213331 0.087883
0.923574 0.213334 0.087886
0.923748 0.213335 0.087887
0.923856 0.213336 0.087888
0.923909 0.213337 0.087889
0.923922 0.213337 0.087889
0.073489 0.224514 0.080207
0.075896 0.224537 0.080229
0.081776 0.224593 0.080285
0.087938 0.224651 0.080343
0.094525 0.224714 0.080406
0.101691 0.224782 0.080474
0.109594 0.224856 0.080549
0.118401 0.224940 0.080632
0.128286 0.225034 0.080726
0.139431 0.225139 0.080831
0.152022 0.225258 0.080951
0.166255 0.225393 0.081085
0.182327 0.225546 0.081238
0.200440 0.225717 0.081409
0.220796 0.225910 0.081602
0.243528 0.226125 0.081818
0.268554 0.226363 0.082055
0.295731 0.226620 0.082312
0.324895 0.226896 0.082588
0.355858 0.227190 0.082882
0.388418 0.227498 0.083190
0.422353 0.227820 0.083512
0.457432 0.228152 0.083844
0.492796 0.228487 0.084179
0.527399 0.228815 0.084507
0.561007 0.229133 0.084826
0.593417 0.229440 0.085133
0.624457 0.229735 0.085427
0.653980 0.230014 0.085706
0.681871 0.230279 0.085971
0.708041 0.230526 0.086219
0.732427 0.230758 0.086450
0.754995 0.230971 0.086663
0.775732 0.231168 0.086860
0.794652 0.231347 0.087039
0.811785 0.231509 0.087202
0.827183 0.231655 0.087347
0.840914 0.231785 0.087478
0.853059 0.231900 0.087593
0.863712 0.232001 0.087694
0.872974 0.232089 0.087781
0.880973 0.232165 0.087857
0.887860 0.232230 0.087922
0.893776 0.232286 0.087978
0.898844 0.232334 0.088026
0.903175 0.232375 0.088067
0.906865 0.232410 0.088102
0.909999 0.232440 0.088132
0.912653 0.232465 0.088157
0.914891 0.232486 0.088178
