indra/newview/app_settings/luts/H2.cube
#Created by: Affinity Photo (Serif Europe Ltd.)
TITLE "Real"
#LUT size
LUT_3D_SIZE 8
#data domain
DOMAIN_MIN 0.0 0.0 0.0
DOMAIN_MAX 1.0 1.0 1.0
#LUT data points
0.145833 0.145786 0.160202
0.180018 0.145927 0.158613
0.282260 0.145887 0.156335
0.507370 0.145833 0.153409
0.744639 0.145775 0.150418
0.884390 0.145722 0.147859
0.960175 0.145681 0.145894
1.000000 0.147388 0.145954
0.145772 0.180265 0.169873
0.178886 0.180242 0.160166
0.282211 0.184579 0.160115
0.507305 0.189128 0.160045
0.744591 0.194328 0.159971
0.884360 0.199279 0.159903
0.960153 0.203436 0.159850
1.000000 0.207748 0.160185
0.145732 0.282706 0.252916
0.160115 0.282656 0.193589
0.273341 0.282656 0.160115
0.507305 0.300910 0.160045
0.744591 0.311007 0.159971
0.884360 0.320298 0.159903
0.960153 0.327865 0.159850
1.000000 0.335164 0.160185
0.145678 0.507827 0.387365
0.160045 0.507761 0.296063
0.182392 0.507761 0.160045
0.483706 0.507761 0.160045
0.744591 0.543674 0.159971
0.884360 0.554690 0.159903
0.960153 0.563447 0.159850
1.000000 0.571212 0.160185
0.145620 0.744869 0.560435
0.159971 0.744821 0.456170
0.159971 0.744821 0.240587
0.380148 0.744821 0.159971
0.717054 0.744821 0.159971
0.884360 0.777918 0.159903
0.960153 0.783806 0.159850
1.000000 0.788609 0.160185
0.145568 0.884479 0.703967
0.159903 0.884448 0.611840
0.159903 0.884448 0.432269
0.207654 0.884448 0.159903
0.707784 0.884448 0.159903
0.860974 0.884448 0.159903
0.960153 0.909787 0.159850
1.000000 0.912703 0.160185
0.145526 0.960204 0.794882
0.159850 0.960182 0.721265
0.159850 0.960182 0.557897
0.159850 0.960182 0.176801
0.550854 0.960182 0.159850
0.856170 0.960182 0.159850
0.940231 0.960182 0.159850
1.000000 0.979442 0.160185
0.145799 1.000000 0.857145
0.160185 1.000000 0.797513
0.160185 1.000000 0.660358
0.160185 1.000000 0.260011
0.393478 1.000000 0.160185
0.840167 1.000000 0.160185
0.936864 1.000000 0.160185
0.988440 1.000000 0.160185
0.146202 0.145760 0.203318
0.182930 0.145915 0.203317
0.282260 0.145887 0.196499
0.507370 0.145833 0.191329
0.744639 0.145775 0.186085
0.884390 0.145722 0.181648
0.960175 0.145681 0.178278
1.000000 0.145954 0.175917
0.145760 0.190898 0.203318
0.180023 0.179948 0.203254
0.282159 0.180147 0.199133
0.507237 0.180052 0.193812
0.744541 0.179950 0.188416
0.884328 0.179859 0.183849
0.960131 0.179786 0.180381
1.000000 0.182509 0.180217
0.145732 0.282706 0.219059
0.179899 0.282605 0.266165
0.277514 0.282559 0.203162
0.507178 0.296225 0.203038
0.744498 0.306199 0.202905
0.884300 0.315385 0.202785
0.960111 0.322872 0.202690
1.000000 0.330218 0.203226
0.145678 0.507827 0.433246
0.179805 0.507693 0.421813
0.203038 0.507634 0.248936
0.489311 0.507634 0.203038
0.744498 0.537851 0.202905
0.884300 0.548902 0.202785
0.960111 0.557690 0.202690
1.000000 0.565622 0.203226
0.145620 0.744869 0.671701
0.179704 0.744772 0.595440
0.202905 0.744728 0.433535
0.351513 0.744728 0.202905
0.721447 0.744728 0.202905
0.884300 0.773987 0.202785
0.960111 0.779942 0.202690
1.000000 0.784891 0.203226
0.145568 0.884479 0.790559
0.179613 0.884416 0.732307
0.202785 0.884388 0.589965
0.202785 0.884388 0.213438
0.692748 0.884388 0.202785
0.863830 0.884388 0.202785
0.960111 0.907273 0.202690
1.000000 0.910279 0.203226
0.145526 0.960204 0.862837
0.179540 0.960160 0.817005
0.202690 0.960140 0.702922
0.202690 0.960140 0.347779
0.519606 0.960140 0.202690
0.859074 0.960140 0.202690
0.942304 0.960140 0.202690
1.000000 0.977840 0.203226
0.145799 1.000000 0.912996
0.179970 1.000000 0.875315
0.203226 1.000000 0.782827
0.203226 1.000000 0.501952
0.364523 1.000000 0.203226
0.822531 1.000000 0.203226
0.939016 1.000000 0.203226
0.989789 1.000000 0.203226
0.146744 0.145721 0.320820
0.182852 0.145876 0.320819
0.295437 0.145876 0.320819
0.507370 0.145833 0.298890
0.744639 0.145775 0.288674
0.884390 0.145722 0.279751
0.960175 0.145681 0.272803
1.000000 0.145954 0.267577
0.145721 0.183221 0.320820
0.180967 0.179881 0.320708
0.290616 0.180128 0.320707
0.507237 0.180052 0.303608
0.744541 0.179950 0.293259
0.884328 0.179859 0.284210
0.960131 0.179786 0.277156
1.000000 0.180217 0.271937
0.145721 0.320820 0.309353
0.179881 0.314207 0.320708
0.282108 0.281973 0.320544
0.507042 0.282258 0.310591
0.744399 0.282045 0.300053
0.884236 0.281852 0.290826
0.960067 0.281699 0.283624
1.000000 0.286546 0.282456
0.145678 0.507827 0.324297
0.179805 0.507693 0.390680
0.281813 0.507499 0.473629
0.497496 0.507448 0.320324
0.744362 0.529332 0.320088
0.884213 0.540428 0.319875
0.960050 0.549257 0.319705
1.000000 0.557431 0.320501
0.145620 0.744869 0.599606
0.179704 0.744772 0.667115
0.281600 0.744630 0.644430
0.320088 0.744593 0.328240
0.727767 0.744593 0.320088
0.884213 0.768174 0.319875
0.960050 0.774229 0.319705
1.000000 0.779396 0.320501
0.145568 0.884479 0.803452
0.179613 0.884416 0.844221
0.281408 0.884325 0.770150
0.319875 0.884301 0.550581
0.653280 0.884301 0.319875
0.867946 0.884301 0.319875
0.960050 0.903562 0.319705
1.000000 0.906700 0.320501
0.145526 0.960204 0.909536
0.179540 0.960160 0.905583
0.281255 0.960096 0.846712
0.319705 0.960079 0.692410
0.473797 0.960079 0.319705
0.863258 0.960079 0.319705
0.945286 0.960079 0.319705
1.000000 0.975450 0.320501
0.145799 1.000000 0.973638
0.179970 1.000000 0.948269
0.282012 1.000000 0.899832
0.320501 1.000000 0.774472
0.324406 1.000000 0.320501
0.794902 1.000000 0.320501
0.942111 1.000000 0.320501
0.991678 1.000000 0.320501
0.147481 0.145670 0.544617
0.183303 0.145824 0.544616
0.297286 0.145824 0.544616
0.535600 0.145824 0.544616
0.744639 0.145775 0.505274
0.884390 0.145722 0.493607
0.960175 0.145681 0.484296
1.000000 0.145954 0.476655
0.145670 0.176763 0.544617
0.182254 0.179791 0.544485
0.290870 0.180038 0.544484
0.529491 0.180038 0.544484
0.744541 0.179950 0.511150
0.884328 0.179859 0.499476
0.960131 0.179786 0.490154
1.000000 0.180217 0.482622
0.145670 0.323635 0.544617
0.179791 0.296159 0.544485
0.284767 0.281783 0.544293
0.520556 0.282228 0.544292
0.744399 0.282045 0.519720
0.884236 0.281852 0.508042
0.960067 0.281699 0.498709
1.000000 0.282456 0.491340
0.145670 0.544617 0.479939
0.179791 0.544485 0.501344
0.281783 0.544293 0.532593
0.506881 0.506742 0.544035
0.744209 0.506956 0.531208
0.884114 0.506703 0.519563
0.959981 0.506500 0.510225
1.000000 0.511394 0.507237
0.145620 0.744869 0.442620
0.179704 0.744772 0.516168
0.281600 0.744630 0.620946
0.506500 0.744439 0.705177
0.736099 0.744410 0.543756
0.884095 0.760203 0.543506
0.959968 0.766397 0.543305
1.000000 0.771866 0.543995
0.145568 0.884479 0.688455
0.179613 0.884416 0.746385
0.281408 0.884325 0.817160
0.506247 0.884202 0.815260
0.596386 0.884184 0.543505
0.873385 0.884184 0.543505
0.959968 0.898484 0.543305
1.000000 0.901806 0.543995
0.145526 0.960204 0.831320
0.179540 0.960160 0.870410
0.281255 0.960096 0.919028
0.506044 0.960010 0.882454
0.543305 0.959997 0.666587
0.852032 0.959997 0.543305
0.949220 0.959997 0.543305
1.000000 0.972140 0.543995
0.145799 1.000000 0.917170
0.179970 1.000000 0.945748
0.282012 1.000000 0.980185
0.506782 1.000000 0.929425
0.543995 1.000000 0.788106
0.753745 1.000000 0.543995
0.946195 1.000000 0.543995
0.994052 1.000000 0.543995
0.148287 0.145614 0.763039
0.184735 0.145769 0.763039
0.297047 0.145769 0.763039
0.542309 0.145769 0.763039
0.763039 0.145769 0.752751
0.884390 0.145722 0.725876
0.960175 0.145681 0.718636
1.000000 0.145954 0.712158
0.145614 0.175293 0.763039
0.183667 0.179694 0.762947
0.290635 0.179941 0.762946
0.534225 0.179941 0.762946
0.762946 0.179941 0.756924
0.884328 0.179859 0.730363
0.960131 0.179786 0.723208
1.000000 0.180217 0.716897
0.145614 0.300443 0.763039
0.179694 0.274597 0.762947
0.287660 0.281579 0.762812
0.522384 0.282024 0.762811
0.762699 0.282024 0.762811
0.884236 0.281852 0.736812
0.960067 0.281699 0.729779
1.000000 0.282456 0.723711
0.145614 0.620076 0.763039
0.179694 0.588426 0.762947
0.281579 0.540721 0.762812
0.510642 0.506473 0.762630
0.754234 0.506929 0.762630
0.884114 0.506703 0.745308
0.959981 0.506500 0.738436
1.000000 0.507237 0.732685
0.145614 0.763039 0.669346
0.179694 0.762947 0.687633
0.281579 0.762812 0.713158
0.506473 0.762630 0.745166
0.744053 0.743983 0.762435
0.883981 0.744048 0.754253
0.959888 0.743900 0.747549
1.000000 0.746328 0.744233
0.145568 0.884479 0.613025
0.179613 0.884416 0.632882
0.281408 0.884325 0.696983
0.506247 0.884202 0.801070
0.743817 0.884070 0.857644
0.879133 0.884057 0.762258
0.959879 0.892895 0.762118
1.000000 0.896422 0.762416
0.145526 0.960204 0.716725
0.179540 0.960160 0.770848
0.281255 0.960096 0.837066
0.506044 0.960010 0.907889
0.743669 0.959917 0.916337
0.814808 0.959908 0.762118
0.953363 0.959908 0.762118
1.000000 0.968450 0.762416
0.145799 1.000000 0.834757
0.179970 1.000000 0.873408
0.282012 1.000000 0.921497
0.506782 1.000000 0.972673
0.744003 1.000000 0.957279
0.762416 1.000000 0.813001
0.940407 1.000000 0.762416
0.996366 1.000000 0.762416
0.149021 0.145564 0.891554
0.186045 0.145719 0.891554
0.296833 0.145719 0.891554
0.542041 0.145719 0.891554
0.780166 0.145719 0.891554
0.891554 0.145719 0.874611
0.960175 0.145681 0.862654
1.000000 0.145954 0.858204
0.145564 0.173999 0.891554
0.184959 0.179607 0.891493
0.293157 0.179853 0.891493
0.533957 0.179853 0.891493
0.775353 0.179853 0.891493
0.891493 0.179853 0.877455
0.960131 0.179786 0.865622
1.000000 0.180217 0.861280
0.145564 0.280745 0.891554
0.179607 0.270774 0.891493
0.290282 0.281396 0.891404
0.522114 0.281840 0.891404
0.767298 0.281840 0.891404
0.891404 0.281840 0.881551
0.960067 0.281699 0.869894
1.000000 0.282456 0.865705
0.145564 0.596282 0.891554
0.179607 0.563931 0.891493
0.281396 0.515528 0.891404
0.514023 0.506231 0.891285
0.756167 0.506686 0.891285
0.891285 0.506686 0.886962
0.959981 0.506500 0.875537
1.000000 0.507237 0.871548
0.145564 0.858199 0.891554
0.179607 0.843425 0.891493
0.281396 0.815717 0.891404
0.506231 0.774235 0.891285
0.746518 0.743805 0.891156
0.889627 0.744036 0.891156
0.959888 0.743900 0.881494
1.000000 0.744233 0.877714
0.145564 0.891554 0.801223
0.179607 0.891493 0.814264
0.281396 0.891404 0.832369
0.506231 0.891285 0.855132
0.743805 0.891156 0.877833
0.883882 0.883855 0.891040
0.959804 0.883856 0.886741
1.000000 0.884758 0.883951
0.145526 0.960204 0.771652
0.179540 0.960160 0.785882
0.281255 0.960096 0.805608
0.506044 0.960010 0.831911
0.743669 0.959917 0.908793
0.883767 0.959833 0.943121
0.957000 0.959828 0.890947
1.000000 0.965032 0.891033
0.145799 1.000000 0.751625
0.179970 1.000000 0.786623
0.282012 1.000000 0.849932
0.506782 1.000000 0.917843
0.744003 1.000000 0.973381
0.883862 1.000000 0.978551
0.917153 1.000000 0.891033
0.998168 1.000000 0.891033
0.149615 0.145525 0.962516
0.187109 0.145679 0.962516
0.296970 0.145679 0.962516
0.541827 0.145679 0.962516
0.780628 0.145679 0.962516
0.911115 0.145679 0.962516
0.962516 0.145679 0.944319
1.000000 0.145954 0.938460
0.145525 0.172981 0.962516
0.186008 0.179538 0.962473
0.295287 0.179783 0.962472
0.533741 0.179783 0.962472
0.775208 0.179783 0.962472
0.908501 0.179783 0.962472
0.962472 0.179783 0.946438
1.000000 0.180217 0.940689
0.145525 0.267185 0.962516
0.179538 0.268528 0.962473
0.292393 0.281249 0.962410
0.521898 0.281693 0.962409
0.767149 0.281693 0.962409
0.904641 0.281693 0.962409
0.962409 0.281693 0.949484
1.000000 0.282456 0.943895
0.145525 0.576860 0.962516
0.179538 0.544045 0.962473
0.281249 0.495312 0.962410
0.516728 0.506037 0.962325
0.756015 0.506493 0.962325
0.898713 0.506493 0.962325
0.962325 0.506493 0.953495
1.000000 0.507237 0.948119
0.145525 0.850543 0.962516
0.179538 0.832261 0.962473
0.281249 0.803496 0.962410
0.506037 0.760371 0.962325
0.748477 0.743664 0.962234
0.890937 0.743894 0.962233
0.962233 0.743894 0.957711
1.000000 0.744233 0.952562
0.145525 0.962516 0.956360
0.179538 0.961501 0.962473
0.281249 0.950791 0.962410
0.506037 0.932050 0.962325
0.743664 0.902915 0.962234
0.885150 0.883764 0.962151
0.962151 0.883852 0.961404
1.000000 0.883951 0.956457
0.145525 0.962516 0.878919
0.179538 0.962473 0.889008
0.281249 0.962410 0.903062
0.506037 0.962325 0.920790
0.743664 0.962234 0.938474
0.883764 0.962151 0.953127
0.959744 0.959735 0.962086
1.000000 0.960029 0.959766
0.145799 1.000000 0.861631
0.179970 1.000000 0.872399
0.282012 1.000000 0.887391
0.506782 1.000000 0.906298
0.744003 1.000000 0.931128
0.883862 1.000000 0.978406
0.959737 1.000000 0.992319
0.999343 1.000000 0.962083
0.150460 0.145799 1.000000
0.188516 0.145954 1.000000
0.299465 0.145954 1.000000
0.541888 0.145954 1.000000
0.780274 0.145954 1.000000
0.913788 0.145954 1.000000
0.980219 0.145954 1.000000
1.000000 0.145954 0.987740
0.145799 0.172528 1.000000
0.187451 0.179970 1.000000
0.297880 0.180217 1.000000
0.533953 0.180217 1.000000
0.774949 0.180217 1.000000
0.910416 0.180217 1.000000
0.978560 0.180217 1.000000
1.000000 0.180217 0.989171
0.145799 0.265909 1.000000
0.179970 0.267338 1.000000
0.295125 0.282012 1.000000
0.524286 0.282456 1.000000
0.767034 0.282456 1.000000
0.905415 0.282456 1.000000
0.976082 0.282456 1.000000
1.000000 0.282456 0.991174
0.145799 0.560049 1.000000
0.179970 0.527111 1.000000
0.282012 0.489737 1.000000
0.519946 0.506782 1.000000
0.756104 0.507237 1.000000
0.898530 0.507237 1.000000
0.972642 0.507237 1.000000
1.000000 0.507237 0.993693
0.145799 0.840844 1.000000
0.179970 0.822070 1.000000
0.282012 0.792518 1.000000
0.506782 0.748187 1.000000
0.750601 0.744003 1.000000
0.890894 0.744233 1.000000
0.968479 0.744233 1.000000
1.000000 0.744233 0.996146
0.145799 0.975879 1.000000
0.179970 0.965810 1.000000
0.282012 0.949570 1.000000
0.506782 0.925058 1.000000
0.744003 0.895191 1.000000
0.886412 0.883862 1.000000
0.963689 0.883951 1.000000
1.000000 0.883951 0.998057
0.145799 1.000000 0.984998
0.179970 1.000000 0.990220
0.282012 1.000000 0.996639
0.506782 0.998110 1.000000
0.744003 0.987578 1.000000
0.883862 0.970120 1.000000
0.960569 0.959737 1.000000
1.000000 0.959766 0.999303
0.145799 1.000000 0.931578
0.179970 1.000000 0.939745
0.282012 1.000000 0.951066
0.506782 1.000000 0.965153
0.744003 1.000000 0.978756
0.883862 1.000000 0.989300
0.959737 1.000000 0.996165
1.000000 1.000000 1.000000
