indra/newview/app_settings/luts/H2.cube
#Created by: Affinity Photo (Serif Europe Ltd.)
TITLE "Real"
#LUT size
LUT_3D_SIZE 64
#data domain
DOMAIN_MIN 0.0 0.0 0.0
DOMAIN_MAX 1.0 1.0 1.0
#LUT data points
0.145833 0.145786 0.160202
0.148230 0.145941 0.160202
0.151287 0.145941 0.160202
0.154641 0.145941 0.160202
0.158192 0.145941 0.160202
0.161105 0.145940 0.159386
0.165112 0.145937 0.159202
0.169542 0.145934 0.159012
0.174477 0.145930 0.158816
0.180018 0.145927 0.158613
0.186281 0.145923 0.158402
0.193409 0.145919 0.158181
0.201568 0.145915 0.157951
0.210960 0.145911 0.157710
0.221818 0.145907 0.157457
0.234325 0.145902 0.157192
0.248549 0.145897 0.156916
0.264525 0.145892 0.156630
0.282260 0.145887 0.156335
0.301730 0.145881 0.156031
0.322881 0.145876 0.155720
0.345628 0.145870 0.155403
0.369857 0.145864 0.155080
0.395425 0.145858 0.154752
0.422162 0.145852 0.154420
0.449876 0.145845 0.154085
0.478355 0.145839 0.153748
0.507370 0.145833 0.153409
0.536620 0.145826 0.153070
0.565660 0.145820 0.152731
0.594236 0.145813 0.152393
0.622121 0.145807 0.152056
0.649106 0.145800 0.151721
0.675002 0.145794 0.151389
0.699643 0.145787 0.151061
0.722886 0.145781 0.150737
0.744639 0.145775 0.150418
0.764942 0.145768 0.150104
0.783876 0.145762 0.149796
0.801522 0.145756 0.149495
0.817956 0.145750 0.149202
0.833247 0.145744 0.148916
0.847464 0.145738 0.148638
0.860668 0.145733 0.148370
0.872946 0.145728 0.148110
0.884390 0.145722 0.147859
0.895080 0.145717 0.147615
0.905085 0.145712 0.147379
0.914468 0.145707 0.147150
0.923280 0.145703 0.146927
0.931568 0.145698 0.146710
0.939371 0.145694 0.146499
0.946722 0.145689 0.146293
0.953649 0.145685 0.146091
0.960175 0.145681 0.145894
0.966316 0.145676 0.145701
0.972083 0.145834 0.145672
0.977481 0.146013 0.145668
0.982506 0.146192 0.145664
0.987140 0.146369 0.145660
0.991352 0.146546 0.145656
0.995073 0.146722 0.145652
0.998162 0.146897 0.145648
1.000000 0.147388 0.145954
0.145786 0.147972 0.160202
0.148033 0.148019 0.160199
0.151130 0.148180 0.160199
0.154474 0.148180 0.160199
0.158058 0.148180 0.160199
0.161102 0.148179 0.159517
0.165109 0.148175 0.159333
0.169538 0.148172 0.159142
0.174473 0.148169 0.158946
0.180014 0.148165 0.158742
0.186277 0.148161 0.158530
0.193404 0.148157 0.158310
0.201563 0.148153 0.158079
0.210954 0.148149 0.157837
0.221812 0.148144 0.157584
0.234318 0.148139 0.157318
0.248541 0.148134 0.157042
0.264517 0.148129 0.156755
0.282251 0.148123 0.156459
0.301721 0.148117 0.156155
0.322871 0.148112 0.155843
0.345618 0.148106 0.155525
0.369847 0.148099 0.155201
0.395414 0.148093 0.154873
0.422151 0.148087 0.154540
0.449865 0.148080 0.154204
0.478344 0.148074 0.153867
0.507358 0.148067 0.153527
0.536608 0.148060 0.153187
0.565649 0.148053 0.152847
0.594225 0.148047 0.152508
0.622111 0.148040 0.152171
0.649096 0.148033 0.151835
0.674993 0.148026 0.151503
0.699633 0.148020 0.151174
0.722877 0.148013 0.150849
0.744630 0.148006 0.150529
0.764934 0.148000 0.150215
0.783869 0.147993 0.149907
0.801515 0.147987 0.149605
0.817949 0.147981 0.149311
0.833241 0.147975 0.149025
0.847458 0.147969 0.148747
0.860663 0.147963 0.148478
0.872941 0.147958 0.148218
0.884385 0.147952 0.147966
0.895075 0.148173 0.147947
0.905081 0.148402 0.147942
0.914463 0.148626 0.147937
0.923276 0.148846 0.147932
0.931564 0.149062 0.147927
0.939367 0.149274 0.147922
0.946718 0.149481 0.147918
0.953645 0.149686 0.147913
0.960171 0.149888 0.147909
0.966312 0.150087 0.147904
0.972080 0.150284 0.147900
0.977478 0.150479 0.147896
0.982503 0.150672 0.147892
0.987138 0.150864 0.147887
0.991349 0.151056 0.147883
0.995071 0.151247 0.147879
0.998160 0.151438 0.147875
1.000000 0.151963 0.148191
0.145786 0.151690 0.160202
0.148019 0.151042 0.160199
0.150946 0.150978 0.160195
0.154266 0.151113 0.160195
0.157869 0.151113 0.160195
0.161098 0.151112 0.159682
0.165105 0.151109 0.159496
0.169534 0.151105 0.159306
0.174469 0.151102 0.159109
0.180008 0.151098 0.158904
0.186271 0.151094 0.158692
0.193398 0.151090 0.158470
0.201557 0.151085 0.158239
0.210947 0.151081 0.157996
0.221804 0.151076 0.157742
0.234309 0.151070 0.157476
0.248532 0.151065 0.157199
0.264507 0.151060 0.156911
0.282240 0.151054 0.156615
0.301709 0.151048 0.156310
0.322859 0.151041 0.155997
0.345606 0.151035 0.155678
0.369834 0.151029 0.155353
0.395401 0.151022 0.155024
0.422137 0.151015 0.154691
0.449851 0.151008 0.154354
0.478330 0.151001 0.154015
0.507344 0.150994 0.153675
0.536594 0.150987 0.153334
0.565635 0.150980 0.152993
0.594211 0.150973 0.152654
0.622097 0.150966 0.152315
0.649084 0.150959 0.151979
0.674981 0.150952 0.151645
0.699622 0.150945 0.151316
0.722866 0.150938 0.150990
0.744620 0.151193 0.150931
0.764924 0.151499 0.150924
0.783860 0.151803 0.150917
0.801507 0.152103 0.150910
0.817941 0.152399 0.150904
0.833233 0.152690 0.150897
0.847450 0.152975 0.150891
0.860655 0.153254 0.150885
0.872934 0.153527 0.150879
0.884378 0.153793 0.150873
0.895068 0.154053 0.150868
0.905074 0.154308 0.150862
0.914457 0.154557 0.150857
0.923270 0.154802 0.150852
0.931558 0.155042 0.150847
0.939361 0.155278 0.150842
0.946713 0.155509 0.150837
0.953640 0.155737 0.150832
0.960166 0.155962 0.150828
0.966308 0.156184 0.150823
0.972076 0.156404 0.150819
0.977474 0.156621 0.150814
0.982499 0.156837 0.150810
0.987134 0.157051 0.150805
0.991346 0.157265 0.150801
0.995068 0.157478 0.150797
0.998158 0.157691 0.150792
1.000000 0.158268 0.151122
0.145786 0.156097 0.160202
0.148019 0.155397 0.160199
0.150946 0.154533 0.160195
0.154069 0.154152 0.160192
0.157646 0.154244 0.160191
0.161094 0.154243 0.159848
0.165101 0.154240 0.159662
0.169529 0.154236 0.159471
0.174464 0.154232 0.159273
0.180003 0.154228 0.159069
0.186266 0.154224 0.158856
0.193392 0.154219 0.158633
0.201550 0.154215 0.158401
0.210939 0.154210 0.158158
0.221796 0.154205 0.157903
0.234301 0.154199 0.157637
0.248522 0.154193 0.157358
0.264497 0.154188 0.157070
0.282230 0.154181 0.156773
0.301698 0.154175 0.156467
0.322847 0.154168 0.156153
0.345593 0.154162 0.155833
0.369821 0.154155 0.155508
0.395388 0.154148 0.155177
0.422124 0.154141 0.154843
0.449837 0.154133 0.154506
0.478315 0.154126 0.154166
0.507330 0.154414 0.154119
0.536580 0.154746 0.154111
0.565621 0.155083 0.154104
0.594198 0.155422 0.154096
0.622084 0.155765 0.154089
0.649071 0.156109 0.154081
0.674968 0.156454 0.154074
0.699610 0.156800 0.154066
0.722855 0.157145 0.154059
0.744610 0.157489 0.154051
0.764914 0.157832 0.154044
0.783850 0.158171 0.154037
0.801498 0.158507 0.154030
0.817932 0.158839 0.154023
0.833225 0.159165 0.154016
0.847443 0.159485 0.154009
0.860648 0.159798 0.154003
0.872927 0.160103 0.153997
0.884371 0.160402 0.153991
0.895062 0.160695 0.153985
0.905068 0.160981 0.153979
0.914451 0.161261 0.153973
0.923264 0.161536 0.153968
0.931553 0.161805 0.153963
0.939356 0.162070 0.153957
0.946708 0.162331 0.153952
0.953635 0.162587 0.153947
0.960162 0.162840 0.153942
0.966303 0.163090 0.153937
0.972071 0.163337 0.153933
0.977470 0.163582 0.153928
0.982495 0.163825 0.153923
0.987131 0.164067 0.153919
0.991343 0.164308 0.153914
0.995065 0.164548 0.153910
0.998156 0.164788 0.153905
1.000000 0.165426 0.154250
0.145786 0.160202 0.160006
0.148019 0.159909 0.160199
0.150946 0.159258 0.160195
0.154069 0.158324 0.160192
0.157433 0.157574 0.160188
0.161090 0.157616 0.160018
0.165097 0.157612 0.159831
0.169525 0.157608 0.159640
0.174459 0.157604 0.159442
0.179998 0.157599 0.159236
0.186260 0.157595 0.159022
0.193386 0.157590 0.158800
0.201543 0.157585 0.158567
0.210932 0.157580 0.158323
0.221788 0.157574 0.158067
0.234292 0.157569 0.157800
0.248513 0.157604 0.157563
0.264486 0.157883 0.157556
0.282219 0.158173 0.157550
0.301686 0.158474 0.157543
0.322835 0.158787 0.157536
0.345581 0.159109 0.157529
0.369808 0.159441 0.157522
0.395374 0.159781 0.157514
0.422110 0.160130 0.157507
0.449823 0.160486 0.157499
0.478301 0.160848 0.157491
0.507316 0.161217 0.157483
0.536566 0.161592 0.157475
0.565607 0.161970 0.157467
0.594184 0.162353 0.157459
0.622071 0.162739 0.157451
0.649058 0.163127 0.157443
0.674956 0.163517 0.157435
0.699598 0.163907 0.157428
0.722844 0.164297 0.157420
0.744599 0.164685 0.157412
0.764904 0.165072 0.157404
0.783841 0.165456 0.157396
0.801489 0.165835 0.157389
0.817924 0.166210 0.157382
0.833217 0.166579 0.157374
0.847435 0.166941 0.157367
0.860641 0.167296 0.157361
0.872920 0.167642 0.157354
0.884365 0.167980 0.157348
0.895055 0.168311 0.157341
0.905062 0.168635 0.157335
0.914445 0.168953 0.157329
0.923258 0.169264 0.157323
0.931547 0.169570 0.157318
0.939351 0.169870 0.157312
0.946702 0.170166 0.157307
0.953630 0.170457 0.157301
0.960157 0.170744 0.157296
0.966299 0.171027 0.157291
0.972067 0.171308 0.157286
0.977466 0.171586 0.157281
0.982491 0.171862 0.157276
0.987127 0.172136 0.157271
0.991340 0.172409 0.157266
0.995062 0.172682 0.157261
0.998154 0.172955 0.157257
1.000000 0.173666 0.157619
0.145785 0.161299 0.157264
0.148018 0.161296 0.157726
0.150945 0.161292 0.158309
0.154068 0.161288 0.158905
0.157431 0.161284 0.159701
0.161034 0.161281 0.160184
0.165094 0.161508 0.160180
0.169522 0.161698 0.160176
0.174455 0.161895 0.160171
0.179994 0.162100 0.160167
0.186256 0.162316 0.160162
0.193381 0.162542 0.160157
0.201538 0.162780 0.160152
0.210927 0.163032 0.160146
0.221782 0.163298 0.160141
0.234285 0.163579 0.160135
0.248506 0.163875 0.160128
0.264479 0.164184 0.160122
0.282211 0.164507 0.160115
0.301678 0.164843 0.160108
0.322826 0.165190 0.160101
0.345571 0.165549 0.160093
0.369798 0.165919 0.160086
0.395364 0.166298 0.160078
0.422100 0.166687 0.160070
0.449813 0.167084 0.160062
0.478291 0.167488 0.160054
0.507305 0.167900 0.160045
0.536555 0.168317 0.160037
0.565597 0.168740 0.160029
0.594174 0.169167 0.160020
0.622061 0.169598 0.160012
0.649049 0.170031 0.160004
0.674947 0.170466 0.159995
0.699590 0.170902 0.159987
0.722836 0.171338 0.159979
0.744591 0.171772 0.159971
0.764897 0.172205 0.159963
0.783834 0.172634 0.159955
0.801482 0.173058 0.159947
0.817918 0.173478 0.159939
0.833211 0.173890 0.159932
0.847429 0.174295 0.159924
0.860635 0.174692 0.159917
0.872915 0.175079 0.159910
0.884360 0.175458 0.159903
0.895051 0.175828 0.159897
0.905057 0.176191 0.159891
0.914441 0.176547 0.159884
0.923254 0.176895 0.159878
0.931543 0.177238 0.159872
0.939347 0.177574 0.159867
0.946699 0.177905 0.159861
0.953627 0.178231 0.159855
0.960153 0.178552 0.159850
0.966295 0.178870 0.159844
0.972064 0.179184 0.159839
0.977463 0.179495 0.159834
0.982489 0.179804 0.159829
0.987125 0.180112 0.159824
0.991337 0.180418 0.159819
0.995060 0.180724 0.159814
0.998152 0.181029 0.159809
1.000000 0.181811 0.160185
0.145782 0.165318 0.156638
0.148015 0.165314 0.157550
0.150942 0.165310 0.159583
0.154064 0.165306 0.161712
0.157428 0.165302 0.163958
0.160180 0.165299 0.162602
0.164839 0.165299 0.160180
0.169522 0.165748 0.160176
0.174455 0.165959 0.160171
0.179994 0.166179 0.160167
0.186256 0.166409 0.160162
0.193381 0.166651 0.160157
0.201538 0.166906 0.160152
0.210927 0.167175 0.160146
0.221782 0.167459 0.160141
0.234285 0.167760 0.160135
0.248506 0.168077 0.160128
0.264479 0.168408 0.160122
0.282211 0.168754 0.160115
0.301678 0.169113 0.160108
0.322826 0.169485 0.160101
0.345571 0.169869 0.160093
0.369798 0.170265 0.160086
0.395364 0.170671 0.160078
0.422100 0.171087 0.160070
0.449813 0.171512 0.160062
0.478291 0.171946 0.160054
0.507305 0.172386 0.160045
0.536555 0.172834 0.160037
0.565597 0.173287 0.160029
0.594174 0.173745 0.160020
0.622061 0.174206 0.160012
0.649049 0.174671 0.160004
0.674947 0.175137 0.159995
0.699590 0.175604 0.159987
0.722836 0.176071 0.159979
0.744591 0.176537 0.159971
0.764897 0.177000 0.159963
0.783834 0.177460 0.159955
0.801482 0.177916 0.159947
0.817918 0.178365 0.159939
0.833211 0.178808 0.159932
0.847429 0.179242 0.159924
0.860635 0.179667 0.159917
0.872915 0.180083 0.159910
0.884360 0.180489 0.159903
0.895051 0.180886 0.159897
0.905057 0.181276 0.159891
0.914441 0.181657 0.159884
0.923254 0.182031 0.159878
0.931543 0.182398 0.159872
0.939347 0.182759 0.159867
0.946699 0.183114 0.159861
0.953627 0.183463 0.159855
0.960153 0.183808 0.159850
0.966295 0.184149 0.159844
0.972064 0.184486 0.159839
0.977463 0.184820 0.159834
0.982489 0.185151 0.159829
0.987125 0.185481 0.159824
0.991337 0.185810 0.159819
0.995060 0.186138 0.159814
0.998152 0.186466 0.159809
1.000000 0.187292 0.160185
0.145779 0.169760 0.160094
0.148012 0.169756 0.161786
0.150938 0.169752 0.163974
0.154061 0.169747 0.166268
0.157424 0.169743 0.168506
0.160175 0.169739 0.165397
0.162126 0.169739 0.160175
0.169029 0.169739 0.160175
0.174455 0.170452 0.160171
0.179994 0.170688 0.160167
0.186256 0.170936 0.160162
0.193381 0.171195 0.160157
0.201538 0.171469 0.160152
0.210927 0.171758 0.160146
0.221782 0.172063 0.160141
0.234285 0.172386 0.160135
0.248506 0.172726 0.160128
0.264479 0.173082 0.160122
0.282211 0.173453 0.160115
0.301678 0.173839 0.160108
0.322826 0.174239 0.160101
0.345571 0.174651 0.160093
0.369798 0.175076 0.160086
0.395364 0.175513 0.160078
0.422100 0.175960 0.160070
0.449813 0.176416 0.160062
0.478291 0.176882 0.160054
0.507305 0.177356 0.160045
0.536555 0.177836 0.160037
0.565597 0.178323 0.160029
0.594174 0.178815 0.160020
0.622061 0.179311 0.160012
0.649049 0.179811 0.160004
0.674947 0.180312 0.159995
0.699590 0.180814 0.159987
0.722836 0.181316 0.159979
0.744591 0.181817 0.159971
0.764897 0.182315 0.159963
0.783834 0.182810 0.159955
0.801482 0.183299 0.159947
0.817918 0.183783 0.159939
0.833211 0.184259 0.159932
0.847429 0.184726 0.159924
0.860635 0.185183 0.159917
0.872915 0.185629 0.159910
0.884360 0.186066 0.159903
0.895051 0.186493 0.159897
0.905057 0.186912 0.159891
0.914441 0.187322 0.159884
0.923254 0.187724 0.159878
0.931543 0.188119 0.159872
0.939347 0.188507 0.159867
0.946699 0.188888 0.159861
0.953627 0.189264 0.159855
0.960153 0.189635 0.159850
0.966295 0.190001 0.159844
0.972064 0.190363 0.159839
0.977463 0.190723 0.159834
0.982489 0.191079 0.159829
0.987125 0.191434 0.159824
0.991337 0.191787 0.159819
0.995060 0.192139 0.159814
0.998152 0.192492 0.159809
1.000000 0.193368 0.160185
0.145775 0.174709 0.164692
0.148008 0.174705 0.166521
0.150934 0.174701 0.168886
0.154057 0.174696 0.171370
0.157419 0.174691 0.171700
0.160171 0.174687 0.168435
0.160171 0.174687 0.162275
0.167336 0.174687 0.160171
0.173682 0.174687 0.160171
0.179994 0.175715 0.160167
0.186256 0.175981 0.160162
0.193381 0.176261 0.160157
0.201538 0.176556 0.160152
0.210927 0.176867 0.160146
0.221782 0.177196 0.160141
0.234285 0.177544 0.160135
0.248506 0.177910 0.160128
0.264479 0.178294 0.160122
0.282211 0.178694 0.160115
0.301678 0.179109 0.160108
0.322826 0.179540 0.160101
0.345571 0.179985 0.160093
0.369798 0.180443 0.160086
0.395364 0.180913 0.160078
0.422100 0.181395 0.160070
0.449813 0.181887 0.160062
0.478291 0.182389 0.160054
0.507305 0.182900 0.160045
0.536555 0.183418 0.160037
0.565597 0.183943 0.160029
0.594174 0.184473 0.160020
0.622061 0.185008 0.160012
0.649049 0.185546 0.160004
0.674947 0.186087 0.159995
0.699590 0.186628 0.159987
0.722836 0.187169 0.159979
0.744591 0.187709 0.159971
0.764897 0.188246 0.159963
0.783834 0.188779 0.159955
0.801482 0.189307 0.159947
0.817918 0.189828 0.159939
0.833211 0.190341 0.159932
0.847429 0.190845 0.159924
0.860635 0.191337 0.159917
0.872915 0.191819 0.159910
0.884360 0.192290 0.159903
0.895051 0.192750 0.159897
0.905057 0.193202 0.159891
0.914441 0.193644 0.159884
0.923254 0.194077 0.159878
0.931543 0.194502 0.159872
0.939347 0.194920 0.159867
0.946699 0.195332 0.159861
0.953627 0.195737 0.159855
0.960153 0.196137 0.159850
0.966295 0.196531 0.159844
0.972064 0.196922 0.159839
0.977463 0.197309 0.159834
0.982489 0.197693 0.159829
0.987125 0.198075 0.159824
0.991337 0.198456 0.159819
0.995060 0.198836 0.159814
0.998152 0.199216 0.159809
1.000000 0.200144 0.160185
0.145772 0.180265 0.169873
0.148005 0.180261 0.171859
0.150930 0.180256 0.174430
0.154053 0.180251 0.177131
0.157415 0.180246 0.175194
0.160166 0.180242 0.171757
0.160166 0.180242 0.166726
0.162831 0.180242 0.160166
0.173212 0.180242 0.160166
0.178886 0.180242 0.160166
0.186256 0.181647 0.160162
0.193381 0.181949 0.160157
0.201538 0.182268 0.160152
0.210927 0.182604 0.160146
0.221782 0.182960 0.160141
0.234285 0.183336 0.160135
0.248506 0.183732 0.160128
0.264479 0.184147 0.160122
0.282211 0.184579 0.160115
0.301678 0.185029 0.160108
0.322826 0.185495 0.160101
0.345571 0.185976 0.160093
0.369798 0.186471 0.160086
0.395364 0.186979 0.160078
0.422100 0.187500 0.160070
0.449813 0.188033 0.160062
0.478291 0.188576 0.160054
0.507305 0.189128 0.160045
0.536555 0.189688 0.160037
0.565597 0.190256 0.160029
0.594174 0.190829 0.160020
0.622061 0.191408 0.160012
0.649049 0.191989 0.160004
0.674947 0.192574 0.159995
0.699590 0.193159 0.159987
0.722836 0.193744 0.159979
0.744591 0.194328 0.159971
0.764897 0.194909 0.159963
0.783834 0.195485 0.159955
0.801482 0.196056 0.159947
0.817918 0.196619 0.159939
0.833211 0.197174 0.159932
0.847429 0.197718 0.159924
0.860635 0.198250 0.159917
0.872915 0.198771 0.159910
0.884360 0.199279 0.159903
0.895051 0.199777 0.159897
0.905057 0.200265 0.159891
0.914441 0.200742 0.159884
0.923254 0.201211 0.159878
0.931543 0.201670 0.159872
0.939347 0.202122 0.159867
0.946699 0.202567 0.159861
0.953627 0.203005 0.159855
0.960153 0.203436 0.159850
0.966295 0.203863 0.159844
0.972064 0.204285 0.159839
0.977463 0.204703 0.159834
0.982489 0.205118 0.159829
0.987125 0.205531 0.159824
0.991337 0.205942 0.159819
0.995060 0.206352 0.159814
0.998152 0.206762 0.159809
1.000000 0.207748 0.160185
0.145768 0.186547 0.175761
0.148001 0.186542 0.177929
0.150926 0.186537 0.180737
0.154049 0.186531 0.182362
0.157411 0.186525 0.179039
0.160162 0.186521 0.175412
0.160162 0.186521 0.170720
0.160162 0.186521 0.161910
0.168080 0.186521 0.160162
0.178596 0.186521 0.160162
0.184746 0.186521 0.160162
0.193381 0.188381 0.160157
0.201538 0.188726 0.160152
0.210927 0.189092 0.160146
0.221782 0.189478 0.160141
0.234285 0.189886 0.160135
0.248506 0.190315 0.160128
0.264479 0.190765 0.160122
0.282211 0.191235 0.160115
0.301678 0.191722 0.160108
0.322826 0.192228 0.160101
0.345571 0.192749 0.160093
0.369798 0.193287 0.160086
0.395364 0.193839 0.160078
0.422100 0.194404 0.160070
0.449813 0.194981 0.160062
0.478291 0.195570 0.160054
0.507305 0.196169 0.160045
0.536555 0.196777 0.160037
0.565597 0.197392 0.160029
0.594174 0.198015 0.160020
0.622061 0.198642 0.160012
0.649049 0.199273 0.160004
0.674947 0.199906 0.159995
0.699590 0.200541 0.159987
0.722836 0.201176 0.159979
0.744591 0.201809 0.159971
0.764897 0.202438 0.159963
0.783834 0.203063 0.159955
0.801482 0.203682 0.159947
0.817918 0.204292 0.159939
0.833211 0.204893 0.159932
0.847429 0.205483 0.159924
0.860635 0.206060 0.159917
0.872915 0.206624 0.159910
0.884360 0.207176 0.159903
0.895051 0.207715 0.159897
0.905057 0.208243 0.159891
0.914441 0.208761 0.159884
0.923254 0.209268 0.159878
0.931543 0.209766 0.159872
0.939347 0.210256 0.159867
0.946699 0.210737 0.159861
0.953627 0.211211 0.159855
0.960153 0.211679 0.159850
0.966295 0.212141 0.159844
0.972064 0.212598 0.159839
0.977463 0.213051 0.159834
0.982489 0.213500 0.159829
0.987125 0.213947 0.159824
0.991337 0.214392 0.159819
0.995060 0.214836 0.159814
0.998152 0.215281 0.159809
1.000000 0.216328 0.160185
0.145764 0.193694 0.182506
0.147997 0.193689 0.184884
0.150922 0.193683 0.187965
0.154044 0.193677 0.186811
0.157406 0.193671 0.183293
0.160157 0.193666 0.179455
0.160157 0.193666 0.174491
0.160157 0.193666 0.166760
0.163117 0.193666 0.160157
0.174007 0.193666 0.160157
0.184418 0.193666 0.160157
0.191387 0.193666 0.160157
0.201538 0.196076 0.160152
0.210927 0.196473 0.160146
0.221782 0.196894 0.160141
0.234285 0.197338 0.160135
0.248506 0.197806 0.160128
0.264479 0.198296 0.160122
0.282211 0.198806 0.160115
0.301678 0.199337 0.160108
0.322826 0.199887 0.160101
0.345571 0.200455 0.160093
0.369798 0.201040 0.160086
0.395364 0.201641 0.160078
0.422100 0.202256 0.160070
0.449813 0.202885 0.160062
0.478291 0.203525 0.160054
0.507305 0.204177 0.160045
0.536555 0.204838 0.160037
0.565597 0.205508 0.160029
0.594174 0.206185 0.160020
0.622061 0.206867 0.160012
0.649049 0.207554 0.160004
0.674947 0.208243 0.159995
0.699590 0.208933 0.159987
0.722836 0.209623 0.159979
0.744591 0.210311 0.159971
0.764897 0.210996 0.159963
0.783834 0.211675 0.159955
0.801482 0.212348 0.159947
0.817918 0.213011 0.159939
0.833211 0.213665 0.159932
0.847429 0.214306 0.159924
0.860635 0.214933 0.159917
0.872915 0.215546 0.159910
0.884360 0.216145 0.159903
0.895051 0.216731 0.159897
0.905057 0.217305 0.159891
0.914441 0.217867 0.159884
0.923254 0.218418 0.159878
0.931543 0.218958 0.159872
0.939347 0.219490 0.159867
0.946699 0.220012 0.159861
0.953627 0.220526 0.159855
0.960153 0.221034 0.159850
0.966295 0.221534 0.159844
0.972064 0.222029 0.159839
0.977463 0.222520 0.159834
0.982489 0.223007 0.159829
0.987125 0.223491 0.159824
0.991337 0.223972 0.159819
0.995060 0.224453 0.159814
0.998152 0.224934 0.159809
1.000000 0.226044 0.160185
0.145760 0.201875 0.190287
0.147993 0.201870 0.192909
0.150918 0.201863 0.195597
0.154039 0.201857 0.191759
0.157401 0.201850 0.188025
0.160152 0.201845 0.183951
0.160152 0.201845 0.178682
0.160152 0.201845 0.172288
0.160152 0.201845 0.162047
0.168326 0.201845 0.160152
0.180763 0.201845 0.160152
0.191015 0.201845 0.160152
0.198960 0.201845 0.160152
0.210927 0.204921 0.160146
0.221782 0.205381 0.160141
0.234285 0.205866 0.160135
0.248506 0.206377 0.160128
0.264479 0.206912 0.160122
0.282211 0.207470 0.160115
0.301678 0.208050 0.160108
0.322826 0.208651 0.160101
0.345571 0.209271 0.160093
0.369798 0.209910 0.160086
0.395364 0.210565 0.160078
0.422100 0.211237 0.160070
0.449813 0.211923 0.160062
0.478291 0.212623 0.160054
0.507305 0.213334 0.160045
0.536555 0.214056 0.160037
0.565597 0.214786 0.160029
0.594174 0.215525 0.160020
0.622061 0.216269 0.160012
0.649049 0.217018 0.160004
0.674947 0.217770 0.159995
0.699590 0.218522 0.159987
0.722836 0.219275 0.159979
0.744591 0.220024 0.159971
0.764897 0.220770 0.159963
0.783834 0.221510 0.159955
0.801482 0.222241 0.159947
0.817918 0.222963 0.159939
0.833211 0.223673 0.159932
0.847429 0.224370 0.159924
0.860635 0.225051 0.159917
0.872915 0.225716 0.159910
0.884360 0.226366 0.159903
0.895051 0.227001 0.159897
0.905057 0.227622 0.159891
0.914441 0.228231 0.159884
0.923254 0.228827 0.159878
0.931543 0.229412 0.159872
0.939347 0.229986 0.159867
0.946699 0.230550 0.159861
0.953627 0.231106 0.159855
0.960153 0.231653 0.159850
0.966295 0.232193 0.159844
0.972064 0.232728 0.159839
0.977463 0.233256 0.159834
0.982489 0.233781 0.159829
0.987125 0.234302 0.159824
0.991337 0.234821 0.159819
0.995060 0.235337 0.159814
0.998152 0.235854 0.159809
1.000000 0.237024 0.160185
0.145756 0.211291 0.199325
0.147988 0.211285 0.202226
0.150913 0.211278 0.201373
0.154035 0.211271 0.197288
0.157396 0.211263 0.193314
0.160146 0.211257 0.188975
0.160146 0.211257 0.183366
0.160146 0.211257 0.177975
0.160146 0.211257 0.167433
0.162854 0.211257 0.160146
0.174214 0.211257 0.160146
0.188524 0.211257 0.160146
0.198533 0.211257 0.160146
0.207641 0.211257 0.160146
0.221782 0.215145 0.160141
0.234285 0.215677 0.160135
0.248506 0.216237 0.160128
0.264479 0.216823 0.160122
0.282211 0.217434 0.160115
0.301678 0.218070 0.160108
0.322826 0.218727 0.160101
0.345571 0.219407 0.160093
0.369798 0.220105 0.160086
0.395364 0.220823 0.160078
0.422100 0.221557 0.160070
0.449813 0.222307 0.160062
0.478291 0.223071 0.160054
0.507305 0.223848 0.160045
0.536555 0.224636 0.160037
0.565597 0.225432 0.160029
0.594174 0.226237 0.160020
0.622061 0.227047 0.160012
0.649049 0.227862 0.160004
0.674947 0.228679 0.159995
0.699590 0.229496 0.159987
0.722836 0.230313 0.159979
0.744591 0.231126 0.159971
0.764897 0.231934 0.159963
0.783834 0.232735 0.159955
0.801482 0.233526 0.159947
0.817918 0.234307 0.159939
0.833211 0.235075 0.159932
0.847429 0.235827 0.159924
0.860635 0.236562 0.159917
0.872915 0.237280 0.159910
0.884360 0.237980 0.159903
0.895051 0.238665 0.159897
0.905057 0.239334 0.159891
0.914441 0.239989 0.159884
0.923254 0.240630 0.159878
