indra/newview/app_settings/luts/H2.cube
#Created by: Affinity Photo (Serif Europe Ltd.)
TITLE "Real"
#LUT size
LUT_3D_SIZE 4
#data domain
DOMAIN_MIN 0.0 0.0 0.0
DOMAIN_MAX 1.0 1.0 1.0
#LUT data points
0.145833 0.145786 0.160202
0.345628 0.145870 0.155403
0.847464 0.145738 0.148638
1.000000 0.147388 0.145954
0.145715 0.346111 0.290249
0.332020 0.346053 0.160093
0.847429 0.385683 0.159924
1.000000 0.405224 0.160185
0.145584 0.847586 0.662566
0.159924 0.847551 0.233196
0.822806 0.847551 0.159924
1.000000 0.879720 0.160185
0.145799 1.000000 0.857145
0.160185 1.000000 0.589627
0.734394 1.000000 0.160185
0.988440 1.000000 0.160185
0.146973 0.145705 0.386324
0.364017 0.145860 0.386324
0.847464 0.145738 0.343010
1.000000 0.145954 0.325478
0.145705 0.386324 0.358966
0.345372 0.345226 0.385942
0.847245 0.345188 0.359079
1.000000 0.350155 0.345749
0.145584 0.847586 0.712478
0.344707 0.847367 0.751403
0.832662 0.847342 0.385348
1.000000 0.871170 0.385898
0.145799 1.000000 0.957961
0.345268 1.000000 0.909495
0.655476 1.000000 0.385898
0.992442 1.000000 0.385898
0.148793 0.145580 0.857285
0.367046 0.145734 0.857285
0.857285 0.145734 0.841714
1.000000 0.145954 0.819516
0.145580 0.377086 0.857285
0.352909 0.344690 0.857074
0.857073 0.345171 0.851395
1.000000 0.345749 0.830125
0.145580 0.857285 0.765149
0.344690 0.857074 0.807835
0.846931 0.846894 0.856744
1.000000 0.848136 0.847027
0.145799 1.000000 0.769119
0.345268 1.000000 0.895458
0.846905 1.000000 0.972385
0.997643 1.000000 0.856734
0.150460 0.145799 1.000000
0.367177 0.145954 1.000000
0.878682 0.145954 1.000000
1.000000 0.145954 0.987740
0.145799 0.336855 1.000000
0.359321 0.345268 1.000000
0.866642 0.345749 1.000000
1.000000 0.345749 0.991985
0.145799 0.942624 1.000000
0.345268 0.901440 1.000000
0.850407 0.846905 1.000000
1.000000 0.847027 0.997501
0.145799 1.000000 0.931578
0.345268 1.000000 0.955618
0.846905 1.000000 0.986234
1.000000 1.000000 1.000000
