indra/newview/app_settings/luts/H3.cube
#Created by: Affinity Photo (Serif Europe Ltd.)
TITLE "Exported LUT"
#LUT size
LUT_3D_SIZE 5
#data domain
#LUT data points
DOMAIN_MIN 0.000000 0.000000 0.000000
DOMAIN_MAX 0.827586 0.827586 0.827586
0.078431 0.090453 0.149020
0.144761 0.078431 0.154196
0.470588 0.082353 0.191607
0.862745 0.086275 0.230272
1.000000 0.086275 0.257569
0.094118 0.167216 0.161702
0.168627 0.156863 0.158866
0.431373 0.111373 0.148531
0.815686 0.074196 0.134591
1.000000 0.058667 0.142692
0.157962 0.525490 0.212078
0.326602 0.529412 0.223529
0.533333 0.350905 0.152941
0.858824 0.219922 0.134551
1.000000 0.171608 0.115040
0.244735 0.917647 0.277961
0.478736 0.917647 0.294118
0.825569 0.848537 0.227451
0.925490 0.601768 0.152941
1.000000 0.471261 0.105882
0.294550 1.000000 0.321098
0.560592 1.000000 0.333333
0.898667 0.922799 0.266667
1.000000 0.867767 0.223529
1.000000 0.773478 0.176471
0.078431 0.123503 0.250980
0.113098 0.089499 0.239216
0.462941 0.082353 0.357176
0.862745 0.086275 0.461645
1.000000 0.086275 0.520314
0.082353 0.190118 0.220309
0.152941 0.187909 0.243137
0.454902 0.160784 0.277539
0.847059 0.164706 0.351499
1.000000 0.168627 0.400406
0.098996 0.529412 0.219608
0.237822 0.537255 0.285020
0.541176 0.442111 0.258824
0.862745 0.299137 0.235618
1.000000 0.245333 0.228221
0.143779 0.917647 0.264941
0.370931 0.917647 0.367373
0.777569 0.890492 0.341176
0.925490 0.693060 0.274510
1.000000 0.569728 0.223529
0.157526 1.000000 0.298039
0.447799 1.000000 0.418039
0.853333 0.964168 0.384314
1.000000 0.887134 0.337255
1.000000 0.849083 0.298039
0.082353 0.220324 0.639216
0.095686 0.168909 0.627451
0.238275 0.101565 0.596078
0.765295 0.090196 0.811922
0.904041 0.090196 0.874667
0.086275 0.392873 0.643137
0.156863 0.329204 0.639216
0.308392 0.189613 0.588235
0.789055 0.188235 0.753569
0.943993 0.192157 0.826667
0.090196 0.533333 0.457867
0.164706 0.556235 0.531167
0.482353 0.572480 0.643137
0.866667 0.533333 0.727355
1.000000 0.537255 0.792531
0.086275 0.913726 0.412026
0.172549 0.917647 0.477031
0.582302 0.921569 0.667294
0.925490 0.851461 0.698039
1.000000 0.752314 0.662732
0.094548 1.000000 0.410196
0.179934 1.000000 0.467137
0.669518 1.000000 0.727059
1.000000 0.958594 0.756863
1.000000 0.953251 0.725490
0.090196 0.323567 1.000000
0.086275 0.241882 1.000000
0.190275 0.192941 1.000000
0.451071 0.090196 0.964706
0.826120 0.094118 1.000000
0.090196 0.551018 1.000000
0.160784 0.480174 1.000000
0.253647 0.290598 1.000000
0.535101 0.188235 0.960784
0.862424 0.192157 1.000000
0.086275 0.872000 0.904628
0.164706 0.832000 0.936808
0.482353 0.746979 1.000000
0.706353 0.551783 1.000000
0.923866 0.552941 1.000000
0.086275 0.949333 0.868235
0.172549 0.949333 0.882928
0.498039 0.952000 0.937104
0.878431 0.954037 1.000000
0.987311 0.925490 1.000000
0.090196 1.000000 0.829374
0.176471 1.000000 0.859753
0.513726 1.000000 0.917187
0.898039 1.000000 0.982636
1.000000 1.000000 1.000000
0.090196 0.358862 1.000000
0.090196 0.256901 1.000000
0.162196 0.211254 1.000000
0.390118 0.109096 1.000000
0.649650 0.094118 1.000000
0.090196 0.617685 1.000000
0.160784 0.542919 1.000000
0.222902 0.310165 1.000000
0.466824 0.200478 1.000000
0.721248 0.192157 1.000000
0.086275 0.914667 0.884549
0.164706 0.877333 0.915475
0.482353 0.816000 0.998433
0.661020 0.573116 1.000000
0.868964 0.552941 1.000000
0.086275 1.000000 0.844392
0.168627 1.000000 0.858417
0.498039 1.000000 0.914516
0.878431 0.989333 0.984316
0.987311 0.925490 1.000000
0.090196 1.000000 0.845060
0.176471 1.000000 0.859753
0.513726 1.000000 0.917187
0.890196 1.000000 0.981300
1.000000 1.000000 1.000000
