indra/newview/app_settings/luts/H3.cube
#Created by: Affinity Photo (Serif Europe Ltd.)
TITLE "Exported LUT"
#LUT size
LUT_3D_SIZE 59
#data domain
DOMAIN_MIN 0.0 0.0 0.0
DOMAIN_MAX 1.0 1.0 1.0
#LUT data points
0.078431 0.090453 0.149020
0.078431 0.090453 0.149020
0.081098 0.089198 0.149020
0.083765 0.087943 0.149020
0.086431 0.086688 0.149020
0.089098 0.085433 0.149020
0.094431 0.083591 0.152941
0.097098 0.082336 0.152941
0.102431 0.079826 0.152941
0.108880 0.078431 0.152941
0.120644 0.078431 0.152941
0.128487 0.078431 0.152941
0.144761 0.078431 0.154196
0.158287 0.078431 0.157961
0.182085 0.078431 0.161569
0.205296 0.082353 0.167843
0.227451 0.082353 0.173730
0.250980 0.082353 0.173815
0.278431 0.082353 0.178490
0.305882 0.082353 0.179244
0.337255 0.082353 0.180665
0.368627 0.082353 0.182086
0.400000 0.082353 0.187429
0.435294 0.082353 0.189518
0.470588 0.082353 0.191607
0.509804 0.082353 0.194364
0.545098 0.082353 0.196453
0.584314 0.082353 0.199210
0.619608 0.082353 0.205220
0.654902 0.082353 0.207309
0.690196 0.082353 0.209398
0.721569 0.082353 0.214741
0.752941 0.082353 0.216162
0.780392 0.086275 0.220169
0.811765 0.086274 0.221591
0.835294 0.086275 0.225597
0.862745 0.086275 0.230272
0.882353 0.086274 0.233612
0.905882 0.086275 0.237619
0.925490 0.086275 0.240958
0.945098 0.086275 0.244297
0.964706 0.086275 0.247636
0.980392 0.086275 0.250308
0.996078 0.086275 0.252979
1.000000 0.086275 0.253647
1.000000 0.086275 0.253647
1.000000 0.086275 0.253647
1.000000 0.086275 0.253647
1.000000 0.086275 0.257569
1.000000 0.086275 0.257569
1.000000 0.086275 0.257569
1.000000 0.086275 0.257569
1.000000 0.086275 0.257569
1.000000 0.086275 0.261490
1.000000 0.086275 0.261490
1.000000 0.086275 0.261490
1.000000 0.086275 0.261490
1.000000 0.086275 0.261490
1.000000 0.086275 0.261490
0.078431 0.090453 0.149020
0.078431 0.090453 0.149020
0.081098 0.089198 0.149020
0.081098 0.089198 0.149020
0.083765 0.087943 0.149020
0.086431 0.086688 0.149020
0.089098 0.085433 0.149020
0.091765 0.083510 0.145098
0.097098 0.081000 0.145098
0.102431 0.078491 0.145098
0.109547 0.078431 0.149020
0.117391 0.078431 0.149020
0.129823 0.078431 0.145098
0.142762 0.078431 0.147608
0.160796 0.078431 0.152627
0.178831 0.078431 0.157647
0.203297 0.082353 0.161255
0.227451 0.082353 0.165887
0.250980 0.082353 0.165972
0.278431 0.082353 0.170647
0.305882 0.082353 0.171400
0.337255 0.082353 0.172822
0.372549 0.082353 0.174911
0.407843 0.082353 0.177000
0.443137 0.082353 0.179089
0.482353 0.082353 0.181846
0.521569 0.082353 0.184603
0.560784 0.082353 0.191281
0.596078 0.082353 0.193370
0.635294 0.082353 0.196127
0.670588 0.082353 0.198216
0.705882 0.082353 0.200305
0.737255 0.082353 0.201726
0.768627 0.086275 0.206401
0.800000 0.086275 0.207822
0.827451 0.086274 0.212497
0.854902 0.085020 0.212663
0.878431 0.085020 0.216670
0.898039 0.085020 0.220010
0.921569 0.085020 0.224017
0.941177 0.085020 0.227356
0.956863 0.085020 0.230027
0.972549 0.085020 0.232699
0.992157 0.085020 0.236038
1.000000 0.085020 0.237374
1.000000 0.085020 0.237374
1.000000 0.085020 0.237374
1.000000 0.085020 0.237374
1.000000 0.085020 0.237374
1.000000 0.085020 0.237374
1.000000 0.085020 0.237374
1.000000 0.085020 0.237374
1.000000 0.085020 0.237374
1.000000 0.086275 0.241882
1.000000 0.086275 0.241882
1.000000 0.086275 0.241882
1.000000 0.086275 0.241882
1.000000 0.086275 0.241882
1.000000 0.086275 0.241882
0.078431 0.095042 0.152941
0.078431 0.095042 0.152941
0.082353 0.093706 0.149020
0.082353 0.093706 0.149020
0.085020 0.092451 0.149020
0.087686 0.091196 0.149020
0.090353 0.089942 0.149020
0.091765 0.083510 0.145098
0.097098 0.081000 0.145098
0.099765 0.079746 0.145098
0.106962 0.078431 0.141176
0.114805 0.078431 0.141176
0.126569 0.078431 0.141176
0.139508 0.078431 0.143686
0.153034 0.078431 0.147451
0.171069 0.078431 0.152471
0.194867 0.078431 0.156078
0.215686 0.082353 0.159962
0.239216 0.082353 0.160047
0.262745 0.082353 0.164054
0.290196 0.082353 0.164808
0.321569 0.082353 0.166229
0.352941 0.082353 0.167650
0.388235 0.082353 0.173661
0.423529 0.082353 0.175750
0.458824 0.082353 0.177839
0.498039 0.082353 0.176674
0.533333 0.082353 0.178763
0.572549 0.082353 0.181520
0.607843 0.082353 0.187530
0.643137 0.082353 0.189619
0.678431 0.082353 0.191709
0.709804 0.082353 0.193130
0.745098 0.085020 0.193964
0.772549 0.085020 0.198639
0.803922 0.083765 0.199473
0.827451 0.083765 0.203480
0.854902 0.082510 0.203646
0.878431 0.082510 0.207653
0.898039 0.081255 0.206484
0.921569 0.081255 0.210491
0.941177 0.081255 0.213830
0.956863 0.081255 0.216502
0.976471 0.081255 0.219841
0.992157 0.081255 0.222512
1.000000 0.081255 0.223848
1.000000 0.081255 0.223848
1.000000 0.081255 0.223848
1.000000 0.081255 0.223848
1.000000 0.081255 0.223848
1.000000 0.081255 0.223848
1.000000 0.081255 0.223848
1.000000 0.081255 0.223848
1.000000 0.081255 0.223848
1.000000 0.081255 0.223848
1.000000 0.081255 0.223848
1.000000 0.081255 0.223848
1.000000 0.081255 0.223848
1.000000 0.081255 0.223848
0.078431 0.098964 0.152941
0.082353 0.098296 0.152941
0.082353 0.098296 0.152941
0.086275 0.097628 0.152941
0.086275 0.096960 0.149020
0.088941 0.095705 0.149020
0.091608 0.094450 0.149020
0.093020 0.088687 0.149020
0.098353 0.085509 0.145098
0.101020 0.084254 0.145098
0.106962 0.082353 0.145098
0.114805 0.078431 0.141176
0.126569 0.078431 0.141176
0.140763 0.078431 0.141020
0.154289 0.078431 0.144784
0.172324 0.078431 0.149804
0.191613 0.078431 0.152157
0.211765 0.082353 0.155372
0.235294 0.082353 0.155458
0.258824 0.082353 0.159465
0.286275 0.082353 0.160218
0.313726 0.082353 0.160971
0.345098 0.082353 0.162393
0.380392 0.082353 0.164482
0.411765 0.082353 0.165903
0.450980 0.082353 0.168660
0.486275 0.082353 0.170749
0.521569 0.082353 0.172838
0.560784 0.082353 0.175595
0.596078 0.082353 0.177684
0.631373 0.082353 0.179773
0.662745 0.082353 0.181194
0.698039 0.081098 0.182696
0.729412 0.083765 0.186784
0.760784 0.082510 0.187618
0.788235 0.081255 0.187784
0.815686 0.081255 0.192459
0.839216 0.080000 0.191958
0.862745 0.080000 0.195965
0.886275 0.078745 0.195463
0.905882 0.078745 0.198802
0.925490 0.078745 0.202141
0.945098 0.077490 0.200972
0.960784 0.077490 0.203643
0.980392 0.077490 0.206983
0.992157 0.077490 0.208986
1.000000 0.077490 0.210322
1.000000 0.077490 0.210322
1.000000 0.077490 0.210322
1.000000 0.077490 0.210322
1.000000 0.077490 0.210322
1.000000 0.077490 0.210322
1.000000 0.077490 0.210322
1.000000 0.077490 0.210322
1.000000 0.077490 0.210322
1.000000 0.077490 0.210322
1.000000 0.077490 0.210322
1.000000 0.077490 0.210322
1.000000 0.077490 0.210322
0.082353 0.102217 0.152941
0.082353 0.106139 0.152941
0.086275 0.105471 0.152941
0.090196 0.104803 0.152941
0.090196 0.104803 0.152941
0.092863 0.099627 0.152941
0.092863 0.098959 0.149020
0.096941 0.091940 0.149020
0.099608 0.090686 0.149020
0.104941 0.087508 0.145098
0.107629 0.086275 0.145098
0.119394 0.082353 0.141176
0.127237 0.082353 0.141176
0.141431 0.082353 0.141020
0.154957 0.082353 0.144784
0.173578 0.078431 0.147137
0.192157 0.078431 0.148779
0.211765 0.082353 0.147529
0.235294 0.082353 0.151536
0.258824 0.082353 0.151622
0.282353 0.082353 0.155629
0.313726 0.082353 0.157050
0.345098 0.082353 0.158471
0.376471 0.082353 0.159892
0.407843 0.082353 0.161313
0.443137 0.082353 0.163403
0.482353 0.082353 0.166159
0.517647 0.082353 0.168248
0.552941 0.082353 0.170337
0.588235 0.082353 0.172427
0.623529 0.082353 0.174516
0.658824 0.081098 0.176017
0.690196 0.082510 0.175597
0.721569 0.081255 0.176431
0.752941 0.080000 0.177265
0.780392 0.078745 0.177431
0.807843 0.078745 0.182106
0.831373 0.077490 0.181605
0.858824 0.077490 0.186280
0.878431 0.076235 0.185110
0.901961 0.076235 0.189117
0.921569 0.074980 0.187948
0.937255 0.074980 0.190619
0.956863 0.074980 0.193958
0.972549 0.074980 0.196630
0.988235 0.074980 0.199301
1.000000 0.073725 0.196796
1.000000 0.073725 0.196796
1.000000 0.073725 0.196796
1.000000 0.073725 0.196796
1.000000 0.073725 0.196796
1.000000 0.073725 0.196796
1.000000 0.073725 0.196796
1.000000 0.073725 0.196796
1.000000 0.073725 0.196796
1.000000 0.073725 0.196796
1.000000 0.073725 0.196796
1.000000 0.073725 0.196796
1.000000 0.073725 0.196796
0.082353 0.110060 0.152941
0.086275 0.109393 0.152941
0.086275 0.109393 0.152941
0.090196 0.108725 0.152941
0.094118 0.108057 0.152941
0.098039 0.107389 0.152941
0.096784 0.102880 0.152941
0.099451 0.100958 0.149020
0.100863 0.095194 0.149020
0.106196 0.092684 0.149020
0.112219 0.090196 0.145098
0.120062 0.090196 0.145098
0.127905 0.086275 0.141176
0.140844 0.086275 0.143686
0.155625 0.086275 0.144784
0.174914 0.086275 0.147137
0.192157 0.082353 0.148111
0.211765 0.082353 0.147529
0.235294 0.082353 0.147615
0.258824 0.082353 0.147700
0.286275 0.082353 0.148453
0.313726 0.082353 0.149207
0.341176 0.082353 0.149960
0.376471 0.082353 0.152049
0.407843 0.082353 0.153470
0.443137 0.082353 0.155559
0.478431 0.082353 0.157648
0.513726 0.082353 0.159737
0.552941 0.082353 0.162494
0.588235 0.081098 0.163996
0.619608 0.079843 0.164830
0.654902 0.078588 0.166332
0.686275 0.080000 0.165912
0.717647 0.078745 0.166746
0.749020 0.077490 0.167580
0.776471 0.077490 0.172255
0.803922 0.076235 0.172421
0.827451 0.074980 0.171920
0.854902 0.074980 0.176594
0.874510 0.073725 0.175425
0.898039 0.073725 0.179432
0.917647 0.072471 0.178263
0.933333 0.072471 0.180934
0.952941 0.072471 0.184273
0.968628 0.071216 0.182436
0.984314 0.071216 0.185107
0.996078 0.071216 0.187111
1.000000 0.071216 0.187779
1.000000 0.071216 0.187779
1.000000 0.071216 0.187779
1.000000 0.069961 0.183270
1.000000 0.069961 0.183270
1.000000 0.069961 0.183270
1.000000 0.069961 0.183270
1.000000 0.069961 0.183270
1.000000 0.069961 0.183270
1.000000 0.069961 0.183270
1.000000 0.069961 0.183270
1.000000 0.069961 0.183270
0.086275 0.113982 0.156863
0.086275 0.113982 0.156863
0.090196 0.117236 0.156863
0.090196 0.117236 0.156863
0.094118 0.115900 0.152941
0.098039 0.115232 0.152941
0.105882 0.113896 0.152941
0.104627 0.109388 0.152941
0.106039 0.102956 0.149020
0.108706 0.101702 0.149020
0.112784 0.094683 0.149020
0.120730 0.094118 0.145098
0.132495 0.094118 0.145098
0.141512 0.090196 0.143686
0.160801 0.090196 0.146039
0.175582 0.090196 0.147137
0.196078 0.090196 0.151365
0.215686 0.086275 0.151451
0.235294 0.086275 0.150868
0.258824 0.086275 0.147032
0.286275 0.082353 0.148453
0.313726 0.082353 0.149207
0.345098 0.082353 0.146706
0.376471 0.082353 0.148128
0.411765 0.082353 0.150217
0.443137 0.082353 0.151638
0.482353 0.082353 0.154395
0.517647 0.082353 0.156484
0.552941 0.081098 0.157986
0.588235 0.078588 0.154979
0.619608 0.077333 0.155813
0.654902 0.078745 0.156060
0.686275 0.077490 0.156894
0.717647 0.076235 0.157728
0.749020 0.076235 0.163071
0.776471 0.074980 0.163238
0.803922 0.073725 0.163404
0.827451 0.072471 0.162902
0.850981 0.072471 0.166909
0.874510 0.071216 0.166408
0.894118 0.071216 0.169747
0.913725 0.069961 0.168578
0.933333 0.069961 0.171917
0.949020 0.068706 0.170080
0.964706 0.068706 0.172751
0.980392 0.068706 0.175422
0.996078 0.068706 0.178094
1.000000 0.067451 0.174253
1.000000 0.067451 0.174253
1.000000 0.067451 0.174253
1.000000 0.067451 0.174253
1.000000 0.067451 0.174253
1.000000 0.067451 0.174253
1.000000 0.067451 0.174253
1.000000 0.067451 0.174253
1.000000 0.067451 0.174253
1.000000 0.066196 0.169744
1.000000 0.066196 0.169744
1.000000 0.066196 0.169744
0.086275 0.121825 0.156863
0.086275 0.121825 0.156863
0.090196 0.121157 0.156863
0.094118 0.120489 0.156863
0.098039 0.119822 0.156863
0.101961 0.119154 0.156863
0.105882 0.121740 0.152941
0.113725 0.120404 0.152941
0.111216 0.111387 0.152941
0.109961 0.106210 0.149020
0.115294 0.103700 0.149020
0.122065 0.101961 0.145098
0.133162 0.098039 0.145098
0.147356 0.098039 0.144941
0.160882 0.098039 0.148706
0.179504 0.094118 0.151059
0.196078 0.094118 0.150697
0.215686 0.094118 0.150115
0.239216 0.090196 0.150868
0.262745 0.090196 0.150954
0.290196 0.090196 0.147786
0.317647 0.086275 0.149207
0.349020 0.086275 0.146706
0.380392 0.086275 0.148128
0.411765 0.082353 0.146295
0.447059 0.082353 0.148384
0.482353 0.081098 0.145964
0.517647 0.079843 0.147466
0.552941 0.078588 0.148968
0.588235 0.077333 0.150470
0.623529 0.076078 0.151972
0.654902 0.077490 0.151552
0.686275 0.076235 0.152386
0.717647 0.074980 0.153220
0.749020 0.073725 0.154054
0.776471 0.072471 0.154220
0.803922 0.071216 0.154387
0.827451 0.069961 0.153885
0.850981 0.069961 0.157892
0.874510 0.068706 0.157391
0.894118 0.068706 0.160730
0.913725 0.067451 0.159560
0.933333 0.067451 0.162900
0.949020 0.066196 0.161062
0.964706 0.066196 0.163734
0.980392 0.066196 0.166405
0.996078 0.064941 0.164568
1.000000 0.064941 0.165236
1.000000 0.064941 0.165236
1.000000 0.064941 0.165236
1.000000 0.064941 0.165236
1.000000 0.063686 0.160727
1.000000 0.063686 0.160727
1.000000 0.063686 0.160727
1.000000 0.063686 0.160727
1.000000 0.063686 0.160727
1.000000 0.063686 0.160727
1.000000 0.063686 0.160727
1.000000 0.063686 0.160727
0.086275 0.130336 0.160784
0.090196 0.129668 0.160784
0.094118 0.129000 0.160784
0.094118 0.129000 0.160784
0.098039 0.127665 0.156863
0.105882 0.130251 0.156863
0.109804 0.129583 0.156863
0.113725 0.128915 0.156863
0.120314 0.122403 0.152941
0.119059 0.117894 0.152941
0.120471 0.111463 0.149020
0.125987 0.105882 0.149020
0.134498 0.105882 0.145098
0.147437 0.105882 0.147608
0.166058 0.101961 0.149961
0.180392 0.101961 0.150612
0.200000 0.098039 0.150697
0.219608 0.098039 0.150115
0.243137 0.098039 0.150200
0.266667 0.094118 0.150954
0.290196 0.094118 0.151039
0.321569 0.094118 0.148539
0.349020 0.090196 0.149960
0.380392 0.090196 0.147460
0.415686 0.090196 0.149549
0.450980 0.086275 0.148384
0.486275 0.083765 0.145377
0.521569 0.081255 0.142371
0.556863 0.077333 0.145128
0.592157 0.074824 0.142121
0.623529 0.076235 0.141700
0.658824 0.074980 0.143202
0.690196 0.073725 0.144036
0.721569 0.072471 0.144870
0.749020 0.071216 0.145037
0.776471 0.069961 0.145203
0.803922 0.068706 0.145369
0.831373 0.068706 0.150044
0.854902 0.067451 0.149543
0.874510 0.066196 0.148373
0.894118 0.066196 0.151712
0.913725 0.064941 0.150543
0.933333 0.064941 0.153882
0.949020 0.063686 0.152045
0.964706 0.063686 0.154716
0.980392 0.063686 0.157388
0.996078 0.062431 0.155551
1.000000 0.062431 0.156218
1.000000 0.062431 0.156218
1.000000 0.062431 0.156218
1.000000 0.061176 0.151710
1.000000 0.061176 0.151710
1.000000 0.061176 0.151710
1.000000 0.061176 0.151710
1.000000 0.061176 0.151710
1.000000 0.061176 0.151710
1.000000 0.061176 0.151710
1.000000 0.061176 0.151710
1.000000 0.061176 0.151710
0.090196 0.139451 0.158802
0.090196 0.139451 0.158802
0.094118 0.139451 0.159470
0.098039 0.139451 0.160138
0.101961 0.139429 0.160784
0.105882 0.138762 0.160784
0.113725 0.137426 0.160784
0.117647 0.136090 0.156863
0.125490 0.134755 0.156863
0.128157 0.129578 0.156863
0.125647 0.119893 0.152941
0.127323 0.113725 0.149020
0.139087 0.113725 0.149020
0.152613 0.109804 0.148863
0.167394 0.109804 0.149961
0.184314 0.109804 0.153866
0.200000 0.105882 0.153283
0.223529 0.105882 0.153369
0.243137 0.101961 0.153454
0.266667 0.101961 0.149618
0.294118 0.101961 0.150371
0.321569 0.098039 0.151793
0.352941 0.098039 0.149292
0.384314 0.098039 0.150713
0.419608 0.094118 0.149549
0.454902 0.091608 0.146542
0.490196 0.089098 0.143535
0.525490 0.085176 0.146292
0.560784 0.082667 0.143286
0.592157 0.077490 0.140866
0.627451 0.076235 0.142368
0.658824 0.073725 0.138694
0.694118 0.072471 0.140195
0.721569 0.069961 0.135853
0.752941 0.068706 0.136687
0.780392 0.067451 0.136854
0.807843 0.066196 0.137020
0.831373 0.066196 0.141027
0.854902 0.064941 0.140525
0.878431 0.063686 0.140024
0.898039 0.063686 0.143363
0.917647 0.062431 0.142194
0.933333 0.062431 0.144865
0.952941 0.061176 0.143696
0.968628 0.061176 0.146367
0.984314 0.061176 0.149038
0.996078 0.059922 0.146533
1.000000 0.059922 0.147201
1.000000 0.059922 0.147201
1.000000 0.058667 0.142692
1.000000 0.058667 0.142692
1.000000 0.058667 0.142692
1.000000 0.058667 0.142692
1.000000 0.058667 0.142692
1.000000 0.058667 0.142692
1.000000 0.058667 0.142692
1.000000 0.058667 0.142692
1.000000 0.058667 0.142692
1.000000 0.058667 0.142692
0.090196 0.146039 0.160801
0.094118 0.146039 0.161469
0.098039 0.146039 0.162137
0.101961 0.146039 0.162805
0.105882 0.148706 0.162218
0.109804 0.147451 0.158377
0.113725 0.147451 0.159045
0.121569 0.147451 0.160380
0.129412 0.146519 0.160784
0.137255 0.144516 0.156863
0.139922 0.139339 0.156863
0.136502 0.125490 0.152941
0.140423 0.121569 0.149020
0.152694 0.117647 0.151529
0.171984 0.117647 0.153882
0.184314 0.117647 0.152530
0.203922 0.113725 0.152615
0.223529 0.113725 0.152033
0.247059 0.109804 0.152786
0.270588 0.109804 0.152872
0.298039 0.105882 0.150371
0.325490 0.105882 0.151125
0.356863 0.105882 0.148624
0.388235 0.101961 0.150713
0.423529 0.099451 0.147707
0.458824 0.094275 0.145955
0.494118 0.093020 0.147457
0.529412 0.090510 0.144450
0.564706 0.085333 0.142699
0.596078 0.084078 0.143533
0.631373 0.081569 0.140526
0.662745 0.076392 0.138107
0.694118 0.075137 0.138941
0.725490 0.072627 0.135266
0.756863 0.068706 0.137355
0.784314 0.066196 0.133013
0.811765 0.064941 0.133179
0.835294 0.063686 0.132678
0.858824 0.062431 0.132176
0.878431 0.061176 0.131007
0.901961 0.061176 0.135014
0.917647 0.059922 0.133177
0.937255 0.059922 0.136515
0.952941 0.058667 0.134678
0.968628 0.058667 0.137350
0.984314 0.058667 0.140021
1.000000 0.058667 0.142692
1.000000 0.058667 0.142692
1.000000 0.058667 0.142692
1.000000 0.058667 0.142692
1.000000 0.058667 0.142692
1.000000 0.058667 0.142692
1.000000 0.058667 0.142692
1.000000 0.058667 0.142692
1.000000 0.058667 0.142692
1.000000 0.058667 0.142692
1.000000 0.058667 0.142692
1.000000 0.058667 0.142692
1.000000 0.058667 0.142692
0.094118 0.155294 0.162213
0.094118 0.157961 0.160958
0.098039 0.157961 0.161626
0.101961 0.157961 0.162294
0.105882 0.156706 0.158453
0.113725 0.156706 0.159789
0.117647 0.156706 0.160456
0.125490 0.156706 0.161792
0.133333 0.155451 0.158619
0.141176 0.155451 0.159955
0.152941 0.154277 0.160784
0.150938 0.145098 0.156863
0.150270 0.137255 0.152941
0.154698 0.129412 0.151529
0.172064 0.125490 0.156549
0.188235 0.125490 0.155784
0.207843 0.121569 0.155869
0.227451 0.121569 0.155287
0.250980 0.117647 0.152119
0.274510 0.117647 0.152204
0.301961 0.113725 0.153625
0.329412 0.113725 0.150457
0.360784 0.112471 0.151291
0.392157 0.107294 0.148871
0.427451 0.106039 0.150373
0.462745 0.100863 0.148622
0.498039 0.098353 0.145615
0.533333 0.093176 0.143863
0.568627 0.091922 0.145365
0.600000 0.089412 0.141691
0.635294 0.084235 0.139939
0.666667 0.082980 0.140773
0.698039 0.080471 0.137099
0.729412 0.076549 0.139188
0.760784 0.074039 0.135513
0.788235 0.072784 0.135679
0.811765 0.067608 0.131924
0.839216 0.066353 0.132091
0.862745 0.065098 0.131589
0.882353 0.061176 0.131674
0.901961 0.059922 0.130505
0.921569 0.058667 0.129336
0.941177 0.058667 0.132675
0.956863 0.058667 0.135346
0.972549 0.058667 0.138018
0.988235 0.058667 0.140689
1.000000 0.058667 0.142692
1.000000 0.058667 0.142692
1.000000 0.058667 0.142692
1.000000 0.058667 0.142692
1.000000 0.058667 0.142692
1.000000 0.058667 0.142692
1.000000 0.058667 0.142692
1.000000 0.058667 0.142692
1.000000 0.058667 0.142692
1.000000 0.058667 0.142692
1.000000 0.058667 0.142692
1.000000 0.058667 0.142692
1.000000 0.058667 0.142692
0.094118 0.167216 0.161702
0.098039 0.167216 0.162370
0.101961 0.167216 0.163038
0.105882 0.167216 0.163705
0.109804 0.165961 0.159865
0.113725 0.168627 0.159278
0.121569 0.168627 0.160613
0.129412 0.168627 0.161949
0.137255 0.168627 0.159363
0.145098 0.168627 0.160699
0.157611 0.168627 0.159529
0.168627 0.167292 0.160784
0.168627 0.156863 0.158866
0.168627 0.145098 0.156948
0.172549 0.137255 0.155030
0.192157 0.137255 0.154448
0.207843 0.133333 0.153866
0.227451 0.129412 0.153951
0.250980 0.129412 0.154037
0.278431 0.125490 0.155458
0.305882 0.124235 0.151702
0.333333 0.120314 0.153124
0.364706 0.117804 0.149449
0.396078 0.113882 0.151538
0.431373 0.111373 0.148531
0.466667 0.106196 0.146780
0.501961 0.104941 0.148282
0.537255 0.099765 0.146530
0.572549 0.097255 0.143523
0.603922 0.094745 0.139849
0.639216 0.090824 0.142606
0.670588 0.088314 0.138931
0.701961 0.083137 0.136512
0.733333 0.081882 0.137346
0.764706 0.080627 0.138180
0.792157 0.075451 0.135092
0.815686 0.074196 0.134591
0.839216 0.072941 0.134089
0.862745 0.067765 0.130334
0.886275 0.066510 0.129832
0.905882 0.065255 0.128663
0.925490 0.064000 0.127494
0.941177 0.061333 0.131420
0.960784 0.061333 0.134759
0.976471 0.061333 0.137431
0.988235 0.061333 0.139434
1.000000 0.058667 0.142692
1.000000 0.058667 0.142692
1.000000 0.058667 0.142692
1.000000 0.058667 0.142692
1.000000 0.058667 0.142692
1.000000 0.058667 0.142692
1.000000 0.058667 0.142692
1.000000 0.058667 0.142692
1.000000 0.058667 0.142692
1.000000 0.058667 0.142692
1.000000 0.058667 0.142692
1.000000 0.058667 0.142692
1.000000 0.058667 0.142692
0.098039 0.184314 0.161778
0.101961 0.184314 0.162446
0.101961 0.184314 0.162446
0.105882 0.184314 0.163114
0.113725 0.184314 0.160528
0.117647 0.184314 0.161196
0.125490 0.184314 0.162531
0.133333 0.184314 0.163867
0.141176 0.184314 0.161281
0.149020 0.184314 0.162617
0.164204 0.188235 0.163451
0.180235 0.187993 0.164706
0.188235 0.179639 0.160784
0.188235 0.164863 0.158441
0.188235 0.155608 0.157697
0.192157 0.149020 0.156366
0.211765 0.145098 0.156451
0.231373 0.141176 0.156537
0.254902 0.139922 0.156035
0.278431 0.134745 0.152280
0.305882 0.130824 0.153701
0.337255 0.128314 0.150027
0.368627 0.124392 0.152116
0.400000 0.121882 0.148441
0.435294 0.117961 0.151198
0.470588 0.115451 0.148192
0.505882 0.110275 0.146440
0.541176 0.107765 0.143433
0.576471 0.102588 0.141681
0.607843 0.101333 0.142515
0.643137 0.096157 0.140764
0.674510 0.093647 0.137089
0.705882 0.089725 0.139178
0.737255 0.087216 0.135504
0.768628 0.083294 0.137593
0.796079 0.082039 0.137759
0.819608 0.079529 0.132749
0.843137 0.075608 0.133502
0.866667 0.074353 0.133001
0.890196 0.073098 0.132499
0.909804 0.069176 0.132585
0.929412 0.067922 0.131415
0.945098 0.066667 0.129578
0.960784 0.066667 0.132249
0.976471 0.064000 0.136176
0.992157 0.064000 0.138847
1.000000 0.064000 0.140183
1.000000 0.064000 0.140183
1.000000 0.064000 0.140183
1.000000 0.061333 0.141438
1.000000 0.061333 0.141438
1.000000 0.061333 0.141438
1.000000 0.061333 0.141438
1.000000 0.061333 0.141438
1.000000 0.061333 0.141438
1.000000 0.061333 0.141438
1.000000 0.061333 0.141438
1.000000 0.061333 0.141438
1.000000 0.061333 0.141438
0.101961 0.203922 0.163028
0.101961 0.203922 0.163028
0.105882 0.203922 0.163696
0.109804 0.203922 0.164364
0.113725 0.203922 0.165032
0.121569 0.203922 0.162446
0.129412 0.203922 0.163782
0.137255 0.203922 0.165117
0.146331 0.203922 0.163765
0.159857 0.203922 0.167529
0.175306 0.207843 0.168627
0.187071 0.207843 0.168627
0.199843 0.204262 0.164706
0.207843 0.191986 0.160784
0.207843 0.175632 0.156863
0.207843 0.163608 0.157271
0.211765 0.154353 0.157195
0.235294 0.153098 0.156694
0.258824 0.149176 0.157447
0.282353 0.144000 0.153692
0.309804 0.142745 0.153858
0.341176 0.137569 0.151439
0.372549 0.133647 0.153528
0.403922 0.128471 0.151108
0.439216 0.125961 0.148101
0.474510 0.120784 0.146350
0.509804 0.119529 0.147851
0.545098 0.114353 0.146100
0.580392 0.109176 0.144348
0.611765 0.106667 0.140673
0.647059 0.102745 0.143430
0.678431 0.100235 0.139756
0.709804 0.095059 0.137336
0.741176 0.093804 0.138170
0.772549 0.091294 0.134496
0.800000 0.087373 0.135917
0.823529 0.086118 0.135416
0.847059 0.080941 0.131660
0.870588 0.079686 0.131159
0.894118 0.078431 0.130657
0.913725 0.074510 0.130743
0.929412 0.073255 0.128905
0.949020 0.072000 0.127736
0.964706 0.069333 0.131662
0.980392 0.069333 0.134334
0.996078 0.069333 0.137005
1.000000 0.069333 0.137673
1.000000 0.069333 0.137673
1.000000 0.066667 0.138928
1.000000 0.066667 0.138928
1.000000 0.066667 0.138928
1.000000 0.066667 0.138928
1.000000 0.066667 0.138928
1.000000 0.066667 0.138928
1.000000 0.064000 0.140183
1.000000 0.064000 0.140183
