indra/newview/app_settings/luts/H3.cube
#Created by: Affinity Photo (Serif Europe Ltd.)
TITLE "Exported LUT"
#LUT size
LUT_3D_SIZE 8
#data domain
#LUT data points
DOMAIN_MIN 0.000000 0.000000 0.000000
DOMAIN_MAX 0.965517 0.965517 0.965517
0.078431 0.090453 0.149020
0.102431 0.079826 0.152941
0.227451 0.082353 0.173730
0.470588 0.082353 0.191607
0.752941 0.082353 0.216162
0.945098 0.086275 0.244297
1.000000 0.086275 0.257569
1.000000 0.086275 0.261490
0.086275 0.130336 0.160784
0.120314 0.122403 0.152941
0.200000 0.098039 0.150697
0.415686 0.090196 0.149549
0.690196 0.073725 0.144036
0.894118 0.066196 0.151712
1.000000 0.062431 0.156218
1.000000 0.061176 0.151710
0.105882 0.250980 0.167447
0.159598 0.250980 0.174275
0.254902 0.202912 0.156863
0.443137 0.147137 0.149002
0.717647 0.113569 0.140160
0.917647 0.089098 0.129645
1.000000 0.077333 0.133908
1.000000 0.074667 0.135163
0.157962 0.525490 0.212078
0.239041 0.529412 0.225412
0.432000 0.524921 0.203922
0.533333 0.350905 0.152941
0.749020 0.243451 0.135373
0.941177 0.199059 0.127798
1.000000 0.171608 0.115040
1.000000 0.157176 0.106533
0.221374 0.815686 0.258196
0.330760 0.819608 0.276392
0.562836 0.819608 0.254902
0.772863 0.742521 0.207843
0.823529 0.524346 0.149020
0.956863 0.399216 0.112766
1.000000 0.363765 0.101100
1.000000 0.342745 0.090595
0.269184 0.992157 0.296314
0.406209 0.992157 0.319373
0.649624 0.996078 0.290196
0.869333 0.932596 0.243137
1.000000 0.845488 0.207843
1.000000 0.664925 0.160784
1.000000 0.585072 0.129412
1.000000 0.562793 0.113726
0.294550 1.000000 0.321098
0.445101 1.000000 0.347922
0.693343 1.000000 0.313725
0.898667 0.922799 0.266667
1.000000 0.869770 0.235294
1.000000 0.864428 0.203922
1.000000 0.773478 0.176471
1.000000 0.723080 0.156863
0.307565 1.000000 0.336784
0.468388 1.000000 0.363451
0.722712 1.000000 0.325490
0.914667 0.917274 0.278431
1.000000 0.871774 0.247059
1.000000 0.867767 0.223529
1.000000 0.863092 0.196078
1.000000 0.829048 0.180392
0.078431 0.106310 0.196078
0.094431 0.090269 0.192157
0.207760 0.082353 0.216784
0.474510 0.082353 0.274628
0.752941 0.082353 0.322045
0.945098 0.086275 0.369787
1.000000 0.086275 0.394824
1.000000 0.086275 0.406588
0.082353 0.139600 0.188235
0.109804 0.135593 0.192157
0.208362 0.113725 0.194353
0.454902 0.117647 0.226062
0.733333 0.121569 0.257125
0.929412 0.121569 0.294439
1.000000 0.121569 0.318225
1.000000 0.121569 0.326068
0.086275 0.250980 0.179794
0.133333 0.258824 0.202158
0.262745 0.240963 0.203922
0.458824 0.174275 0.194994
0.737255 0.134118 0.184821
0.933333 0.110902 0.178146
1.000000 0.092706 0.167467
1.000000 0.091451 0.162959
0.111621 0.525490 0.202196
0.194345 0.533333 0.245961
0.393183 0.537255 0.254902
0.541176 0.401389 0.203922
0.752941 0.286431 0.182104
0.945098 0.240627 0.180292
1.000000 0.210510 0.168121
1.000000 0.194824 0.155106
0.155744 0.815686 0.245961
0.279632 0.819608 0.298353
0.511017 0.819608 0.305882
0.743529 0.765007 0.258824
0.827451 0.576166 0.203922
0.956863 0.448784 0.160827
1.000000 0.410667 0.150417
1.000000 0.392314 0.138657
0.188772 0.992157 0.282980
0.344809 0.992157 0.341490
0.597137 0.996078 0.345098
0.842667 0.954495 0.298039
0.992000 0.878210 0.262745
1.000000 0.714158 0.219608
1.000000 0.638227 0.188235
1.000000 0.612694 0.176471
0.199358 1.000000 0.306667
0.379192 1.000000 0.368784
0.640856 1.000000 0.368627
0.872000 0.944698 0.321569
1.000000 0.879120 0.290196
1.000000 0.874445 0.262745
1.000000 0.814201 0.231373
1.000000 0.768392 0.215686
0.203356 1.000000 0.319843
0.401225 1.000000 0.386980
0.666304 1.000000 0.380392
0.888000 0.939840 0.337255
1.000000 0.881124 0.301961
1.000000 0.877117 0.278431
1.000000 0.873110 0.254902
1.000000 0.866517 0.239216
0.078431 0.147374 0.345098
0.086431 0.118744 0.337255
0.137098 0.092898 0.325490
0.421529 0.082353 0.445176
0.739289 0.086275 0.551529
0.949020 0.086275 0.633200
1.000000 0.086275 0.665412
0.996236 0.086275 0.677333
0.082353 0.203526 0.333333
0.113725 0.187087 0.337255
0.165490 0.139391 0.317647
0.429078 0.129412 0.402824
0.737255 0.133333 0.498926
0.933333 0.133333 0.555848
1.000000 0.133333 0.594652
1.000000 0.133333 0.610339
0.086275 0.271373 0.274525
0.117647 0.279059 0.296647
0.223529 0.282113 0.337255
0.462745 0.243137 0.366811
0.745098 0.247059 0.425993
0.937255 0.250980 0.477657
1.000000 0.250980 0.511872
1.000000 0.250980 0.523637
0.086275 0.529412 0.250024
0.122673 0.533333 0.268235
0.288627 0.537255 0.350431
0.541176 0.494102 0.356863
0.756863 0.378039 0.338530
0.945098 0.329569 0.337305
1.000000 0.296784 0.326389
1.000000 0.279686 0.319137
0.121396 0.815686 0.275608
0.163972 0.815686 0.293490
0.393280 0.819608 0.414431
0.700863 0.812467 0.419608
0.823529 0.667628 0.368627
0.956863 0.545569 0.324348
1.000000 0.510118 0.312683
1.000000 0.489098 0.302178
0.144663 0.992157 0.300863
0.188494 0.992157 0.316078
0.477158 0.996078 0.462588
0.796709 0.996078 0.462745
0.962667 0.919395 0.423529
1.000000 0.793856 0.388235
1.000000 0.722514 0.360784
1.000000 0.700903 0.349020
0.140979 1.000000 0.311529
0.194572 1.000000 0.338510
0.523145 1.000000 0.496314
0.832000 0.992239 0.490196
0.984000 0.914699 0.454902
1.000000 0.903163 0.431373
1.000000 0.890645 0.403922
1.000000 0.844836 0.388235
0.137214 1.000000 0.319529
0.203078 1.000000 0.352941
0.545177 1.000000 0.514510
0.848000 0.987381 0.505882
0.997333 0.911096 0.470588
1.000000 0.905834 0.447059
1.000000 0.902495 0.427451
1.000000 0.899823 0.411765
0.082353 0.220324 0.639216
0.082353 0.179773 0.631373
0.122353 0.155692 0.623529
0.238275 0.101565 0.596078
0.637404 0.090196 0.768628
0.856212 0.090196 0.846275
0.904041 0.090196 0.874667
0.900276 0.090196 0.882667
0.086275 0.297334 0.611765
0.117647 0.271134 0.627451
0.145412 0.204027 0.611765
0.270745 0.139704 0.580392
0.650954 0.133333 0.723765
0.863760 0.137255 0.803922
0.929623 0.137255 0.837333
0.924604 0.137255 0.848000
0.090196 0.502431 0.661078
0.121569 0.479843 0.671952
0.227451 0.404793 0.647059
0.361255 0.284688 0.603922
0.690799 0.274510 0.701020
0.902350 0.278431 0.783843
0.963118 0.282353 0.818667
0.959353 0.282353 0.826667
0.090196 0.533333 0.457867
0.121569 0.546039 0.498024
0.235294 0.562510 0.565731
0.482353 0.572480 0.643137
0.755932 0.533333 0.688784
0.949020 0.533333 0.757066
1.000000 0.537255 0.792531
1.000000 0.537255 0.812139
0.086275 0.815686 0.420879
0.125490 0.815686 0.462852
0.243137 0.819608 0.521435
0.533333 0.823529 0.640776
0.823529 0.792980 0.690196
0.956863 0.699137 0.670212
1.000000 0.663686 0.658547
1.000000 0.642667 0.648042
0.094467 0.992157 0.407529
0.130769 0.992157 0.438745
0.258655 0.996078 0.504314
0.623531 0.996078 0.693333
0.925333 0.990392 0.737255
1.000000 0.903521 0.709804
1.000000 0.840022 0.682353
1.000000 0.818411 0.670588
0.094548 1.000000 0.410196
0.130850 1.000000 0.441412
0.269595 1.000000 0.504157
0.669518 1.000000 0.727059
0.949333 0.984440 0.768628
1.000000 0.956590 0.745098
1.000000 0.953251 0.725490
1.000000 0.950580 0.709804
0.094548 1.000000 0.410196
0.135358 1.000000 0.442667
0.274104 1.000000 0.505412
0.696059 1.000000 0.746510
0.962667 0.981505 0.788235
1.000000 0.959929 0.764706
1.000000 0.956590 0.745098
1.000000 0.954587 0.733333
0.086275 0.300535 0.952941
0.086275 0.247551 0.941177
0.110275 0.218567 0.929412
0.203608 0.171306 0.909804
0.372981 0.090196 0.870588
0.704723 0.090196 0.949020
0.845728 0.094118 1.000000
0.845728 0.094118 1.000000
0.090196 0.405664 0.929412
0.121569 0.376209 0.949020
0.133333 0.267570 0.921569
0.237333 0.214622 0.898039
0.418961 0.137255 0.854902
0.741523 0.137255 0.941177
0.853742 0.141176 1.000000
0.853742 0.141176 1.000000
0.090196 0.649058 1.000000
0.121569 0.608421 1.000000
0.231373 0.529476 0.968628
0.322510 0.362116 0.921569
0.513506 0.278431 0.878431
0.812539 0.282353 0.968628
0.880294 0.282353 0.994667
0.877785 0.282353 1.000000
0.086275 0.853333 0.913412
0.121569 0.832000 0.929462
0.235294 0.792000 0.967653
0.482353 0.714939 0.996078
0.647686 0.569373 0.941177
0.872218 0.549020 1.000000
0.923866 0.552941 1.000000
0.923866 0.552941 1.000000
0.086275 0.830902 0.735299
0.125490 0.843451 0.787063
0.243137 0.859765 0.865711
0.494118 0.872471 0.943267
0.768628 0.866854 1.000000
0.927478 0.827451 1.000000
0.970615 0.827451 1.000000
0.970615 0.827451 1.000000
0.090196 0.992157 0.693455
0.129412 0.992157 0.743270
0.250980 0.996078 0.810365
0.505882 0.996078 0.889069
0.788235 1.000000 0.963936
1.000000 1.000000 1.000000
0.990650 0.945098 1.000000
0.989234 0.929412 0.997333
0.090196 1.000000 0.688197
0.129412 1.000000 0.734092
0.258824 1.000000 0.803189
0.513726 1.000000 0.881893
0.827451 1.000000 0.970615
1.000000 1.000000 1.000000
1.000000 1.000000 1.000000
1.000000 1.000000 1.000000
0.090196 1.000000 0.684276
0.133333 1.000000 0.730838
0.262745 1.000000 0.799936
0.517647 1.000000 0.878640
0.850981 1.000000 0.974622
1.000000 1.000000 1.000000
1.000000 1.000000 1.000000
1.000000 1.000000 1.000000
0.090196 0.335332 1.000000
0.090196 0.276509 1.000000
0.102275 0.234353 1.000000
0.178196 0.203724 1.000000
0.338196 0.128430 1.000000
0.527413 0.090196 1.000000
0.739846 0.094118 1.000000
0.845728 0.094118 1.000000
0.090196 0.464744 1.000000
0.121569 0.428029 1.000000
0.133333 0.300535 1.000000
0.208000 0.245790 1.000000
0.374588 0.172494 1.000000
0.566800 0.137255 1.000000
0.775311 0.141176 1.000000
0.853742 0.141176 1.000000
0.086275 0.696000 0.987451
0.121569 0.667244 1.000000
0.231373 0.589721 1.000000
0.287843 0.391787 1.000000
0.467765 0.312217 1.000000
0.657509 0.278431 1.000000
0.846412 0.282353 1.000000
0.877785 0.282353 1.000000
0.086275 0.890667 0.895843
0.121569 0.866667 0.913148
0.235294 0.832000 0.948829
0.482353 0.774430 1.000000
0.607686 0.598214 1.000000
0.774178 0.549020 1.000000
0.923866 0.552941 1.000000
0.923866 0.552941 1.000000
0.086275 0.997333 0.845647
0.125490 1.000000 0.851071
0.243137 0.986667 0.877380
0.494118 0.954667 0.935181
0.768628 0.922667 0.996989
0.886118 0.829228 1.000000
0.970615 0.827451 1.000000
0.970615 0.827451 1.000000
0.086275 1.000000 0.844392
0.129412 1.000000 0.851738
0.250980 1.000000 0.872442
0.505882 1.000000 0.915852
0.780392 1.000000 0.962601
0.960784 1.000000 0.993322
1.000000 1.000000 1.000000
1.000000 1.000000 1.000000
0.090196 1.000000 0.845060
0.129412 1.000000 0.851738
0.258824 1.000000 0.873777
0.513726 1.000000 0.917187
0.788235 1.000000 0.963936
0.968628 1.000000 0.994657
1.000000 1.000000 1.000000
1.000000 1.000000 1.000000
0.090196 1.000000 0.845060
0.133333 1.000000 0.852406
0.258824 1.000000 0.873777
0.517647 1.000000 0.917855
0.792157 1.000000 0.964604
0.972549 1.000000 0.995325
1.000000 1.000000 1.000000
1.000000 1.000000 1.000000
0.090196 0.358862 1.000000
0.090196 0.288273 1.000000
0.098196 0.241371 1.000000
0.162196 0.211254 1.000000
0.308863 0.142234 1.000000
0.484276 0.090196 1.000000
0.649650 0.094118 1.000000
0.732002 0.094118 1.000000
0.090196 0.503960 1.000000
0.121569 0.463323 1.000000
0.133333 0.320143 1.000000
0.190588 0.259083 1.000000
0.345255 0.186298 1.000000
0.527584 0.137255 1.000000
0.685115 0.141176 1.000000
0.767468 0.141176 1.000000
0.086275 0.728000 0.972392
0.121569 0.701333 0.990952
0.231373 0.632858 1.000000
0.274510 0.409826 1.000000
0.438431 0.326021 1.000000
0.614372 0.278431 1.000000
0.764059 0.282353 1.000000
0.838569 0.282353 1.000000
0.086275 0.914667 0.884549
0.121569 0.893333 0.900599
0.235294 0.858667 0.936280
0.482353 0.816000 0.998433
0.578353 0.612018 1.000000
0.734963 0.549020 1.000000
0.868964 0.552941 1.000000
0.923866 0.552941 1.000000
0.086275 1.000000 0.844392
0.125490 1.000000 0.851071
0.243137 1.000000 0.871106
0.494118 0.976000 0.925142
0.768628 0.944000 0.986950
0.862118 0.840522 1.000000
0.970615 0.827451 1.000000
0.970615 0.827451 1.000000
0.086275 1.000000 0.844392
0.129412 1.000000 0.851738
0.250980 1.000000 0.872442
0.505882 1.000000 0.915852
0.780392 1.000000 0.962601
0.960784 1.000000 0.993322
1.000000 1.000000 1.000000
1.000000 1.000000 1.000000
0.090196 1.000000 0.845060
0.129412 1.000000 0.851738
0.258824 1.000000 0.873777
0.513726 1.000000 0.917187
0.788235 1.000000 0.963936
0.968628 1.000000 0.994657
1.000000 1.000000 1.000000
1.000000 1.000000 1.000000
0.090196 1.000000 0.845060
0.133333 1.000000 0.852406
0.258824 1.000000 0.873777
0.517647 1.000000 0.917855
0.792157 1.000000 0.964604
0.972549 1.000000 0.995325
1.000000 1.000000 1.000000
1.000000 1.000000 1.000000
0.090196 0.374548 1.000000
0.090196 0.296116 1.000000
0.092863 0.243881 1.000000
0.154196 0.215018 1.000000
0.292863 0.149763 1.000000
0.461414 0.094118 1.000000
0.622199 0.094118 1.000000
0.704552 0.094118 1.000000
0.090196 0.523567 1.000000
0.121569 0.482931 1.000000
0.133333 0.331907 1.000000
0.182588 0.262847 1.000000
0.329255 0.193828 1.000000
0.500801 0.141176 1.000000
0.661585 0.141176 1.000000
0.743938 0.141176 1.000000
0.086275 0.744000 0.964863
0.121569 0.720000 0.982167
0.231373 0.656388 1.000000
0.274510 0.429434 1.000000
0.419765 0.334805 1.000000
0.590842 0.278431 1.000000
0.744451 0.282353 1.000000
0.815039 0.282353 1.000000
0.086275 0.928000 0.878275
0.121569 0.906667 0.894324
0.235294 0.872000 0.930006
0.482353 0.832000 0.990903
0.562353 0.619547 1.000000
0.711686 0.549273 1.000000
0.853278 0.552941 1.000000
0.916023 0.552941 1.000000
0.086275 1.000000 0.844392
0.125490 1.000000 0.851071
0.243137 1.000000 0.871106
0.494118 0.986667 0.920123
0.768628 0.957333 0.980676
0.848784 0.846797 1.000000
0.954929 0.827451 1.000000
0.971283 0.831373 1.000000
0.090196 1.000000 0.845060
0.133333 1.000000 0.852406
0.266667 1.000000 0.875113
0.525490 1.000000 0.919191
0.796078 1.000000 0.965272
0.968628 1.000000 0.994657
1.000000 1.000000 1.000000
1.000000 1.000000 1.000000
0.105882 1.000000 0.847731
0.156863 1.000000 0.856413
0.313725 1.000000 0.883127
0.584314 1.000000 0.929208
0.843137 1.000000 0.973286
0.996078 1.000000 0.999332
1.000000 1.000000 1.000000
1.000000 1.000000 1.000000
0.117647 1.000000 0.849735
0.184314 1.000000 0.861088
0.376471 1.000000 0.893813
0.662745 1.000000 0.942565
0.905882 1.000000 0.983972
1.000000 1.000000 1.000000
1.000000 1.000000 1.000000
1.000000 1.000000 1.000000
