indra/newview/app_settings/luts/H4.cube
#Created by: Affinity Photo (Serif Europe Ltd.)
TITLE "Exported LUT"
#LUT size
LUT_3D_SIZE 64
#data domain
DOMAIN_MIN 0.0 0.0 0.0
DOMAIN_MAX 1.0 1.0 1.0
#LUT data points
0.141805 0.141805 0.156985
0.146283 0.141753 0.156925
0.150863 0.141700 0.156864
0.155623 0.141646 0.156801
0.160641 0.141588 0.156734
0.165999 0.141528 0.156664
0.171782 0.141463 0.156589
0.178080 0.141393 0.156508
0.184986 0.141317 0.156420
0.192602 0.141235 0.156324
0.201036 0.141144 0.156220
0.212897 0.141019 0.156075
0.223503 0.140910 0.155948
0.235111 0.140792 0.155811
0.247717 0.140666 0.155665
0.261312 0.140532 0.155511
0.275880 0.140392 0.155348
0.291399 0.140245 0.155177
0.307840 0.140091 0.154999
0.325167 0.139931 0.154814
0.343335 0.139766 0.154623
0.362294 0.139595 0.154425
0.381985 0.139420 0.154222
0.402343 0.139240 0.154014
0.423297 0.139056 0.153801
0.444769 0.138869 0.153584
0.466675 0.138679 0.153364
0.488930 0.138486 0.153140
0.511441 0.138290 0.152914
0.534114 0.138093 0.152686
0.556853 0.137895 0.152457
0.579560 0.137696 0.152226
0.607750 0.137446 0.151937
0.630029 0.137246 0.151706
0.651962 0.137047 0.151476
0.673457 0.136849 0.151246
0.694423 0.136651 0.151018
0.714777 0.136456 0.150792
0.734440 0.136262 0.150568
0.753381 0.136071 0.150347
0.771617 0.135883 0.150129
0.789171 0.135697 0.149915
0.806064 0.135515 0.149704
0.822320 0.135337 0.149498
0.837963 0.135162 0.149296
0.851840 0.135042 0.149157
0.864923 0.134939 0.149038
0.877564 0.134840 0.148923
0.889806 0.134745 0.148813
0.901689 0.134653 0.148707
0.913249 0.134565 0.148605
0.924521 0.134480 0.148507
0.935538 0.134398 0.148413
0.948996 0.134300 0.148299
0.959547 0.134224 0.148212
0.969935 0.134151 0.148127
0.980187 0.134080 0.148045
0.990327 0.134012 0.147966
1.000505 0.133945 0.147889
1.013853 0.133881 0.147815
1.027128 0.133818 0.147742
1.040342 0.133757 0.147672
1.053511 0.133697 0.147603
1.062922 0.133785 0.147704
0.141548 0.145886 0.156687
0.147472 0.145560 0.156626
0.151468 0.145616 0.156565
0.155473 0.145694 0.156502
0.159663 0.145769 0.156437
0.164125 0.145836 0.156369
0.168929 0.145891 0.156298
0.174141 0.145935 0.156223
0.179830 0.145966 0.156142
0.186070 0.145985 0.156055
0.192941 0.145992 0.155962
0.202549 0.145982 0.155835
0.211163 0.145959 0.155724
0.220650 0.145924 0.155604
0.231027 0.145877 0.155476
0.242301 0.145818 0.155339
0.254474 0.145749 0.155195
0.267541 0.145669 0.155043
0.281494 0.145579 0.154884
0.296318 0.145479 0.154718
0.311991 0.145371 0.154545
0.328484 0.145255 0.154366
0.345764 0.145131 0.154181
0.363787 0.144999 0.153990
0.382508 0.144861 0.153794
0.401870 0.144716 0.153594
0.421813 0.144566 0.153389
0.442271 0.144410 0.153181
0.463173 0.144250 0.152969
0.484442 0.144085 0.152754
0.505998 0.143917 0.152536
0.527757 0.143745 0.152317
0.555111 0.143527 0.152040
0.577010 0.143349 0.151818
0.598826 0.143170 0.151595
0.620470 0.142990 0.151372
0.641853 0.142809 0.151149
0.662887 0.142628 0.150927
0.683487 0.142447 0.150706
0.703572 0.142266 0.150487
0.723063 0.142086 0.150270
0.741897 0.141908 0.150055
0.760068 0.141731 0.149843
0.777592 0.141556 0.149634
0.794487 0.141384 0.149428
0.810773 0.141215 0.149227
0.826470 0.141048 0.149029
0.841595 0.140885 0.148836
0.856170 0.140726 0.148647
0.870219 0.140571 0.148464
0.883793 0.140419 0.148285
0.896942 0.140271 0.148110
0.909713 0.140126 0.147940
0.925209 0.139949 0.147732
0.937283 0.139811 0.147571
0.949111 0.139675 0.147412
0.960728 0.139542 0.147257
0.972170 0.139412 0.147105
0.983468 0.139283 0.146956
0.994655 0.139157 0.146809
1.007702 0.139032 0.146665
1.022471 0.138909 0.146524
1.037179 0.138788 0.146384
1.051844 0.138668 0.146246
0.141286 0.150035 0.156384
0.148147 0.149519 0.156323
0.152555 0.149503 0.156261
0.156827 0.149543 0.156197
0.161205 0.149599 0.156130
0.165806 0.149659 0.156061
0.170715 0.149716 0.155988
0.176006 0.149767 0.155910
0.181753 0.149810 0.155828
0.188029 0.149844 0.155739
0.194913 0.149867 0.155644
0.204503 0.149880 0.155515
0.213056 0.149877 0.155403
0.222430 0.149862 0.155283
0.232639 0.149835 0.155155
0.243690 0.149798 0.155020
0.255585 0.149749 0.154877
0.268325 0.149690 0.154727
0.281900 0.149622 0.154570
0.296300 0.149543 0.154407
0.311507 0.149456 0.154237
0.327496 0.149360 0.154062
0.344237 0.149256 0.153881
0.361694 0.149144 0.153694
0.379826 0.149024 0.153503
0.398582 0.148898 0.153308
0.417910 0.148766 0.153108
0.437750 0.148628 0.152904
0.458037 0.148484 0.152698
0.478702 0.148336 0.152488
0.499673 0.148183 0.152276
0.520871 0.148027 0.152062
0.547568 0.147826 0.151793
0.568986 0.147663 0.151576
0.590365 0.147497 0.151358
0.611623 0.147330 0.151140
0.632675 0.147161 0.150923
0.653437 0.146991 0.150706
0.673828 0.146821 0.150490
0.693769 0.146651 0.150275
0.713183 0.146481 0.150062
0.731998 0.146312 0.149852
0.750177 0.146144 0.149644
0.767731 0.145978 0.149439
0.784674 0.145814 0.149237
0.801023 0.145652 0.149038
0.816796 0.145493 0.148844
0.832010 0.145336 0.148653
0.846683 0.145183 0.148467
0.860833 0.145033 0.148285
0.874496 0.144887 0.148109
0.887719 0.144744 0.147936
0.900551 0.144605 0.147768
0.916104 0.144434 0.147563
0.928208 0.144301 0.147403
0.940049 0.144171 0.147247
0.951665 0.144043 0.147094
0.963090 0.143917 0.146944
0.974355 0.143793 0.146798
0.985493 0.143671 0.146653
0.996532 0.143551 0.146512
1.010031 0.143432 0.146372
1.024630 0.143315 0.146235
1.039180 0.143199 0.146100
0.141017 0.154315 0.156072
0.148407 0.153672 0.156011
0.153109 0.153600 0.155949
0.157613 0.153604 0.155883
0.162189 0.153635 0.155816
0.166969 0.153679 0.155745
0.172045 0.153725 0.155670
0.177495 0.153770 0.155590
0.183396 0.153811 0.155505
0.189822 0.153845 0.155415
0.196852 0.153870 0.155317
0.206618 0.153887 0.155186
0.215290 0.153890 0.155071
0.224752 0.153881 0.154950
0.235015 0.153862 0.154820
0.246086 0.153833 0.154684
0.257967 0.153794 0.154541
0.270655 0.153744 0.154391
0.284145 0.153685 0.154234
0.298423 0.153617 0.154071
0.313474 0.153540 0.153903
0.329274 0.153455 0.153729
0.345795 0.153361 0.153549
0.363002 0.153260 0.153365
0.380856 0.153151 0.153176
0.399312 0.153036 0.152983
0.418318 0.152914 0.152786
0.437819 0.152786 0.152586
0.457754 0.152653 0.152383
0.478058 0.152515 0.152177
0.498662 0.152373 0.151969
0.519494 0.152226 0.151759
0.545738 0.152038 0.151494
0.566803 0.151884 0.151281
0.587843 0.151728 0.151068
0.608779 0.151569 0.150854
0.629530 0.151409 0.150641
0.650017 0.151248 0.150428
0.670162 0.151087 0.150217
0.689887 0.150925 0.150007
0.709119 0.150763 0.149798
0.727787 0.150602 0.149592
0.745844 0.150441 0.149388
0.763292 0.150282 0.149187
0.780146 0.150125 0.148989
0.796421 0.149970 0.148795
0.812134 0.149817 0.148604
0.827299 0.149667 0.148417
0.841934 0.149520 0.148234
0.856056 0.149376 0.148056
0.869692 0.149236 0.147882
0.882889 0.149099 0.147713
0.895693 0.148965 0.147548
0.911207 0.148802 0.147347
0.923275 0.148674 0.147190
0.935078 0.148548 0.147037
0.946650 0.148426 0.146887
0.958025 0.148305 0.146740
0.969235 0.148186 0.146596
0.980309 0.148069 0.146455
0.991279 0.147953 0.146316
1.002905 0.147839 0.146180
1.017399 0.147727 0.146045
1.031841 0.147616 0.145913
0.140735 0.158789 0.155745
0.148472 0.158038 0.155687
0.153386 0.157921 0.155624
0.158074 0.157893 0.155558
0.162820 0.157902 0.155489
0.167761 0.157929 0.155417
0.172997 0.157963 0.155340
0.178608 0.158000 0.155259
0.184672 0.158034 0.155172
0.191265 0.158063 0.155079
0.198467 0.158086 0.154979
0.208450 0.158102 0.154845
0.217281 0.158105 0.154728
0.226884 0.158098 0.154605
0.237267 0.158081 0.154474
0.248434 0.158055 0.154336
0.260387 0.158020 0.154191
0.273123 0.157975 0.154041
0.286633 0.157921 0.153884
0.300905 0.157858 0.153721
0.315922 0.157786 0.153552
0.331662 0.157706 0.153379
0.348096 0.157619 0.153200
0.365191 0.157524 0.153017
0.382908 0.157422 0.152830
0.401203 0.157313 0.152638
0.420028 0.157198 0.152443
0.439328 0.157077 0.152245
0.459045 0.156951 0.152045
0.479116 0.156820 0.151841
0.499475 0.156685 0.151636
0.520053 0.156545 0.151429
0.545973 0.156366 0.151168
0.566776 0.156219 0.150959
0.587556 0.156069 0.150749
0.608236 0.155918 0.150540
0.628739 0.155765 0.150330
0.648988 0.155611 0.150122
0.668907 0.155456 0.149914
0.688424 0.155300 0.149708
0.707465 0.155145 0.149504
0.725964 0.154990 0.149302
0.743868 0.154836 0.149102
0.761178 0.154684 0.148905
0.777907 0.154533 0.148711
0.794069 0.154384 0.148521
0.809679 0.154237 0.148334
0.824753 0.154093 0.148151
0.839307 0.153952 0.147972
0.853355 0.153814 0.147798
0.866924 0.153680 0.147628
0.880059 0.153548 0.147462
0.892802 0.153420 0.147300
0.908243 0.153263 0.147103
0.920254 0.153141 0.146950
0.931999 0.153021 0.146800
0.943514 0.152903 0.146654
0.954830 0.152788 0.146510
0.965978 0.152674 0.146369
0.976989 0.152562 0.146231
0.987892 0.152452 0.146096
0.998715 0.152343 0.145962
1.012680 0.152235 0.145831
1.027027 0.152128 0.145702
0.140437 0.163520 0.155400
0.148417 0.162666 0.155345
0.153491 0.162510 0.155282
0.158323 0.162454 0.155216
0.163208 0.162443 0.155146
0.168288 0.162454 0.155073
0.173665 0.162476 0.154995
0.179421 0.162503 0.154912
0.185637 0.162530 0.154823
0.192389 0.162554 0.154728
0.199758 0.162573 0.154627
0.209955 0.162586 0.154489
0.218949 0.162587 0.154371
0.228702 0.162579 0.154245
0.239221 0.162563 0.154113
0.250508 0.162538 0.153973
0.262564 0.162503 0.153828
0.275383 0.162460 0.153676
0.288957 0.162409 0.153518
0.303272 0.162349 0.153355
0.318311 0.162280 0.153187
0.334051 0.162204 0.153013
0.350463 0.162120 0.152835
0.367514 0.162030 0.152653
0.385165 0.161932 0.152466
0.403375 0.161828 0.152276
0.422094 0.161717 0.152083
0.441270 0.161601 0.151886
0.460845 0.161480 0.151688
0.480760 0.161354 0.151487
0.500949 0.161224 0.151284
0.521346 0.161090 0.151079
0.547026 0.160917 0.150823
0.567630 0.160776 0.150616
0.588207 0.160632 0.150410
0.608683 0.160486 0.150204
0.628982 0.160339 0.149998
0.649031 0.160190 0.149793
0.668756 0.160041 0.149590
0.688087 0.159891 0.149387
0.706953 0.159742 0.149187
0.725287 0.159593 0.148989
0.743040 0.159445 0.148793
0.760209 0.159299 0.148601
0.776808 0.159153 0.148411
0.792849 0.159010 0.148225
0.808348 0.158869 0.148042
0.823319 0.158731 0.147863
0.837778 0.158596 0.147688
0.851740 0.158464 0.147518
0.865228 0.158335 0.147351
0.878287 0.158209 0.147189
0.890959 0.158087 0.147032
0.906318 0.157937 0.146839
0.918265 0.157820 0.146690
0.929948 0.157706 0.146544
0.941402 0.157594 0.146400
0.952658 0.157483 0.146260
0.963747 0.157375 0.146123
0.974698 0.157268 0.145988
0.985540 0.157163 0.145856
0.996300 0.157059 0.145726
1.009366 0.156956 0.145599
1.023629 0.156855 0.145473
0.140120 0.168573 0.155033
0.148275 0.167615 0.154982
0.153472 0.167420 0.154920
0.158419 0.167338 0.154854
0.163416 0.167308 0.154783
0.168613 0.167304 0.154709
0.174110 0.167315 0.154630
0.179994 0.167333 0.154545
0.186344 0.167354 0.154455
0.193239 0.167372 0.154359
0.200761 0.167387 0.154255
0.211156 0.167396 0.154115
0.220301 0.167394 0.153995
0.230198 0.167385 0.153868
0.240850 0.167368 0.153733
0.252260 0.167343 0.153593
0.264424 0.167309 0.153446
0.277338 0.167267 0.153294
0.290992 0.167217 0.153135
0.305371 0.167158 0.152972
0.320456 0.167092 0.152803
0.336224 0.167018 0.152630
0.352646 0.166937 0.152452
0.369689 0.166849 0.152270
0.387314 0.166755 0.152084
0.405479 0.166654 0.151895
0.424136 0.166547 0.151703
0.443233 0.166435 0.151509
0.462715 0.166318 0.151312
0.482520 0.166196 0.151113
0.502587 0.166070 0.150912
0.522849 0.165940 0.150711
0.548347 0.165773 0.150457
0.568797 0.165637 0.150254
0.589213 0.165498 0.150051
0.609524 0.165357 0.149848
0.629657 0.165214 0.149646
0.649539 0.165071 0.149445
0.669100 0.164927 0.149245
0.688269 0.164783 0.149047
0.706979 0.164639 0.148850
0.725166 0.164496 0.148656
0.742779 0.164353 0.148465
0.759817 0.164212 0.148276
0.776292 0.164073 0.148091
0.792218 0.163936 0.147909
0.807608 0.163801 0.147730
0.822478 0.163668 0.147556
0.836842 0.163539 0.147385
0.850714 0.163412 0.147219
0.864120 0.163290 0.147057
0.877102 0.163170 0.146899
0.889703 0.163053 0.146745
0.904978 0.162911 0.146557
0.916862 0.162800 0.146412
0.928486 0.162691 0.146269
0.939882 0.162584 0.146130
0.951081 0.162480 0.145993
0.962114 0.162377 0.145860
0.973010 0.162276 0.145729
0.983797 0.162176 0.145600
0.994503 0.162077 0.145474
1.006889 0.161980 0.145350
1.021080 0.161884 0.145228
0.139780 0.174015 0.154639
0.148063 0.172945 0.154594
0.153354 0.172713 0.154532
0.158392 0.172606 0.154466
0.163482 0.172557 0.154396
0.168774 0.172540 0.154321
0.174373 0.172540 0.154241
0.180366 0.172549 0.154155
0.186833 0.172563 0.154064
0.193854 0.172576 0.153966
0.201512 0.172586 0.153861
0.212080 0.172591 0.153719
0.221362 0.172588 0.153597
0.231389 0.172577 0.153468
0.242165 0.172559 0.153333
0.253689 0.172533 0.153191
0.265959 0.172500 0.153044
0.278967 0.172458 0.152890
0.292702 0.172408 0.152731
0.307150 0.172351 0.152567
0.322290 0.172287 0.152399
0.338098 0.172215 0.152225
0.354546 0.172136 0.152048
0.371599 0.172050 0.151867
0.389219 0.171958 0.151682
0.407363 0.171860 0.151495
0.425983 0.171756 0.151304
0.445029 0.171648 0.151111
0.464445 0.171534 0.150916
0.484172 0.171416 0.150719
0.504148 0.171293 0.150521
0.524308 0.171168 0.150322
0.549665 0.171006 0.150072
0.569992 0.170874 0.149872
0.590280 0.170739 0.149672
0.610457 0.170603 0.149473
0.630452 0.170466 0.149274
0.650195 0.170327 0.149077
0.669616 0.170189 0.148881
0.688647 0.170050 0.148687
0.707223 0.169911 0.148494
0.725279 0.169773 0.148305
0.742768 0.169637 0.148117
0.759688 0.169501 0.147933
0.776052 0.169368 0.147752
0.791872 0.169236 0.147574
0.807163 0.169107 0.147400
0.821938 0.168981 0.147230
0.836213 0.168857 0.147064
0.850001 0.168737 0.146902
0.863328 0.168620 0.146744
0.876238 0.168507 0.146590
0.888771 0.168396 0.146440
0.903967 0.168262 0.146258
0.915793 0.168157 0.146117
0.927360 0.168054 0.145978
0.938703 0.167954 0.145843
0.949851 0.167855 0.145710
0.960834 0.167758 0.145581
0.971682 0.167663 0.145453
0.982421 0.167569 0.145329
0.993078 0.167477 0.145206
1.004921 0.167385 0.145086
1.019051 0.167294 0.144967
0.139414 0.179912 0.154216
0.147789 0.178723 0.154176
0.153152 0.178452 0.154116
0.158262 0.178320 0.154051
0.163426 0.178253 0.153980
0.168797 0.178222 0.153905
0.174481 0.178211 0.153824
0.180565 0.178213 0.153738
0.187132 0.178220 0.153645
0.194261 0.178228 0.153546
0.202036 0.178235 0.153440
0.212756 0.178236 0.153296
0.222155 0.178230 0.153173
0.232297 0.178218 0.153043
0.243182 0.178199 0.152907
0.254810 0.178172 0.152765
0.267175 0.178139 0.152616
0.280270 0.178097 0.152462
0.294083 0.178049 0.152303
0.308598 0.177992 0.152139
0.323793 0.177929 0.151971
0.339645 0.177859 0.151798
0.356123 0.177782 0.151621
0.373194 0.177698 0.151441
0.390818 0.177609 0.151258
0.408954 0.177513 0.151071
0.427553 0.177413 0.150882
0.446564 0.177307 0.150691
0.465933 0.177196 0.150498
0.485602 0.177082 0.150304
0.505508 0.176963 0.150108
0.525589 0.176841 0.149912
0.550834 0.176685 0.149666
0.571062 0.176557 0.149469
0.591245 0.176427 0.149273
0.611312 0.176296 0.149077
0.631193 0.176163 0.148882
0.650820 0.176030 0.148689
0.670124 0.175896 0.148497
0.689038 0.175763 0.148307
0.707499 0.175630 0.148119
0.725443 0.175498 0.147933
0.742824 0.175367 0.147751
0.759641 0.175237 0.147571
0.775907 0.175110 0.147394
0.791634 0.174985 0.147221
0.806835 0.174862 0.147052
0.821526 0.174742 0.146886
0.835719 0.174625 0.146724
0.849430 0.174512 0.146567
0.862686 0.174402 0.146414
0.875529 0.174295 0.146265
0.888001 0.174191 0.146119
0.903126 0.174065 0.145943
0.914899 0.173966 0.145805
0.926416 0.173870 0.145671
0.937711 0.173777 0.145540
0.948814 0.173685 0.145411
0.959754 0.173594 0.145286
0.970559 0.173505 0.145163
0.981257 0.173418 0.145042
0.991874 0.173332 0.144923
1.003258 0.173246 0.144807
1.017335 0.173162 0.144693
0.139019 0.186336 0.153758
0.147456 0.185017 0.153726
0.152874 0.184705 0.153668
0.158039 0.184547 0.153603
0.163263 0.184461 0.153533
0.168698 0.184417 0.153457
0.174451 0.184396 0.153376
0.180611 0.184390 0.153290
0.187261 0.184391 0.153196
0.194481 0.184394 0.153096
0.202356 0.184397 0.152989
0.213203 0.184394 0.152844
0.222703 0.184387 0.152720
0.232943 0.184373 0.152590
0.243923 0.184353 0.152453
0.255640 0.184327 0.152310
0.268088 0.184293 0.152161
0.281260 0.184252 0.152007
0.295142 0.184204 0.151848
0.309716 0.184149 0.151685
0.324963 0.184087 0.151517
0.340855 0.184019 0.151345
0.357364 0.183944 0.151169
0.374454 0.183862 0.150990
0.392087 0.183775 0.150808
0.410220 0.183683 0.150623
0.428805 0.183585 0.150436
0.447792 0.183482 0.150247
0.467126 0.183375 0.150057
0.486749 0.183264 0.149865
0.506600 0.183149 0.149672
0.526618 0.183032 0.149479
0.551772 0.182881 0.149237
0.571920 0.182757 0.149044
0.592017 0.182632 0.148851
0.611993 0.182506 0.148659
0.631780 0.182378 0.148469
0.651310 0.182250 0.148279
0.670516 0.182122 0.148092
0.689332 0.181995 0.147906
0.707695 0.181868 0.147723
0.725544 0.181742 0.147542
0.742834 0.181617 0.147364
0.759564 0.181494 0.147189
0.775745 0.181373 0.147017
0.791391 0.181254 0.146849
0.806515 0.181139 0.146685
0.821131 0.181026 0.146524
0.835253 0.180916 0.146367
0.848895 0.180810 0.146215
0.862088 0.180707 0.146066
0.874873 0.180607 0.145922
0.887291 0.180510 0.145781
0.902354 0.180393 0.145611
0.914080 0.180302 0.145478
0.925554 0.180214 0.145348
0.936808 0.180127 0.145221
0.947872 0.180042 0.145097
0.958774 0.179959 0.144976
0.969544 0.179877 0.144857
0.980207 0.179797 0.144741
0.990790 0.179718 0.144626
1.001764 0.179639 0.144514
1.015800 0.179561 0.144404
0.138592 0.193359 0.153264
0.147068 0.191899 0.153240
0.152526 0.191543 0.153184
0.157733 0.191358 0.153120
0.163002 0.191253 0.153050
0.168486 0.191195 0.152975
0.174295 0.191164 0.152894
0.180516 0.191150 0.152807
0.187234 0.191145 0.152714
0.194530 0.191144 0.152613
0.202487 0.191143 0.152505
0.213439 0.191137 0.152360
0.223022 0.191128 0.152236
0.233344 0.191113 0.152105
0.244402 0.191093 0.151968
0.256194 0.191066 0.151825
0.268712 0.191032 0.151676
0.281949 0.190992 0.151523
0.295888 0.190945 0.151364
0.310514 0.190891 0.151201
0.325804 0.190831 0.151034
0.341732 0.190765 0.150863
0.358267 0.190692 0.150689
0.375375 0.190613 0.150511
0.393016 0.190529 0.150331
0.411148 0.190439 0.150149
0.429723 0.190344 0.149964
0.448690 0.190245 0.149778
0.467996 0.190142 0.149590
0.487582 0.190035 0.149401
0.507389 0.189924 0.149212
0.527354 0.189811 0.149022
0.552434 0.189666 0.148785
0.572516 0.189548 0.148596
0.592542 0.189428 0.148407
0.612443 0.189307 0.148219
0.632152 0.189185 0.148033
0.651602 0.189063 0.147848
0.670726 0.188941 0.147666
0.689461 0.188820 0.147485
0.707744 0.188699 0.147306
0.725515 0.188580 0.147131
0.742729 0.188462 0.146958
0.759385 0.188346 0.146788
0.775496 0.188232 0.146622
0.791074 0.188121 0.146459
0.806132 0.188013 0.146299
0.820685 0.187907 0.146144
0.834746 0.187806 0.145993
0.848329 0.187707 0.145845
0.861467 0.187612 0.145702
0.874202 0.187521 0.145563
0.886574 0.187432 0.145427
0.901584 0.187325 0.145263
0.913271 0.187242 0.145134
0.924709 0.187162 0.145010
0.935928 0.187083 0.144888
0.946959 0.187006 0.144768
0.957831 0.186931 0.144652
0.968570 0.186857 0.144537
0.979205 0.186784 0.144426
0.989761 0.186713 0.144316
1.000353 0.186642 0.144208
1.014354 0.186572 0.144102
0.138010 0.203094 0.152590
0.146506 0.201442 0.152577
0.151995 0.201028 0.152525
0.157238 0.200807 0.152463
0.162547 0.200677 0.152395
0.168077 0.200601 0.152320
0.173936 0.200556 0.152240
0.180216 0.200532 0.152153
0.186999 0.200520 0.152059
0.194367 0.200514 0.151959
0.202404 0.200508 0.151851
0.213458 0.200499 0.151705
0.223123 0.200488 0.151581
0.233523 0.200472 0.151451
0.244657 0.200451 0.151314
0.256521 0.200425 0.151172
0.269108 0.200392 0.151024
0.282407 0.200353 0.150872
0.296403 0.200308 0.150714
0.311078 0.200256 0.150553
0.326409 0.200198 0.150388
0.342371 0.200134 0.150219
0.358930 0.200064 0.150047
0.376054 0.199989 0.149873
0.393702 0.199909 0.149696
0.411831 0.199823 0.149517
0.430394 0.199733 0.149336
0.449340 0.199638 0.149153
0.468616 0.199540 0.148970
0.488164 0.199438 0.148786
0.507925 0.199333 0.148601
0.527837 0.199226 0.148417
0.552841 0.199089 0.148186
0.572856 0.198977 0.148002
0.592810 0.198864 0.147820
0.612636 0.198750 0.147638
0.632267 0.198636 0.147458
0.651638 0.198522 0.147280
0.670682 0.198408 0.147104
0.689337 0.198295 0.146930
0.707542 0.198184 0.146758
0.725236 0.198073 0.146589
0.742376 0.197965 0.146424
0.758961 0.197858 0.146261
0.775002 0.197754 0.146102
0.790513 0.197653 0.145946
0.805506 0.197555 0.145794
0.819995 0.197460 0.145646
0.833993 0.197368 0.145501
0.847516 0.197280 0.145361
0.860600 0.197196 0.145225
0.873284 0.197115 0.145092
0.885610 0.197037 0.144964
0.900567 0.196944 0.144807
0.912216 0.196872 0.144686
0.923617 0.196802 0.144567
0.934803 0.196734 0.144452
0.945803 0.196667 0.144339
0.956645 0.196603 0.144229
0.967356 0.196539 0.144121
0.977964 0.196477 0.144015
0.988494 0.196416 0.143911
0.998972 0.196355 0.143810
1.012597 0.196295 0.143710
0.137507 0.211706 0.152008
0.145997 0.209899 0.152003
0.151499 0.209437 0.151953
0.156759 0.209186 0.151894
0.162088 0.209035 0.151827
0.167642 0.208944 0.151753
0.173530 0.208888 0.151674
0.179842 0.208856 0.151587
0.186662 0.208837 0.151495
0.194073 0.208825 0.151395
0.202158 0.208816 0.151287
0.213271 0.208802 0.151142
0.222982 0.208789 0.151019
0.233429 0.208772 0.150889
0.244607 0.208750 0.150754
0.256514 0.208722 0.150613
0.269140 0.208689 0.150467
0.282474 0.208650 0.150316
0.296502 0.208605 0.150160
0.311205 0.208554 0.150001
0.326559 0.208497 0.149838
0.342538 0.208435 0.149672
0.359110 0.208367 0.149503
0.376240 0.208293 0.149331
0.393889 0.208215 0.149158
0.412014 0.208131 0.148982
0.430567 0.208044 0.148805
0.449498 0.207952 0.148626
0.468752 0.207857 0.148447
0.488275 0.207759 0.148267
0.508005 0.207658 0.148087
0.527881 0.207555 0.147908
0.552837 0.207423 0.147684
0.572810 0.207316 0.147505
0.592718 0.207209 0.147328
0.612498 0.207100 0.147152
0.632081 0.206992 0.146977
0.651402 0.206883 0.146805
0.670398 0.206776 0.146635
0.689005 0.206669 0.146467
0.707163 0.206564 0.146301
0.724813 0.206460 0.146139
0.741910 0.206359 0.145979
0.758453 0.206260 0.145823
0.774453 0.206164 0.145670
0.789923 0.206070 0.145521
0.804877 0.205980 0.145375
0.819327 0.205893 0.145233
0.833287 0.205810 0.145095
0.846773 0.205730 0.144961
0.859823 0.205655 0.144830
0.872477 0.205582 0.144704
0.884775 0.205513 0.144581
0.899701 0.205430 0.144432
0.911326 0.205366 0.144316
0.922707 0.205305 0.144203
0.933874 0.205246 0.144093
0.944855 0.205188 0.143986
0.955680 0.205132 0.143881
0.966376 0.205077 0.143778
0.976969 0.205023 0.143678
0.987486 0.204970 0.143579
0.997951 0.204918 0.143483
1.011215 0.204866 0.143388
0.136974 0.221052 0.151391
0.145442 0.219094 0.151395
0.150947 0.218584 0.151348
0.156214 0.218303 0.151290
0.161555 0.218131 0.151225
0.167124 0.218024 0.151153
0.173029 0.217956 0.151074
0.179363 0.217914 0.150989
0.186209 0.217888 0.150898
0.193650 0.217870 0.150799
0.201769 0.217855 0.150692
0.212924 0.217837 0.150549
0.222668 0.217821 0.150427
0.233147 0.217801 0.150299
0.244356 0.217776 0.150165
0.256292 0.217747 0.150026
0.268945 0.217713 0.149882
0.282303 0.217673 0.149734
0.296352 0.217628 0.149581
0.311073 0.217577 0.149424
0.326441 0.217520 0.149265
0.342430 0.217458 0.149102
0.359008 0.217390 0.148936
0.376140 0.217318 0.148768
0.393787 0.217241 0.148598
0.411904 0.217160 0.148427
0.430446 0.217074 0.148254
0.449362 0.216985 0.148081
0.468597 0.216893 0.147906
0.488097 0.216798 0.147732
0.507801 0.216700 0.147557
0.527649 0.216601 0.147383
0.552565 0.216474 0.147166
0.572504 0.216372 0.146993
0.592377 0.216269 0.146822
0.612120 0.216165 0.146652
0.631666 0.216062 0.146484
0.650951 0.215960 0.146318
0.669911 0.215858 0.146154
0.688482 0.215758 0.145993
0.706607 0.215659 0.145834
0.724225 0.215563 0.145678
0.741292 0.215468 0.145526
0.757806 0.215377 0.145376
0.773777 0.215288 0.145230
0.789218 0.215202 0.145087
0.804143 0.215120 0.144948
0.818564 0.215041 0.144813
0.832495 0.214967 0.144681
0.845954 0.214896 0.144554
