indra/newview/app_settings/luts/H4.cube
#Created by: Affinity Photo (Serif Europe Ltd.)
TITLE "Exported LUT"
#LUT size
LUT_3D_SIZE 4
#data domain
DOMAIN_MIN 0.0 0.0 0.0
DOMAIN_MAX 1.0 1.0 1.0
#LUT data points
0.141805 0.141805 0.156985
0.362294 0.139595 0.154425
0.806064 0.135515 0.149704
1.062922 0.133785 0.147704
0.132274 0.320576 0.145958
0.335141 0.315120 0.144364
0.733542 0.314371 0.142108
1.001365 0.314897 0.140796
0.126625 0.716044 0.139443
0.310688 0.716549 0.139365
0.721744 0.719854 0.139289
1.000000 0.720602 0.140377
0.126492 0.996477 0.139289
0.301781 0.998157 0.139289
0.718661 0.999652 0.139289
1.000000 1.000000 0.140189
0.140020 0.140020 0.355437
0.391847 0.136792 0.340620
0.793129 0.134290 0.335509
1.033074 0.133932 0.333612
0.129316 0.324468 0.326068
0.332261 0.318165 0.326598
0.739246 0.314923 0.331009
1.004808 0.313586 0.337984
0.126501 0.716104 0.343447
0.301667 0.717889 0.345400
0.719435 0.719435 0.346979
1.000000 0.720669 0.349916
0.126492 0.996652 0.344680
0.300661 0.998614 0.344220
0.718276 0.999538 0.345795
1.000000 1.000000 0.349225
0.131654 0.131654 0.806948
0.354530 0.130060 0.791528
0.756695 0.129505 0.786364
1.005396 0.130574 0.784195
0.126919 0.309702 0.790737
0.312343 0.306729 0.792024
0.723533 0.305670 0.799083
1.000084 0.305905 0.804021
0.126492 0.715567 0.798700
0.301331 0.717502 0.800620
0.719049 0.719049 0.802155
1.000000 0.720782 0.803874
0.126492 0.996784 0.798587
0.300326 0.998383 0.799466
0.717889 0.999307 0.801004
1.000000 1.000000 0.803430
0.126995 0.126995 1.132323
0.325482 0.126804 1.126776
0.732722 0.126764 1.131211
1.000216 0.127705 1.130244
0.126506 0.301585 1.125510
0.302003 0.302003 1.129302
0.719647 0.303722 1.130000
1.000000 0.306119 1.130000
0.126492 0.715697 1.125470
0.300996 0.717115 1.128255
0.718663 0.718663 1.129651
1.000000 0.721009 1.130000
0.126492 0.996886 1.125295
0.299992 0.998152 1.127208
0.717502 0.999076 1.128604
1.000000 1.000000 1.130000
