indra/newview/app_settings/luts/H4.cube
#Created by: Affinity Photo (Serif Europe Ltd.)
TITLE "Exported LUT"
#LUT size
LUT_3D_SIZE 8
#data domain
DOMAIN_MIN 0.0 0.0 0.0
DOMAIN_MAX 1.0 1.0 1.0
#LUT data points
0.141805 0.141805 0.156985
0.192602 0.141235 0.156324
0.307840 0.140091 0.154999
0.488930 0.138486 0.153140
0.694423 0.136651 0.151018
0.851840 0.135042 0.149157
0.959547 0.134224 0.148212
1.062922 0.133785 0.147704
0.139019 0.186336 0.153758
0.194481 0.184394 0.153096
0.295142 0.184204 0.151848
0.447792 0.183482 0.150247
0.631780 0.182378 0.148469
0.791391 0.181254 0.146849
0.914080 0.180302 0.145478
1.015800 0.179561 0.144404
0.134043 0.278346 0.148003
0.190140 0.273847 0.147539
0.292808 0.273485 0.146494
0.445395 0.272922 0.145257
0.627131 0.272258 0.144004
0.784611 0.271789 0.142962
0.905707 0.271632 0.142145
1.003854 0.271652 0.141539
0.129333 0.420401 0.142564
0.182033 0.415245 0.142348
0.281915 0.415419 0.141830
0.433454 0.415795 0.141254
0.616837 0.416346 0.140719
0.777452 0.417099 0.140314
0.900675 0.418050 0.140024
0.999686 0.418952 0.139825
0.127065 0.600829 0.139949
0.175681 0.597550 0.139887
0.272149 0.598816 0.139753
0.423257 0.600339 0.139611
0.609799 0.601932 0.139491
0.774561 0.603405 0.139408
0.900427 0.604743 0.139354
1.000280 0.605236 0.139719
0.126539 0.767212 0.139343
0.170947 0.766609 0.139331
0.263362 0.767966 0.139309
0.413335 0.769325 0.139289
0.602673 0.770665 0.139289
0.771396 0.771396 0.139481
0.899733 0.771996 0.139638
1.000000 0.771832 0.140360
0.126492 0.895381 0.139289
0.167421 0.896197 0.139289
0.257884 0.896986 0.139289
0.408804 0.897709 0.139289
0.600547 0.898410 0.139289
0.770946 0.898955 0.139364
0.899400 0.899400 0.139521
1.000000 0.899144 0.140292
0.126492 0.996477 0.139289
0.167411 0.997213 0.139289
0.257804 0.997932 0.139289
0.408559 0.998597 0.139289
0.600104 0.999247 0.139289
0.770497 0.999850 0.139289
0.898891 1.000000 0.139661
1.000000 1.000000 0.140189
0.142324 0.142324 0.203227
0.214023 0.140437 0.199964
0.346687 0.139214 0.198062
0.524454 0.137901 0.196068
0.709452 0.136596 0.194140
0.849739 0.135539 0.192657
0.956797 0.134753 0.191671
1.053481 0.134668 0.191301
0.137594 0.190512 0.193584
0.200005 0.188082 0.190930
0.320138 0.186319 0.189585
0.489631 0.184473 0.188148
0.675714 0.182688 0.186809
0.823320 0.181279 0.185875
0.935138 0.180263 0.185400
1.036498 0.179561 0.185275
0.132767 0.285025 0.187812
0.188776 0.282425 0.185105
0.298992 0.280097 0.184491
0.460682 0.277856 0.183884
0.646351 0.275862 0.183448
0.800129 0.274432 0.183339
0.916694 0.273512 0.183579
1.015465 0.272943 0.184043
0.128693 0.427459 0.183563
0.179231 0.425453 0.181736
0.281203 0.423757 0.181970
0.437103 0.422325 0.182299
0.623648 0.421204 0.182789
0.783774 0.420515 0.183436
0.905398 0.420145 0.184251
1.003454 0.419853 0.185389
0.126902 0.605998 0.183326
0.172850 0.605314 0.182519
0.268559 0.604866 0.183283
0.420798 0.604634 0.184122
0.609101 0.604518 0.185041
0.774757 0.604469 0.185967
0.900687 0.604407 0.186921
1.000079 0.603801 0.188510
0.126513 0.768649 0.185474
0.168142 0.769461 0.185366
0.258284 0.769607 0.186291
0.408924 0.770064 0.186817
0.600939 0.770666 0.187091
0.771250 0.771250 0.187359
0.899625 0.771850 0.187636
1.000000 0.771850 0.188744
0.126492 0.895470 0.186757
0.166776 0.897087 0.186074
0.257187 0.897534 0.186346
0.408383 0.897968 0.186611
0.600362 0.898413 0.186885
0.770800 0.898847 0.187152
0.899292 0.899292 0.187428
1.000000 0.899149 0.188634
0.126492 0.996558 0.186756
0.166607 0.998215 0.185876
0.256824 0.998617 0.186147
0.407856 0.999008 0.186412
0.599801 0.999410 0.186685
0.770361 0.999802 0.186952
0.898858 1.000000 0.187527
1.000000 1.000000 0.188456
0.140921 0.140921 0.306343
0.211391 0.139187 0.296778
0.341247 0.137986 0.294084
0.515605 0.136739 0.291510
0.699115 0.135547 0.289288
0.840047 0.134617 0.287909
0.947578 0.133948 0.287421
1.038639 0.134295 0.286632
0.135354 0.189068 0.286176
0.197122 0.186207 0.282658
0.314495 0.184514 0.281351
0.481150 0.182798 0.280112
0.666394 0.181187 0.279226
0.815335 0.179943 0.279044
0.928269 0.179050 0.279655
1.025419 0.178689 0.280879
0.131092 0.283653 0.279675
0.186018 0.279756 0.277666
0.293639 0.277650 0.277897
0.453310 0.275682 0.278284
0.639100 0.273954 0.279059
0.794805 0.272696 0.280320
0.912960 0.271824 0.282130
1.009738 0.271453 0.284575
0.127929 0.426408 0.278813
0.177082 0.423113 0.278256
0.276717 0.421612 0.279955
0.431209 0.420349 0.281849
0.618406 0.419302 0.284033
0.780597 0.418537 0.286378
0.903851 0.417934 0.288953
1.001798 0.417475 0.292273
0.126714 0.604998 0.284789
0.170781 0.603748 0.285622
0.263846 0.603218 0.288128
0.414497 0.602798 0.290693
0.603451 0.602385 0.293362
0.771634 0.602146 0.295549
0.899838 0.602824 0.296098
1.000000 0.603351 0.297767
0.126492 0.767102 0.293241
0.166891 0.768723 0.292742
0.257436 0.769327 0.293331
0.408743 0.769913 0.293904
0.600747 0.770515 0.294495
0.771100 0.771100 0.295071
0.899514 0.771701 0.295664
1.000000 0.771874 0.297638
0.126492 0.895549 0.293228
0.166718 0.896976 0.292302
0.257062 0.897422 0.292889
0.408202 0.897856 0.293462
0.600170 0.898302 0.294052
0.770649 0.898735 0.294627
0.899181 0.899181 0.295219
1.000000 0.899155 0.297431
0.126492 0.996631 0.293219
0.166549 0.998114 0.291874
0.256699 0.998516 0.292460
0.407676 0.998908 0.293032
0.599609 0.999310 0.293621
0.770210 0.999701 0.294195
0.898812 1.000000 0.295107
1.000000 1.000000 0.297071
0.137683 0.137683 0.478509
0.204702 0.136170 0.465834
0.329179 0.135243 0.457301
0.498715 0.134241 0.454395
0.681508 0.133340 0.452208
0.825203 0.132684 0.451287
0.934689 0.132248 0.451635
1.022441 0.133027 0.448890
0.132576 0.184264 0.454298
0.191239 0.181789 0.449934
0.303893 0.180536 0.443724
0.466533 0.179206 0.443055
0.651452 0.178017 0.443038
0.803457 0.177139 0.444003
0.918805 0.176525 0.446034
1.013744 0.176591 0.447971
0.129237 0.277666 0.444011
0.181630 0.274140 0.442761
0.285366 0.272542 0.444323
0.442349 0.271137 0.446134
0.628625 0.269939 0.448499
0.787373 0.269058 0.451397
0.907949 0.268397 0.454915
1.004527 0.268396 0.458569
0.127213 0.421217 0.448419
0.174060 0.418348 0.449632
0.270575 0.417232 0.453073
0.423209 0.416317 0.456684
0.611208 0.415506 0.460599
0.776106 0.414809 0.464558
0.901482 0.414114 0.468689
1.000503 0.413724 0.473074
0.126564 0.601175 0.461302
0.168239 0.600527 0.464402
0.258222 0.600057 0.468601
0.409146 0.600423 0.470015
0.601121 0.601121 0.470783
0.771392 0.601869 0.471588
0.899730 0.602637 0.472415
1.000000 0.603405 0.474149
0.126492 0.767186 0.467733
0.166835 0.768576 0.467726
0.257315 0.769180 0.468550
0.408568 0.769767 0.469354
0.600560 0.770369 0.470180
0.770954 0.770954 0.470984
0.899406 0.771555 0.471811
1.000000 0.771902 0.474007
0.126492 0.895615 0.467700
0.166661 0.896867 0.467107
0.256941 0.897314 0.467932
0.408027 0.897748 0.468735
0.599983 0.898194 0.469560
0.770503 0.898627 0.470364
0.899072 0.899072 0.471191
1.000000 0.899164 0.473765
0.126492 0.996693 0.467675
0.166493 0.998016 0.466506
0.256579 0.998419 0.467330
0.407501 0.998810 0.468132
0.599422 0.999212 0.468958
0.770064 0.999603 0.469761
0.898746 1.000000 0.470610
1.000000 1.000000 0.473298
0.133806 0.133806 0.688474
0.196283 0.132565 0.676904
0.313978 0.131969 0.669066
0.479125 0.131430 0.661603
0.662199 0.130927 0.660552
0.810134 0.130606 0.660734
0.922706 0.130439 0.662086
1.010129 0.131511 0.657778
0.129709 0.178736 0.668458
0.184520 0.176744 0.665360
0.291560 0.175954 0.659927
0.450652 0.175256 0.654724
0.636032 0.174581 0.655935
0.792062 0.174112 0.658007
0.910558 0.173796 0.660970
1.005621 0.174156 0.662699
0.127756 0.270755 0.662354
0.176900 0.267950 0.662896
0.276366 0.266952 0.665474
0.431000 0.266274 0.662497
0.618182 0.265592 0.665753
0.780427 0.265061 0.669311
0.903734 0.264591 0.673257
1.001433 0.264847 0.676363
0.126756 0.415289 0.665385
0.170894 0.413286 0.668290
0.264030 0.412570 0.672255
0.414734 0.411968 0.676226
0.603686 0.411358 0.680337
0.771848 0.410989 0.683582
0.899954 0.411606 0.684237
1.000000 0.412923 0.684777
0.126492 0.597517 0.678421
0.166946 0.598641 0.679611
0.257554 0.599411 0.680425
0.408914 0.600160 0.681216
0.600929 0.600929 0.682028
0.771242 0.601677 0.682818
0.899619 0.602445 0.683629
1.000000 0.603472 0.684712
0.126492 0.767259 0.678355
0.166777 0.768425 0.679017
0.257190 0.769029 0.679831
0.408388 0.769616 0.680623
0.600367 0.770219 0.681435
0.770804 0.770804 0.682226
0.899295 0.771405 0.683037
1.000000 0.771940 0.684613
0.126492 0.895675 0.678303
0.166604 0.896755 0.678406
0.256817 0.897202 0.679220
0.407847 0.897636 0.680012
0.599791 0.898082 0.680826
0.770353 0.898516 0.681616
0.898961 0.898961 0.682428
1.000000 0.899177 0.684431
0.126492 0.996750 0.678264
0.166435 0.997916 0.677811
0.256454 0.998318 0.678626
0.407321 0.998709 0.679418
0.599229 0.999111 0.680232
0.769913 0.999503 0.681023
0.898636 0.999905 0.681836
1.000000 1.000000 0.684020
0.130794 0.130794 0.854422
0.188977 0.129733 0.850600
0.300703 0.129433 0.845372
0.462061 0.129219 0.840478
0.646098 0.129043 0.840500
0.798456 0.128980 0.841268
0.914288 0.129003 0.842711
1.003833 0.130123 0.839061
0.127950 0.174679 0.844273
0.179062 0.172858 0.844634
0.281332 0.172445 0.841120
0.437449 0.172140 0.837804
0.623808 0.171850 0.839318
0.783730 0.171665 0.841277
0.905237 0.171544 0.843689
1.001861 0.171976 0.844748
0.127004 0.265508 0.842635
0.173098 0.263194 0.844912
0.268884 0.262661 0.847109
0.421422 0.262371 0.845102
0.609700 0.262031 0.847637
0.775213 0.261720 0.850232
0.901036 0.261372 0.852953
1.000203 0.261818 0.854473
0.126561 0.410443 0.846252
0.168158 0.409257 0.849570
0.258252 0.408906 0.852408
0.409311 0.409311 0.857304
0.601318 0.410002 0.853810
0.771546 0.410706 0.854394
0.899844 0.411430 0.854994
1.000000 0.413014 0.854906
0.126492 0.597584 0.850239
0.166890 0.598454 0.851569
0.257432 0.599224 0.852172
0.408738 0.599972 0.852758
0.600742 0.600742 0.853360
0.771096 0.601490 0.853944
0.899511 0.602258 0.854544
1.000000 0.603554 0.854879
0.126492 0.767321 0.850173
0.166721 0.768278 0.851129
0.257069 0.768882 0.851732
0.408212 0.769469 0.852319
0.600180 0.770072 0.852921
0.770658 0.770658 0.853506
0.899186 0.771258 0.854107
1.000000 0.771989 0.854836
0.126492 0.895726 0.850120
0.166547 0.896647 0.850675
0.256696 0.897093 0.851280
0.407671 0.897528 0.851867
0.599604 0.897974 0.852469
0.770206 0.898407 0.853055
0.898853 0.898853 0.853656
1.000000 0.899196 0.854748
0.126492 0.996800 0.850080
0.166379 0.997818 0.850234
0.256334 0.998220 0.850839
0.407146 0.998612 0.851426
0.599042 0.999014 0.852030
0.769767 0.999405 0.852616
0.898528 0.999807 0.853218
1.000000 1.000000 0.854493
0.128491 0.128491 0.986480
0.182865 0.127682 0.983927
0.288964 0.127558 0.983481
0.447156 0.127569 0.979954
0.632429 0.127609 0.980221
0.789131 0.127708 0.980902
0.908202 0.127848 0.981937
1.001204 0.128800 0.979414
0.127143 0.172013 0.976365
0.174729 0.170035 0.980082
0.272683 0.169838 0.980844
0.426448 0.169797 0.978372
0.614037 0.169754 0.979559
0.777611 0.169749 0.980950
0.901915 0.169752 0.982546
1.000412 0.170203 0.982942
0.126677 0.261562 0.980225
0.169975 0.259658 0.983447
0.262531 0.259528 0.984988
0.413225 0.259467 0.986538
0.602966 0.259444 0.984863
0.771869 0.259538 0.985970
0.900057 0.260027 0.986407
1.000000 0.261594 0.985569
0.126492 0.407405 0.982038
0.167006 0.407676 0.983706
0.257678 0.408392 0.987392
0.409094 0.409094 0.987854
0.601121 0.409817 0.988329
0.771396 0.410525 0.985585
0.899733 0.411249 0.986060
1.000000 0.413128 0.985565
0.126492 0.597644 0.981948
0.166832 0.598262 0.983349
0.257308 0.599031 0.983825
0.408553 0.599775 0.987498
0.600544 0.600544 0.987973
0.770946 0.601297 0.985228
0.899400 0.602066 0.985703
1.000000 0.603664 0.985559
0.126492 0.767376 0.981882
0.166663 0.768127 0.983001
0.256945 0.768731 0.983477
0.408032 0.769319 0.983941
0.599988 0.769921 0.984417
0.770503 0.770503 0.988088
0.899075 0.771108 0.985356
1.000000 0.772059 0.985547
0.126492 0.895772 0.981830
0.166490 0.896535 0.982643
0.256572 0.896982 0.983120
0.407491 0.897416 0.983584
0.599411 0.897862 0.984060
0.770056 0.898296 0.984524
0.898741 0.898741 0.985000
1.000000 0.899228 0.985520
0.126492 0.996845 0.981789
0.166321 0.997717 0.982295
0.256210 0.998120 0.982772
0.406965 0.998511 0.983236
0.598849 0.998913 0.983713
0.769616 0.999304 0.984176
0.898416 0.999707 0.984652
1.000000 1.000000 0.985385
0.126995 0.126995 1.132323
0.178499 0.126946 1.124778
0.279313 0.126841 1.126111
0.433822 0.126732 1.128260
0.620632 0.126640 1.130772
0.781173 0.126893 1.131009
0.902611 0.127304 1.130545
1.000216 0.127705 1.130244
0.126776 0.170196 1.117658
0.171368 0.168083 1.126281
0.265985 0.168128 1.127000
0.417860 0.168243 1.127852
0.606804 0.168386 1.128889
0.773583 0.168524 1.130029
0.899646 0.168952 1.130044
1.000000 0.169431 1.130000
0.126548 0.258939 1.123583
0.167775 0.257721 1.128167
0.258017 0.257994 1.129510
0.409465 0.258420 1.129879
0.601450 0.259108 1.130000
0.771310 0.259900 1.130000
0.899132 0.260775 1.130000
1.000000 0.261694 1.130000
0.126492 0.407440 1.125673
0.166949 0.407501 1.128202
0.257561 0.408222 1.128809
0.408924 0.408924 1.129401
0.600940 0.409651 1.130000
0.771117 0.410742 1.130000
0.899095 0.411965 1.130000
1.000000 0.413268 1.130000
0.126492 0.597694 1.125539
0.166775 0.598075 1.127746
0.257187 0.598844 1.128354
0.408383 0.599593 1.128945
0.600362 0.600362 1.129553
0.770801 0.601203 1.130000
0.899032 0.602446 1.130000
1.000000 0.603806 1.130000
0.126492 0.767424 1.125440
0.166607 0.767980 1.127303
0.256824 0.768584 1.127910
0.407856 0.769172 1.128502
0.599801 0.769775 1.129109
0.770361 0.770361 1.129700
0.898914 0.771130 1.130000
1.000000 0.772163 1.130000
0.126492 0.895812 1.125359
0.166433 0.896426 1.126847
0.256451 0.896873 1.127455
0.407316 0.897308 1.128046
0.599224 0.897754 1.128654
0.769909 0.898188 1.129245
0.898633 0.898633 1.129852
1.000000 0.899292 1.130000
0.126492 0.996886 1.125295
0.166266 0.997620 1.126404
0.256089 0.998022 1.127011
0.406790 0.998413 1.127603
0.598662 0.998815 1.128210
0.769469 0.999207 1.128801
0.898308 0.999609 1.129409
1.000000 1.000000 1.130000
