indra/newview/app_settings/luts/H5.cube
#Created by: Affinity Photo (Serif Europe Ltd.)
TITLE "Exported LUT"
#LUT size
LUT_3D_SIZE 64
#data domain
DOMAIN_MIN 0.0 0.0 0.0
DOMAIN_MAX 1.0 1.0 1.0
#LUT data points
0.133202 0.133202 0.180991
0.137224 0.133211 0.180962
0.141332 0.133219 0.180932
0.145593 0.133227 0.180901
0.150070 0.133234 0.180867
0.154834 0.133241 0.180831
0.159954 0.133248 0.180791
0.165505 0.133254 0.180747
0.171566 0.133260 0.180699
0.178219 0.133265 0.180645
0.185554 0.133269 0.180584
0.195828 0.133272 0.180498
0.205012 0.133273 0.180419
0.215077 0.133271 0.180332
0.226044 0.133266 0.180236
0.237919 0.133258 0.180130
0.250701 0.133246 0.180014
0.264384 0.133230 0.179889
0.278956 0.133210 0.179754
0.294399 0.133184 0.179609
0.310690 0.133154 0.179453
0.327800 0.133118 0.179287
0.345690 0.133076 0.179110
0.364318 0.133028 0.178923
0.383635 0.132975 0.178725
0.403584 0.132915 0.178518
0.424103 0.132849 0.178300
0.445125 0.132776 0.178072
0.466575 0.132698 0.177835
0.488376 0.132613 0.177588
0.510446 0.132521 0.177333
0.532699 0.132424 0.177069
0.560638 0.132295 0.176728
0.582976 0.132185 0.176447
0.605203 0.132070 0.176159
0.627226 0.131950 0.175865
0.648955 0.131826 0.175565
0.670297 0.131697 0.175260
0.691166 0.131564 0.174951
0.711476 0.131427 0.174639
0.731146 0.131288 0.174324
0.750132 0.131146 0.174006
0.768445 0.131001 0.173687
0.786103 0.130855 0.173367
0.803125 0.130708 0.173048
0.819533 0.130559 0.172729
0.835348 0.130410 0.172412
0.850589 0.130261 0.172097
0.865285 0.130112 0.171785
0.879487 0.129964 0.171476
0.893247 0.129817 0.171170
0.906615 0.129670 0.170866
0.919636 0.129523 0.170565
0.935490 0.129341 0.170192
0.947885 0.129195 0.169896
0.960066 0.129050 0.169602
0.972068 0.128906 0.169310
0.983928 0.128761 0.169019
0.995678 0.128617 0.168729
1.000000 0.128844 0.168723
1.000000 0.128722 0.168571
1.000000 0.128603 0.168422
1.000000 0.128485 0.168274
1.000000 0.128368 0.168129
0.133151 0.137157 0.180739
0.137163 0.137163 0.180709
0.141263 0.137170 0.180679
0.145514 0.137175 0.180646
0.149981 0.137180 0.180612
0.154734 0.137185 0.180574
0.159842 0.137189 0.180534
0.165380 0.137193 0.180489
0.171426 0.137196 0.180439
0.178063 0.137198 0.180384
0.185379 0.137199 0.180322
0.195626 0.137197 0.180234
0.204786 0.137194 0.180155
0.214824 0.137188 0.180066
0.225760 0.137178 0.179968
0.237603 0.137166 0.179861
0.250349 0.137149 0.179745
0.263993 0.137128 0.179618
0.278524 0.137102 0.179482
0.293923 0.137072 0.179335
0.310169 0.137036 0.179178
0.327230 0.136994 0.179011
0.345071 0.136947 0.178834
0.363648 0.136893 0.178646
0.382913 0.136834 0.178448
0.402809 0.136768 0.178240
0.423275 0.136696 0.178022
0.444244 0.136618 0.177794
0.465642 0.136533 0.177557
0.487392 0.136443 0.177310
0.509414 0.136346 0.177055
0.531620 0.136243 0.176792
0.559505 0.136107 0.176452
0.581804 0.135992 0.176172
0.603996 0.135871 0.175885
0.625990 0.135746 0.175592
0.647693 0.135617 0.175294
0.669016 0.135483 0.174991
0.689871 0.135345 0.174684
0.710174 0.135204 0.174373
0.729844 0.135060 0.174060
0.748831 0.134914 0.173744
0.767146 0.134765 0.173427
0.784806 0.134615 0.173110
0.801830 0.134464 0.172793
0.818240 0.134312 0.172477
0.834056 0.134159 0.172162
0.849298 0.134007 0.171850
0.863994 0.133856 0.171541
0.878195 0.133705 0.171234
0.891953 0.133554 0.170931
0.905318 0.133405 0.170630
0.918334 0.133256 0.170331
0.934181 0.133070 0.169962
0.946569 0.132923 0.169669
0.958741 0.132776 0.169377
0.970733 0.132629 0.169088
0.982581 0.132483 0.168800
0.994318 0.132337 0.168513
1.000000 0.132573 0.168514
1.000000 0.132448 0.168365
1.000000 0.132326 0.168219
1.000000 0.132205 0.168074
1.000000 0.132085 0.167932
0.133094 0.141179 0.180476
0.137097 0.141184 0.180446
0.141188 0.141188 0.180414
0.145428 0.141191 0.180381
0.149885 0.141194 0.180346
0.154627 0.141197 0.180307
0.159723 0.141198 0.180266
0.165247 0.141199 0.180220
0.171278 0.141200 0.180170
0.177899 0.141198 0.180113
0.185196 0.141196 0.180050
0.195416 0.141190 0.179961
0.204551 0.141182 0.179880
0.214562 0.141172 0.179790
0.225468 0.141158 0.179691
0.237277 0.141141 0.179583
0.249987 0.141119 0.179465
0.263592 0.141093 0.179338
0.278081 0.141062 0.179200
0.293437 0.141026 0.179053
0.309636 0.140984 0.178895
0.326649 0.140937 0.178727
0.344440 0.140884 0.178549
0.362966 0.140825 0.178361
0.382179 0.140760 0.178162
0.402022 0.140688 0.177954
0.422435 0.140610 0.177736
0.443351 0.140526 0.177508
0.464697 0.140436 0.177271
0.486397 0.140340 0.177025
0.508370 0.140237 0.176770
0.530530 0.140129 0.176508
0.558361 0.139986 0.176169
0.580622 0.139865 0.175890
0.602779 0.139740 0.175604
0.624743 0.139609 0.175313
0.646421 0.139475 0.175016
0.667726 0.139336 0.174715
0.688568 0.139194 0.174410
0.708864 0.139048 0.174101
0.728533 0.138900 0.173790
0.747523 0.138750 0.173477
0.765840 0.138597 0.173162
0.783503 0.138443 0.172848
0.800530 0.138288 0.172533
0.816942 0.138133 0.172219
0.832760 0.137977 0.171907
0.848003 0.137821 0.171598
0.862700 0.137667 0.171291
0.876900 0.137513 0.170987
0.890657 0.137360 0.170687
0.904019 0.137208 0.170389
0.917032 0.137057 0.170093
0.932873 0.136869 0.169727
0.945254 0.136719 0.169437
0.957418 0.136570 0.169148
0.969401 0.136421 0.168861
0.981238 0.136274 0.168576
0.992962 0.136126 0.168292
1.000000 0.136371 0.168302
1.000000 0.136244 0.168156
1.000000 0.136118 0.168013
1.000000 0.135994 0.167871
1.000000 0.135872 0.167732
0.133030 0.145330 0.180199
0.137024 0.145333 0.180167
0.141105 0.145334 0.180135
0.145336 0.145336 0.180101
0.149782 0.145336 0.180065
0.154512 0.145336 0.180026
0.159595 0.145336 0.179984
0.165106 0.145334 0.179937
0.171122 0.145331 0.179886
0.177725 0.145327 0.179828
0.185003 0.145321 0.179764
0.195196 0.145310 0.179674
0.204305 0.145298 0.179592
0.214288 0.145284 0.179501
0.225162 0.145265 0.179401
0.236937 0.145243 0.179291
0.249610 0.145217 0.179172
0.263175 0.145185 0.179044
0.277622 0.145149 0.178906
0.292933 0.145107 0.178757
0.309085 0.145060 0.178599
0.326050 0.145007 0.178430
0.343790 0.144949 0.178251
0.362264 0.144884 0.178063
0.381423 0.144812 0.177864
0.401212 0.144735 0.177655
0.421572 0.144651 0.177437
0.442434 0.144561 0.177210
0.463728 0.144465 0.176973
0.485376 0.144363 0.176728
0.507300 0.144255 0.176474
0.529413 0.144141 0.176213
0.557191 0.143991 0.175875
0.579412 0.143865 0.175597
0.601535 0.143734 0.175313
0.623469 0.143599 0.175023
0.645123 0.143459 0.174729
0.666408 0.143316 0.174429
0.687238 0.143169 0.174126
0.707527 0.143019 0.173820
0.727196 0.142866 0.173511
0.746189 0.142711 0.173200
0.764509 0.142555 0.172888
0.782175 0.142397 0.172576
0.799206 0.142239 0.172264
0.815622 0.142080 0.171953
0.831442 0.141921 0.171644
0.846687 0.141762 0.171337
0.861385 0.141605 0.171033
0.875586 0.141448 0.170732
0.889342 0.141293 0.170434
0.902703 0.141138 0.170139
0.915712 0.140985 0.169847
0.931547 0.140794 0.169484
0.943923 0.140642 0.169197
0.956079 0.140491 0.168911
0.968053 0.140341 0.168628
0.979879 0.140192 0.168345
0.991591 0.140043 0.168064
1.000000 0.140297 0.168084
1.000000 0.140167 0.167941
1.000000 0.140038 0.167801
1.000000 0.139911 0.167663
1.000000 0.139786 0.167526
0.132959 0.149672 0.179902
0.136943 0.149672 0.179870
0.141014 0.149672 0.179837
0.145234 0.149671 0.179802
0.149669 0.149669 0.179766
0.154387 0.149667 0.179726
0.159457 0.149663 0.179683
0.164954 0.149659 0.179635
0.170953 0.149653 0.179583
0.177538 0.149645 0.179525
0.184797 0.149636 0.179460
0.194961 0.149620 0.179368
0.204044 0.149604 0.179285
0.213997 0.149585 0.179193
0.224839 0.149562 0.179092
0.236578 0.149535 0.178981
0.249213 0.149503 0.178862
0.262737 0.149466 0.178732
0.277140 0.149424 0.178593
0.292405 0.149377 0.178444
0.308509 0.149324 0.178285
0.325422 0.149265 0.178116
0.343110 0.149201 0.177937
0.361530 0.149130 0.177748
0.380635 0.149052 0.177549
0.400369 0.148969 0.177341
0.420673 0.148879 0.177123
0.441481 0.148783 0.176896
0.462720 0.148681 0.176660
0.484317 0.148573 0.176415
0.506190 0.148459 0.176162
0.528256 0.148339 0.175902
0.555978 0.148182 0.175566
0.578160 0.148051 0.175290
0.600248 0.147915 0.175007
0.622151 0.147774 0.174719
0.643781 0.147630 0.174426
0.665047 0.147481 0.174129
0.685863 0.147330 0.173828
0.706146 0.147175 0.173524
0.725816 0.147018 0.173218
0.744812 0.146859 0.172910
0.763137 0.146699 0.172600
0.780808 0.146537 0.172291
0.797843 0.146375 0.171982
0.814262 0.146213 0.171674
0.830086 0.146051 0.171368
0.845334 0.145889 0.171064
0.860034 0.145729 0.170763
0.874236 0.145570 0.170465
0.887992 0.145412 0.170171
0.901351 0.145255 0.169879
0.914358 0.145099 0.169589
0.930188 0.144906 0.169230
0.942558 0.144752 0.168946
0.954707 0.144600 0.168664
0.966672 0.144448 0.168383
0.978488 0.144297 0.168104
0.990189 0.144146 0.167826
1.000000 0.144274 0.167763
1.000000 0.144277 0.167718
1.000000 0.144145 0.167581
1.000000 0.144015 0.167445
1.000000 0.143888 0.167312
0.132878 0.154267 0.179582
0.136852 0.154265 0.179549
0.140912 0.154262 0.179515
0.145121 0.154259 0.179480
0.149545 0.154255 0.179442
0.154250 0.154250 0.179402
0.159306 0.154244 0.179358
0.164788 0.154236 0.179310
0.170770 0.154227 0.179257
0.177337 0.154216 0.179198
0.184574 0.154203 0.179132
0.194708 0.154182 0.179039
0.203764 0.154162 0.178955
0.213686 0.154138 0.178862
0.224494 0.154110 0.178760
0.236196 0.154077 0.178649
0.248790 0.154040 0.178528
0.262272 0.153998 0.178398
0.276629 0.153950 0.178258
0.291846 0.153897 0.178108
0.307899 0.153838 0.177949
0.324759 0.153773 0.177779
0.342393 0.153702 0.177600
0.360757 0.153625 0.177411
0.379805 0.153541 0.177212
0.399482 0.153452 0.177004
0.419729 0.153356 0.176787
0.440480 0.153254 0.176560
0.461664 0.153145 0.176325
0.483206 0.153031 0.176082
0.505027 0.152911 0.175830
0.527044 0.152786 0.175571
0.554710 0.152621 0.175237
0.576851 0.152484 0.174962
0.598903 0.152343 0.174682
0.620775 0.152197 0.174396
0.642379 0.152047 0.174105
0.663625 0.151894 0.173811
0.684429 0.151738 0.173512
0.704706 0.151579 0.173211
0.724376 0.151418 0.172907
0.743377 0.151254 0.172602
0.761707 0.151090 0.172296
0.779383 0.150925 0.171989
0.796424 0.150759 0.171683
0.812848 0.150593 0.171378
0.828676 0.150428 0.171075
0.843928 0.150264 0.170775
0.858630 0.150100 0.170477
0.872834 0.149939 0.170183
0.886591 0.149778 0.169891
0.899949 0.149619 0.169602
0.912954 0.149461 0.169316
0.928780 0.149265 0.168962
0.941145 0.149110 0.168681
0.953287 0.148955 0.168402
0.965244 0.148802 0.168124
0.977051 0.148650 0.167849
0.988739 0.148498 0.167574
1.000000 0.148399 0.167343
1.000000 0.148635 0.167482
1.000000 0.148500 0.167348
1.000000 0.148368 0.167216
1.000000 0.148237 0.167086
0.132786 0.159180 0.179233
0.136750 0.159175 0.179200
0.140798 0.159170 0.179165
0.144996 0.159164 0.179129
0.149407 0.159157 0.179091
0.154098 0.159149 0.179050
0.159140 0.159140 0.179005
0.164605 0.159130 0.178956
0.170570 0.159117 0.178902
0.177117 0.159102 0.178842
0.184332 0.159085 0.178776
0.194435 0.159059 0.178682
0.203461 0.159034 0.178597
0.213351 0.159005 0.178503
0.224122 0.158972 0.178400
0.235785 0.158934 0.178288
0.248337 0.158891 0.178167
0.261773 0.158843 0.178036
0.276082 0.158789 0.177896
0.291248 0.158730 0.177746
0.307248 0.158665 0.177586
0.324053 0.158594 0.177416
0.341630 0.158516 0.177237
0.359935 0.158432 0.177048
0.378924 0.158342 0.176850
0.398541 0.158246 0.176642
0.418728 0.158144 0.176426
0.439419 0.158035 0.176200
0.460545 0.157920 0.175966
0.482031 0.157800 0.175723
0.503798 0.157674 0.175473
0.525764 0.157542 0.175216
0.553371 0.157371 0.174884
0.575470 0.157228 0.174612
0.597485 0.157081 0.174333
0.619325 0.156930 0.174050
0.640903 0.156775 0.173762
0.662130 0.156617 0.173469
0.682920 0.156455 0.173174
0.703191 0.156292 0.172875
0.722863 0.156126 0.172575
0.741870 0.155959 0.172273
0.760206 0.155790 0.171970
0.777888 0.155621 0.171667
0.794935 0.155452 0.171364
0.811365 0.155283 0.171062
0.827199 0.155115 0.170763
0.842455 0.154947 0.170466
0.857161 0.154781 0.170172
0.871367 0.154617 0.169881
0.885126 0.154454 0.169593
0.898484 0.154293 0.169308
0.911488 0.154133 0.169025
0.927310 0.153935 0.168675
0.939670 0.153777 0.168397
0.951807 0.153622 0.168122
0.963756 0.153467 0.167848
0.975553 0.153313 0.167576
0.987230 0.153160 0.167305
0.998821 0.153008 0.167035
1.000000 0.153304 0.167232
1.000000 0.153166 0.167102
1.000000 0.153031 0.166973
1.000000 0.152897 0.166847
0.132682 0.164475 0.178850
0.136633 0.164468 0.178816
0.140670 0.164460 0.178781
0.144855 0.164451 0.178745
0.149253 0.164441 0.178706
0.153930 0.164430 0.178664
0.158956 0.164418 0.178618
0.164404 0.164404 0.178569
0.170350 0.164388 0.178514
0.176876 0.164370 0.178454
0.184068 0.164348 0.178386
0.194136 0.164317 0.178291
0.203132 0.164287 0.178205
0.212986 0.164253 0.178111
0.223719 0.164214 0.178008
0.235340 0.164170 0.177895
0.247847 0.164121 0.177773
0.261236 0.164067 0.177642
0.275494 0.164007 0.177501
0.290606 0.163941 0.177351
0.306549 0.163869 0.177191
0.323296 0.163791 0.177022
0.340812 0.163707 0.176843
0.359057 0.163617 0.176654
0.377982 0.163520 0.176456
0.397537 0.163417 0.176250
0.417661 0.163308 0.176034
0.438290 0.163192 0.175809
0.459355 0.163071 0.175576
0.480782 0.162944 0.175336
0.502492 0.162812 0.175087
0.524405 0.162674 0.174832
0.551951 0.162495 0.174503
0.574006 0.162346 0.174233
0.595982 0.162193 0.173957
0.617789 0.162036 0.173676
0.639340 0.161876 0.173391
0.660547 0.161713 0.173101
0.681324 0.161547 0.172809
0.701589 0.161379 0.172514
0.721263 0.161209 0.172216
0.740276 0.161037 0.171918
0.758620 0.160865 0.171618
0.776310 0.160692 0.171319
0.793364 0.160519 0.171020
0.809802 0.160347 0.170722
0.825642 0.160175 0.170427
0.840904 0.160005 0.170133
0.855615 0.159836 0.169843
0.869825 0.159669 0.169556
0.883585 0.159504 0.169272
0.896944 0.159341 0.168990
0.909948 0.159179 0.168711
0.925768 0.158978 0.168366
0.938124 0.158820 0.168093
0.950254 0.158662 0.167821
0.962196 0.158506 0.167551
0.973984 0.158351 0.167283
0.985650 0.158197 0.167016
0.997228 0.158044 0.166750
1.000000 0.158348 0.166964
1.000000 0.158207 0.166837
1.000000 0.158069 0.166713
1.000000 0.157933 0.166590
0.132562 0.170219 0.178428
0.136501 0.170209 0.178394
0.140525 0.170198 0.178358
0.144697 0.170187 0.178321
0.149080 0.170174 0.178281
0.153742 0.170160 0.178239
0.158752 0.170145 0.178193
0.164181 0.170127 0.178143
0.170107 0.170107 0.178087
0.176610 0.170085 0.178026
0.183776 0.170059 0.177958
0.193808 0.170021 0.177862
0.202771 0.169986 0.177776
0.212589 0.169946 0.177681
0.223281 0.169902 0.177577
0.234857 0.169852 0.177464
0.247317 0.169797 0.177342
0.260654 0.169736 0.177210
0.274858 0.169669 0.177069
0.289912 0.169597 0.176919
0.305796 0.169518 0.176759
0.322481 0.169433 0.176590
0.339934 0.169342 0.176412
0.358113 0.169244 0.176224
0.376973 0.169140 0.176027
0.396460 0.169030 0.175821
0.416518 0.168914 0.175607
0.437082 0.168791 0.175384
0.458083 0.168663 0.175153
0.479448 0.168530 0.174914
0.501099 0.168391 0.174667
0.522956 0.168246 0.174414
0.550438 0.168059 0.174088
0.572447 0.167905 0.173821
0.594383 0.167746 0.173548
0.616156 0.167584 0.173270
0.637679 0.167418 0.172988
0.658865 0.167250 0.172702
0.679629 0.167079 0.172413
0.699888 0.166906 0.172122
0.719564 0.166731 0.171828
0.738586 0.166556 0.171533
0.756939 0.166379 0.171238
0.774638 0.166203 0.170943
0.791702 0.166026 0.170648
0.808147 0.165851 0.170354
0.823995 0.165676 0.170063
0.839265 0.165503 0.169773
0.853981 0.165332 0.169487
0.868196 0.165163 0.169205
0.881960 0.164996 0.168924
0.895321 0.164830 0.168647
0.908325 0.164666 0.168372
0.924143 0.164464 0.168032
0.936496 0.164304 0.167763
0.948621 0.164145 0.167495
0.960556 0.163988 0.167229
0.972335 0.163832 0.166965
0.983990 0.163677 0.166702
0.995556 0.163523 0.166440
1.000000 0.163835 0.166675
1.000000 0.163692 0.166553
1.000000 0.163551 0.166432
1.000000 0.163412 0.166314
0.132426 0.176482 0.177961
0.136352 0.176469 0.177926
0.140362 0.176455 0.177890
0.144519 0.176441 0.177852
0.148887 0.176425 0.177812
0.153532 0.176408 0.177769
0.158524 0.176389 0.177723
0.163934 0.176367 0.177672
0.169838 0.176343 0.177616
0.176316 0.176316 0.177554
0.183456 0.176286 0.177486
0.193449 0.176242 0.177389
0.202376 0.176201 0.177303
0.212154 0.176156 0.177207
0.222803 0.176105 0.177103
0.234332 0.176049 0.176990
0.246740 0.175987 0.176867
0.260022 0.175919 0.176736
0.274168 0.175846 0.176595
0.289163 0.175766 0.176445
0.304983 0.175680 0.176286
0.321603 0.175587 0.176117
0.338987 0.175489 0.175940
0.357098 0.175384 0.175753
0.375887 0.175272 0.175557
0.395305 0.175155 0.175353
0.415293 0.175032 0.175140
0.435787 0.174902 0.174919
0.456721 0.174767 0.174690
0.478021 0.174626 0.174453
0.499610 0.174481 0.174209
0.521408 0.174330 0.173959
0.548824 0.174135 0.173636
0.570785 0.173974 0.173372
0.592679 0.173810 0.173103
0.614417 0.173642 0.172828
0.635911 0.173471 0.172550
0.657076 0.173297 0.172268
0.677826 0.173121 0.171983
0.698080 0.172943 0.171695
0.717759 0.172764 0.171406
0.736791 0.172585 0.171116
0.755155 0.172404 0.170825
0.772865 0.172224 0.170534
0.789939 0.172045 0.170243
0.806395 0.171866 0.169954
0.822252 0.171688 0.169667
0.837530 0.171513 0.169383
0.852254 0.171339 0.169101
0.866475 0.171168 0.168823
0.880243 0.170999 0.168547
0.893607 0.170831 0.168274
0.906613 0.170666 0.168004
0.922430 0.170462 0.167670
0.934780 0.170301 0.167405
0.946902 0.170141 0.167142
0.958830 0.169983 0.166880
0.970600 0.169826 0.166620
0.982246 0.169670 0.166362
0.993798 0.169516 0.166104
1.000000 0.169837 0.166363
1.000000 0.169690 0.166245
1.000000 0.169547 0.166129
1.000000 0.169405 0.166015
0.132270 0.183336 0.177443
0.136182 0.183320 0.177408
0.140177 0.183303 0.177371
0.144318 0.183285 0.177333
0.148670 0.183266 0.177293
0.153297 0.183245 0.177249
0.158270 0.183223 0.177202
0.163659 0.183197 0.177151
0.169539 0.183169 0.177095
0.175992 0.183138 0.177033
0.183102 0.183102 0.176964
0.193054 0.183051 0.176867
0.201943 0.183005 0.176780
0.211679 0.182953 0.176685
0.222281 0.182896 0.176580
0.233759 0.182833 0.176467
0.246113 0.182764 0.176345
0.259337 0.182689 0.176214
0.273422 0.182608 0.176073
0.288352 0.182521 0.175924
0.304105 0.182427 0.175765
0.320654 0.182327 0.175598
0.337968 0.182221 0.175421
0.356005 0.182108 0.175236
0.374721 0.181990 0.175042
0.394064 0.181865 0.174839
0.413978 0.181734 0.174628
0.434400 0.181597 0.174410
0.455263 0.181454 0.174183
0.476495 0.181307 0.173949
0.498019 0.181154 0.173708
0.519756 0.180997 0.173461
0.547102 0.180794 0.173143
0.569014 0.180627 0.172882
0.590864 0.180456 0.172617
0.612565 0.180283 0.172346
0.634030 0.180106 0.172072
0.655173 0.179928 0.171794
0.675910 0.179747 0.171514
0.696159 0.179565 0.171231
0.715842 0.179382 0.170946
0.734885 0.179198 0.170660
0.753262 0.179014 0.170374
0.770984 0.178830 0.170088
0.788071 0.178647 0.169803
0.804539 0.178466 0.169519
0.820408 0.178286 0.169237
0.835695 0.178108 0.168957
0.850428 0.177932 0.168681
0.864656 0.177759 0.168407
0.878431 0.177588 0.168136
0.891800 0.177419 0.167869
0.904808 0.177253 0.167603
0.920626 0.177047 0.167275
0.932974 0.176885 0.167015
0.945092 0.176724 0.166756
0.957015 0.176566 0.166500
0.968777 0.176408 0.166245
0.980413 0.176252 0.165991
0.991954 0.176098 0.165738
1.000000 0.176427 0.166024
1.000000 0.176278 0.165911
1.000000 0.176132 0.165800
1.000000 0.175988 0.165691
0.132045 0.192850 0.176716
0.135937 0.192830 0.176681
0.139912 0.192809 0.176644
0.144032 0.192786 0.176605
0.148362 0.192763 0.176564
0.152965 0.192737 0.176521
0.157912 0.192709 0.176473
0.163272 0.192679 0.176422
0.169121 0.192645 0.176366
0.175539 0.192607 0.176303
0.182610 0.192565 0.176234
0.192506 0.192506 0.176137
0.201344 0.192452 0.176050
0.211024 0.192392 0.175955
0.221562 0.192326 0.175851
0.232972 0.192255 0.175738
0.245253 0.192177 0.175616
0.258400 0.192093 0.175486
0.272402 0.192002 0.175347
0.287246 0.191905 0.175199
0.302909 0.191801 0.175042
0.319366 0.191692 0.174876
0.336584 0.191575 0.174701
0.354525 0.191453 0.174518
0.373143 0.191324 0.174327
0.392388 0.191190 0.174127
0.412205 0.191049 0.173920
0.432531 0.190903 0.173704
0.453301 0.190752 0.173482
0.474443 0.190595 0.173252
0.495881 0.190434 0.173015
0.517539 0.190268 0.172773
0.544793 0.190055 0.172461
0.566640 0.189881 0.172206
0.588434 0.189703 0.171945
0.610088 0.189523 0.171681
0.631515 0.189340 0.171413
0.652631 0.189155 0.171141
0.673351 0.188969 0.170867
0.693595 0.188781 0.170590
0.713284 0.188593 0.170312
0.732344 0.188405 0.170033
0.750739 0.188217 0.169754
0.768481 0.188029 0.169474
0.785587 0.187843 0.169196
0.802073 0.187658 0.168919
0.817958 0.187475 0.168644
0.833261 0.187295 0.168371
0.848008 0.187117 0.168101
0.862248 0.186942 0.167835
0.876032 0.186770 0.167571
0.889408 0.186600 0.167310
0.902421 0.186432 0.167051
0.918242 0.186226 0.166731
0.930590 0.186063 0.166478
0.942705 0.185902 0.166226
0.954622 0.185743 0.165976
0.966376 0.185586 0.165727
0.978000 0.185431 0.165480
0.989526 0.185277 0.165234
1.000000 0.185260 0.165156
1.000000 0.185464 0.165454
1.000000 0.185315 0.165349
1.000000 0.185168 0.165247
0.131839 0.201273 0.176068
0.135714 0.201249 0.176032
0.139672 0.201224 0.175995
0.143774 0.201198 0.175956
0.148084 0.201171 0.175915
0.152668 0.201141 0.175872
0.157592 0.201110 0.175824
0.162928 0.201075 0.175773
0.168750 0.201036 0.175716
0.175138 0.200994 0.175654
0.182175 0.200946 0.175585
0.192024 0.200879 0.175489
0.200819 0.200819 0.175402
0.210450 0.200753 0.175307
0.220935 0.200680 0.175204
0.232287 0.200601 0.175091
0.244506 0.200516 0.174971
0.257587 0.200424 0.174842
0.271520 0.200325 0.174704
0.286290 0.200220 0.174557
0.301878 0.200109 0.174402
0.318257 0.199991 0.174238
0.335395 0.199867 0.174066
0.353254 0.199737 0.173885
0.371790 0.199600 0.173696
0.390953 0.199458 0.173500
0.410688 0.199310 0.173295
0.430935 0.199157 0.173083
0.451627 0.198998 0.172864
0.472694 0.198835 0.172638
0.494062 0.198667 0.172406
0.515653 0.198495 0.172168
0.542832 0.198274 0.171862
0.564626 0.198094 0.171611
0.586374 0.197911 0.171356
0.607989 0.197726 0.171097
0.629386 0.197538 0.170834
0.650479 0.197349 0.170568
0.671187 0.197158 0.170299
0.691427 0.196967 0.170029
0.711122 0.196775 0.169757
0.730198 0.196584 0.169483
0.748611 0.196393 0.169210
0.766371 0.196203 0.168937
0.783494 0.196015 0.168664
0.799997 0.195828 0.168393
0.815898 0.195644 0.168124
0.831215 0.195462 0.167858
0.845975 0.195283 0.167594
0.860226 0.195108 0.167333
0.874020 0.194935 0.167075
0.887404 0.194764 0.166820
0.900423 0.194596 0.166567
0.916248 0.194390 0.166254
0.928597 0.194228 0.166007
0.940711 0.194067 0.165760
0.952625 0.193909 0.165516
0.964373 0.193753 0.165273
0.975988 0.193598 0.165032
0.987504 0.193445 0.164791
0.998950 0.193294 0.164551
1.000000 0.193639 0.165054
1.000000 0.193487 0.164956
1.000000 0.193338 0.164859
0.131611 0.210419 0.175362
0.135468 0.210392 0.175326
0.139408 0.210364 0.175289
0.143491 0.210334 0.175250
0.147781 0.210303 0.175209
0.152343 0.210270 0.175166
0.157244 0.210234 0.175119
0.162554 0.210194 0.175067
0.168349 0.210151 0.175011
0.174705 0.210103 0.174949
0.181708 0.210051 0.174881
0.191506 0.209976 0.174785
0.200256 0.209910 0.174699
0.209837 0.209837 0.174605
0.220266 0.209757 0.174502
0.231558 0.209671 0.174391
0.243713 0.209578 0.174272
0.256725 0.209479 0.174144
0.270586 0.209373 0.174008
0.285281 0.209260 0.173863
0.300791 0.209141 0.173710
0.317089 0.209016 0.173549
0.334144 0.208884 0.173379
0.351920 0.208746 0.173202
0.370371 0.208602 0.173016
0.389450 0.208452 0.172823
0.409102 0.208297 0.172622
0.429267 0.208137 0.172414
0.449879 0.207971 0.172200
0.470871 0.207801 0.171978
0.492167 0.207627 0.171751
0.513691 0.207449 0.171517
0.540794 0.207222 0.171218
0.562535 0.207037 0.170973
0.584236 0.206849 0.170723
0.605812 0.206659 0.170470
0.627179 0.206467 0.170213
0.648251 0.206274 0.169953
0.668947 0.206080 0.169690
0.689184 0.205886 0.169426
0.708887 0.205692 0.169160
0.727979 0.205498 0.168893
0.746413 0.205305 0.168626
0.764193 0.205114 0.168360
0.781335 0.204924 0.168094
0.797857 0.204736 0.167829
0.813776 0.204551 0.167566
0.829110 0.204369 0.167306
0.843885 0.204190 0.167049
0.858149 0.204014 0.166795
