indra/newview/app_settings/luts/H5.cube
#Created by: Affinity Photo (Serif Europe Ltd.)
TITLE "Exported LUT"
#LUT size
LUT_3D_SIZE 4
#data domain
DOMAIN_MIN 0.0 0.0 0.0
DOMAIN_MAX 1.0 1.0 1.0
#LUT data points
0.133202 0.133202 0.180991
0.327800 0.133118 0.179287
0.768445 0.131001 0.173687
1.000000 0.128368 0.168129
0.129208 0.309072 0.168080
0.307253 0.307253 0.166626
0.729477 0.303892 0.162792
1.000000 0.301846 0.160170
0.124777 0.715449 0.145078
0.300332 0.716962 0.143972
0.720067 0.719667 0.141855
1.000000 0.721078 0.143641
0.134724 0.998426 0.134635
0.317628 0.998924 0.134477
0.731367 1.000000 0.136603
1.000000 1.000000 0.144112
0.128812 0.128812 0.424542
0.313032 0.128878 0.412938
0.742103 0.127759 0.399488
1.000000 0.126711 0.388123
0.126550 0.301286 0.387041
0.301171 0.301171 0.383669
0.721089 0.301085 0.377041
1.000000 0.302266 0.371658
0.125668 0.717337 0.351979
0.304950 0.718442 0.350966
0.724767 0.721008 0.349403
1.000000 0.723271 0.351856
0.141363 1.000000 0.336518
0.328043 1.000000 0.337194
0.738635 1.000000 0.344129
1.000000 1.000000 0.357318
0.125809 0.125809 0.853424
0.300774 0.126457 0.841179
0.721035 0.127152 0.830134
1.000000 0.129152 0.823591
0.125902 0.299798 0.827165
0.301070 0.301070 0.821463
0.720060 0.303479 0.818901
1.000000 0.307148 0.816263
0.134900 0.718523 0.807171
0.317902 0.719400 0.806660
0.731904 0.722134 0.806665
1.000000 0.726561 0.807149
0.146498 0.999820 0.799152
0.334880 1.000000 0.799257
0.745954 1.000000 0.804340
1.000000 1.000000 0.817036
0.125946 0.125946 1.000000
0.299683 0.127179 1.000000
0.717411 0.128802 1.000000
1.000000 0.130227 1.000000
0.125408 0.300869 0.999269
0.302862 0.301835 0.999343
0.722250 0.303442 1.000000
1.000000 0.306572 1.000000
0.136166 0.715059 0.996220
0.319430 0.715497 0.996462
0.730333 0.717761 0.997969
1.000000 0.720790 1.000000
0.143346 0.995172 0.995172
0.328969 0.995463 0.995463
0.734386 0.997478 0.997478
1.000000 1.000000 1.000000
