indra/newview/app_settings/luts/H5.cube
#Created by: Affinity Photo (Serif Europe Ltd.)
TITLE "Exported LUT"
#LUT size
LUT_3D_SIZE 8
#data domain
DOMAIN_MIN 0.0 0.0 0.0
DOMAIN_MAX 1.0 1.0 1.0
#LUT data points
0.133202 0.133202 0.180991
0.178219 0.133265 0.180645
0.278956 0.133210 0.179754
0.445125 0.132776 0.178072
0.648955 0.131826 0.175565
0.819533 0.130559 0.172729
0.947885 0.129195 0.169896
1.000000 0.128368 0.168129
0.132426 0.176482 0.177961
0.176316 0.176316 0.177554
0.274168 0.175846 0.176595
0.435787 0.174902 0.174919
0.635911 0.173471 0.172550
0.806395 0.171866 0.169954
0.934780 0.170301 0.167405
1.000000 0.169405 0.166015
0.130188 0.266928 0.171083
0.172208 0.266467 0.170705
0.265511 0.265511 0.169862
0.420547 0.264082 0.168466
0.615933 0.262351 0.166560
0.787134 0.260711 0.164504
0.916507 0.259305 0.162491
1.000000 0.258579 0.161969
0.127352 0.410101 0.161653
0.167947 0.409852 0.161394
0.257993 0.409399 0.160806
0.408840 0.408840 0.159806
0.601744 0.408327 0.158402
0.773950 0.408008 0.156854
0.904262 0.407904 0.155326
1.000000 0.407894 0.155739
0.125378 0.596070 0.151478
0.165822 0.596374 0.151240
0.255542 0.596972 0.150703
0.406172 0.597835 0.149806
0.598911 0.598911 0.148582
0.770804 0.600065 0.147293
0.900258 0.601273 0.146096
1.000000 0.602056 0.146566
0.124749 0.768164 0.142168
0.165853 0.768542 0.141890
0.256958 0.769264 0.141308
0.409608 0.770031 0.140791
0.603134 0.770794 0.140675
0.773512 0.771641 0.140646
0.901252 0.772528 0.140716
1.000000 0.772604 0.143063
0.129321 0.897204 0.137470
0.171611 0.897342 0.137397
0.264902 0.897657 0.137303
0.418530 0.898186 0.137260
0.610271 0.898934 0.137340
0.777650 0.899790 0.137559
0.903216 0.900692 0.137890
1.000000 0.900049 0.142484
0.134724 0.998426 0.134635
0.177754 0.998513 0.134543
0.272281 0.998779 0.134474
0.426161 0.999302 0.134544
0.616325 1.000000 0.135001
0.781036 1.000000 0.137515
0.903799 1.000000 0.140627
1.000000 1.000000 0.144112
0.131778 0.131778 0.239743
0.176155 0.131828 0.239014
0.275233 0.131766 0.237384
0.438918 0.131368 0.234685
0.640878 0.130519 0.231042
0.811631 0.129405 0.227191
0.940066 0.128219 0.223518
1.000000 0.127539 0.220909
0.130988 0.174441 0.234711
0.174291 0.174291 0.233963
0.270671 0.173873 0.232357
0.430204 0.173052 0.229813
0.628890 0.171824 0.226502
0.799714 0.170465 0.223083
0.928410 0.169155 0.219864
1.000000 0.168520 0.217718
0.128988 0.264097 0.224632
0.170614 0.263733 0.224018
0.262984 0.262984 0.222738
0.416819 0.261872 0.220772
0.611520 0.260544 0.218262
0.783099 0.259308 0.215688
0.912819 0.258276 0.213262
1.000000 0.257981 0.212142
0.126678 0.408014 0.212318
0.167167 0.407914 0.211935
0.256971 0.407744 0.211115
0.407571 0.407571 0.209811
0.600387 0.407488 0.208080
0.772701 0.407563 0.206249
0.903019 0.407801 0.204496
1.000000 0.408242 0.204466
0.125165 0.595854 0.200212
0.165695 0.596232 0.199898
0.255598 0.596966 0.199218
0.406465 0.598005 0.198128
0.599276 0.599276 0.196698
0.770961 0.600613 0.195238
0.900108 0.601992 0.193917
1.000000 0.603082 0.194047
0.124867 0.768670 0.189748
0.166128 0.769054 0.189408
0.258106 0.769504 0.189096
0.411455 0.770171 0.188815
0.604734 0.771040 0.188548
0.774565 0.771999 0.188392
0.901895 0.772995 0.188361
1.000000 0.773079 0.191177
0.130780 0.897500 0.184735
0.173273 0.897648 0.184598
0.266942 0.897994 0.184400
0.420760 0.898581 0.184238
0.612215 0.899410 0.184205
0.778986 0.900352 0.184339
0.904114 0.901334 0.184611
1.000000 0.900406 0.190640
0.136375 0.998925 0.181064
0.179614 0.999020 0.180915
0.274528 0.999312 0.180760
0.428586 0.999883 0.180742
0.618910 1.000000 0.182553
0.782578 1.000000 0.185488
0.904497 1.000000 0.189135
1.000000 1.000000 0.193237
0.129562 0.129562 0.368430
0.172869 0.129672 0.362558
0.269082 0.129639 0.359547
0.428541 0.129355 0.355057
0.627383 0.128739 0.349540
0.798535 0.127934 0.344121
0.927391 0.127086 0.339222
1.000000 0.126784 0.335267
0.128908 0.171327 0.355322
0.171233 0.171233 0.353971
0.265218 0.170959 0.351258
0.421395 0.170412 0.347305
0.617801 0.169593 0.342550
0.789209 0.168697 0.337947
0.918537 0.167850 0.333817
1.000000 0.167762 0.330477
0.127429 0.260056 0.340018
0.168483 0.259882 0.339043
0.259519 0.259519 0.337109
0.411659 0.258982 0.334324
0.605392 0.258355 0.330988
0.777457 0.257805 0.327745
0.907611 0.257396 0.324811
1.000000 0.257862 0.322742
0.125975 0.405660 0.323532
0.166387 0.405794 0.322974
0.256026 0.406067 0.321833
0.406485 0.406485 0.320114
0.599220 0.407051 0.317951
0.771467 0.407715 0.315764
0.901536 0.408468 0.313748
1.000000 0.409605 0.313003
0.125063 0.596370 0.308664
0.165809 0.596834 0.308232
0.256166 0.597724 0.307330
0.407569 0.598967 0.305949
0.600468 0.600468 0.304221
0.771595 0.602035 0.302536
0.900473 0.603124 0.301915
1.000000 0.604079 0.302945
0.126917 0.769186 0.297359
0.168899 0.769438 0.297127
0.261718 0.769949 0.296695
0.415410 0.770730 0.296146
0.608131 0.771763 0.295617
0.776802 0.772900 0.295255
0.903278 0.774069 0.295073
1.000000 0.774194 0.299011
0.133745 0.898215 0.290566
0.176629 0.898371 0.290307
0.271018 0.898756 0.289919
0.425152 0.899428 0.289555
0.615989 0.900378 0.289355
0.781541 0.901449 0.289386
0.905812 0.902552 0.289610
1.000000 0.901175 0.298832
0.139517 0.999888 0.285318
0.183141 0.999989 0.285064
0.279399 1.000000 0.285408
0.434726 1.000000 0.286759
0.624054 1.000000 0.289510
0.785655 1.000000 0.293478
0.905903 1.000000 0.298421
1.000000 1.000000 0.304001
0.127413 0.127413 0.554750
0.169398 0.127548 0.547325
0.262587 0.127673 0.537983
0.417623 0.127618 0.532442
0.613364 0.127366 0.526081
0.785124 0.126988 0.520195
0.914747 0.126580 0.515124
1.000000 0.126950 0.510344
0.127024 0.168311 0.538177
0.168332 0.168332 0.536465
0.260031 0.168370 0.527790
0.413020 0.168232 0.523231
0.607354 0.167963 0.518056
0.779370 0.167646 0.513297
0.909375 0.167355 0.509206
1.000000 0.168073 0.505105
0.126332 0.256840 0.515154
0.166948 0.256902 0.514058
0.257004 0.257004 0.511944
0.407938 0.257125 0.509018
0.600962 0.257268 0.505658
0.773233 0.257449 0.502517
0.903459 0.257698 0.499775
1.000000 0.259064 0.497004
0.125682 0.404901 0.497921
0.166199 0.405247 0.497327
0.256073 0.405912 0.496135
0.406841 0.406841 0.494389
0.599570 0.407964 0.492265
0.771299 0.409140 0.490200
0.900617 0.410357 0.488380
1.000000 0.412128 0.487046
0.125111 0.598143 0.482951
0.166215 0.598631 0.482469
0.257315 0.599564 0.481489
0.410204 0.600606 0.480339
0.603923 0.601817 0.479315
0.774356 0.603193 0.478482
0.902109 0.604594 0.477849
1.000000 0.606109 0.478729
0.130850 0.770082 0.472498
0.173356 0.770324 0.472153
0.267126 0.770858 0.471559
0.421195 0.771721 0.470861
0.612974 0.772892 0.470233
0.779907 0.774186 0.469837
0.905141 0.775508 0.469669
1.000000 0.775948 0.474214
0.137773 0.899162 0.464445
0.181166 0.899308 0.464096
0.276446 0.899705 0.463595
0.430849 0.900431 0.463161
0.620712 0.901473 0.462963
0.784599 0.902645 0.463060
0.907726 0.903845 0.463390
1.000000 0.902309 0.475026
0.145649 1.000000 0.460049
0.190020 1.000000 0.459965
0.287371 1.000000 0.460418
0.442986 1.000000 0.462107
0.630861 1.000000 0.465558
0.789826 1.000000 0.470560
0.907880 1.000000 0.476841
1.000000 1.000000 0.484008
0.126094 0.126094 0.750984
0.167100 0.126271 0.744650
0.258014 0.126532 0.736748
0.410160 0.126769 0.727648
0.603941 0.126898 0.722963
0.776153 0.126935 0.718829
0.906294 0.126940 0.715418
1.000000 0.128170 0.711116
0.126060 0.166606 0.737453
0.166758 0.166758 0.736169
0.257016 0.167026 0.728870
0.408259 0.167305 0.720639
0.601448 0.167536 0.717030
0.773679 0.167723 0.713846
0.903823 0.167912 0.711215
1.000000 0.169500 0.707462
0.125981 0.255683 0.719569
0.166510 0.255934 0.718819
0.256399 0.256399 0.717393
0.407132 0.256999 0.710332
0.599885 0.257694 0.708126
0.771775 0.258400 0.706125
0.901386 0.259133 0.704448
1.000000 0.261196 0.701876
0.125634 0.406086 0.702147
0.166460 0.406523 0.701723
0.256989 0.407353 0.700877
0.408498 0.408498 0.699655
0.601240 0.409871 0.698214
0.772243 0.411181 0.697017
0.900867 0.412354 0.696248
1.000000 0.414650 0.695064
0.127749 0.599587 0.691598
0.169836 0.599907 0.691328
0.262852 0.600564 0.690830
0.416636 0.601577 0.690198
0.609183 0.602918 0.689577
0.777504 0.604391 0.689130
0.903729 0.605899 0.688874
1.000000 0.608355 0.688744
0.135079 0.770728 0.683823
0.178128 0.770919 0.683526
0.272808 0.771402 0.683079
0.427027 0.772250 0.682652
0.617535 0.773449 0.682396
0.782530 0.774793 0.682384
0.906416 0.776170 0.682577
1.000000 0.777547 0.685207
0.141385 0.899418 0.677594
0.185235 0.899522 0.677312
0.281212 0.899875 0.676979
0.435582 0.900580 0.676824
0.624248 0.901627 0.676982
0.786514 0.902818 0.677432
0.908560 0.904038 0.678079
1.000000 0.903366 0.686710
0.149278 1.000000 0.674288
0.194019 1.000000 0.674182
0.292184 1.000000 0.674546
0.448404 1.000000 0.676041
0.635931 1.000000 0.679211
0.793429 1.000000 0.683964
0.909874 1.000000 0.690163
1.000000 1.000000 0.697547
0.125782 0.125782 0.894750
0.166423 0.125988 0.893754
0.256528 0.126337 0.888249
0.407566 0.126731 0.882121
0.600598 0.127094 0.879592
0.772711 0.127388 0.877478
0.902628 0.127659 0.875834
1.000000 0.129585 0.872524
0.125937 0.166307 0.889358
0.166530 0.166530 0.888649
0.256538 0.166920 0.883603
0.407418 0.167396 0.878090
0.600243 0.167896 0.876263
0.772088 0.168364 0.874729
0.901649 0.168835 0.873539
1.000000 0.170959 0.870750
0.125979 0.256142 0.878190
0.166711 0.256459 0.877816
0.257046 0.257046 0.877108
0.408261 0.257804 0.872271
0.600956 0.258709 0.871213
0.772018 0.259641 0.870305
0.900566 0.260616 0.869618
1.000000 0.262790 0.867963
0.125320 0.407865 0.867267
0.166523 0.408270 0.867029
0.258644 0.408757 0.866707
0.412044 0.409476 0.870320
0.605025 0.410528 0.866040
0.774709 0.411730 0.865919
0.901940 0.412981 0.865909
1.000000 0.415889 0.864587
0.131368 0.599611 0.862248
0.173922 0.599822 0.862124
0.267674 0.600327 0.861950
0.421427 0.601197 0.861821
0.612608 0.602429 0.861821
0.779066 0.603831 0.861976
0.903981 0.605291 0.862257
1.000000 0.608391 0.861341
0.137609 0.769773 0.858312
0.181011 0.769880 0.858175
0.276141 0.770246 0.858049
0.430089 0.770984 0.858080
0.619332 0.772094 0.858347
0.782894 0.773377 0.858811
0.905811 0.774708 0.859399
1.000000 0.777088 0.859453
0.142658 0.897914 0.855421
0.186713 0.897959 0.855294
0.282832 0.898227 0.855246
0.436751 0.898852 0.855456
0.624365 0.899832 0.855989
0.785716 0.900973 0.856741
0.907178 0.902150 0.857605
1.000000 0.903215 0.860128
0.146167 0.998955 0.853627
0.190636 0.998966 0.853525
0.287321 0.999193 0.853565
0.441061 0.999781 0.853944
0.630881 1.000000 0.855383
0.792121 1.000000 0.858126
0.910396 1.000000 0.862288
1.000000 1.000000 0.868218
0.126482 0.126482 1.000000
0.167115 0.126800 1.000000
0.257132 0.127353 1.000000
0.407767 0.128013 1.000000
0.599792 0.128633 1.000000
0.770783 0.129175 1.000000
0.899565 0.129719 1.000000
1.000000 0.130320 1.000000
0.126689 0.167098 1.000000
0.167409 0.167409 1.000000
0.257644 0.167954 1.000000
0.408540 0.168625 1.000000
0.600627 0.169299 1.000000
0.771278 0.169949 1.000000
0.899579 0.170653 1.000000
1.000000 0.171462 1.000000
0.125840 0.256916 1.000000
0.166858 0.257217 1.000000
0.257756 0.257756 1.000000
0.409630 0.258477 0.999940
0.602723 0.259157 1.000000
0.772712 0.260067 1.000000
0.900031 0.261200 1.000000
1.000000 0.262458 1.000000
0.127758 0.407320 0.998203
0.169764 0.407470 0.998259
0.262485 0.407809 0.998399
0.415640 0.408387 0.998659
0.607431 0.409231 0.999068
0.775397 0.410232 0.999581
0.901302 0.411478 1.000000
1.000000 0.413247 1.000000
0.132950 0.597376 0.996906
0.175759 0.597451 0.996926
0.269746 0.597746 0.997061
0.423051 0.598388 0.997399
0.612958 0.599406 0.997968
0.778181 0.600633 0.998678
0.902253 0.601951 0.999457
1.000000 0.603516 1.000000
0.137613 0.766597 0.995947
0.181111 0.766610 0.995941
0.276128 0.766833 0.996085
0.429417 0.767420 0.996505
0.617615 0.768394 0.997224
0.780528 0.769568 0.998106
0.903035 0.770813 0.999052
0.999982 0.772027 0.999982
0.141143 0.894420 0.995395
0.185122 0.894406 0.995375
0.280808 0.894587 0.995536
0.433944 0.895123 0.996025
0.620826 0.896025 0.996860
0.782126 0.897105 0.997864
0.903610 0.898235 0.998919
0.999938 0.899322 0.999938
0.143346 0.995172 0.995172
0.187582 0.995149 0.995149
0.283573 0.995326 0.995326
0.436474 0.995866 0.995866
0.622498 0.996772 0.996772
0.782906 0.997844 0.997844
0.903901 0.998950 0.998950
1.000000 1.000000 1.000000
0.125946 0.125946 1.000000
0.166373 0.126307 1.000000
0.255976 0.126935 1.000000
0.406156 0.127675 1.000000
0.598169 0.128387 1.000000
0.769557 0.128998 1.000000
0.898676 0.129590 1.000000
1.000000 0.130227 1.000000
0.126351 0.166587 1.000000
0.166942 0.166942 1.000000
0.256925 0.167566 1.000000
0.407560 0.168318 1.000000
0.599667 0.169081 1.000000
0.770573 0.169795 1.000000
0.899078 0.170544 1.000000
1.000000 0.171399 1.000000
0.125723 0.256572 1.000000
0.166695 0.256909 1.000000
0.257507 0.257507 1.000000
0.409312 0.258292 0.999945
0.602504 0.259067 1.000000
0.772668 0.260050 1.000000
0.900031 0.261200 1.000000
1.000000 0.262458 1.000000
0.127758 0.407320 0.998203
0.169764 0.407470 0.998259
0.262485 0.407809 0.998399
0.415640 0.408387 0.998659
0.607431 0.409231 0.999068
0.775397 0.410232 0.999581
0.901302 0.411478 1.000000
1.000000 0.413247 1.000000
0.132950 0.597376 0.996906
0.175759 0.597451 0.996926
0.269746 0.597746 0.997061
0.423051 0.598388 0.997399
0.612958 0.599406 0.997968
0.778181 0.600633 0.998678
0.902253 0.601951 0.999457
1.000000 0.603516 1.000000
0.137613 0.766597 0.995947
0.181111 0.766610 0.995941
0.276128 0.766833 0.996085
0.429417 0.767420 0.996505
0.617615 0.768394 0.997224
0.780528 0.769568 0.998106
0.903035 0.770813 0.999052
0.999982 0.772027 0.999982
0.141143 0.894420 0.995395
0.185122 0.894406 0.995375
0.280808 0.894587 0.995536
0.433944 0.895123 0.996025
0.620826 0.896025 0.996860
0.782126 0.897105 0.997864
0.903610 0.898235 0.998919
0.999938 0.899322 0.999938
0.143346 0.995172 0.995172
0.187582 0.995149 0.995149
0.283573 0.995326 0.995326
0.436474 0.995866 0.995866
0.622498 0.996772 0.996772
0.782906 0.997844 0.997844
0.903901 0.998950 0.998950
1.000000 1.000000 1.000000
