indra/newview/app_settings/luts/H6.cube
#Created by: Affinity Photo (Serif Europe Ltd.)
TITLE "TS3"
#LUT size
LUT_3D_SIZE 5
#data domain
#LUT data points
DOMAIN_MIN 0.000000 0.000000 0.000000
DOMAIN_MAX 0.852459 0.852459 0.852459
0.133202 0.133202 0.180991
0.183651 0.133268 0.180600
0.408663 0.132899 0.178464
0.786103 0.130855 0.173367
0.986874 0.128725 0.168946
0.132311 0.181563 0.177578
0.181348 0.181348 0.177117
0.399315 0.180097 0.174920
0.771465 0.177120 0.170203
0.972162 0.174664 0.166278
0.127857 0.378497 0.163557
0.173531 0.378113 0.163243
0.376830 0.376830 0.161829
0.741386 0.375263 0.158854
0.944569 0.374626 0.156351
0.124744 0.733668 0.144078
0.170581 0.734113 0.143774
0.374593 0.735669 0.142529
0.738623 0.737638 0.141437
0.938616 0.739028 0.141464
0.131325 0.935104 0.136381
0.178995 0.935237 0.136292
0.387614 0.935916 0.136198
0.746031 0.937460 0.136586
0.940789 0.938895 0.137250
0.131632 0.131632 0.246779
0.181276 0.131682 0.245910
0.402330 0.131335 0.242095
0.777241 0.129548 0.234601
0.978058 0.127728 0.228731
0.130734 0.179236 0.240884
0.179046 0.179046 0.240007
0.393677 0.177976 0.236392
0.764096 0.175497 0.229750
0.965277 0.173500 0.224703
0.127005 0.375875 0.220864
0.172484 0.375675 0.220376
0.375041 0.375041 0.218384
0.739476 0.374431 0.214644
0.942766 0.374424 0.211709
0.124800 0.734182 0.197637
0.170820 0.734645 0.197253
0.375616 0.736185 0.195858
0.739847 0.737946 0.195260
0.939150 0.739538 0.195098
0.133046 0.935522 0.188991
0.180971 0.935665 0.188826
0.390197 0.936421 0.188532
0.747746 0.938129 0.188727
0.941750 0.939691 0.189317
0.127719 0.127719 0.522542
0.175060 0.127906 0.509664
0.385133 0.127933 0.496363
0.753511 0.127211 0.484126
0.955638 0.126440 0.476067
0.127262 0.173658 0.499662
0.173646 0.173646 0.497809
0.379976 0.173466 0.485979
0.746269 0.172713 0.476171
0.949039 0.172131 0.469770
0.125841 0.371893 0.463522
0.171151 0.372167 0.462772
0.373144 0.373144 0.459984
0.737121 0.374805 0.455422
0.939455 0.376294 0.452244
0.128362 0.735774 0.436314
0.175604 0.736083 0.435954
0.383723 0.737325 0.434806
0.744853 0.739721 0.433509
0.941394 0.741809 0.433050
0.139127 0.937083 0.423960
0.187909 0.937227 0.423591
0.398936 0.938113 0.422874
0.753170 0.940165 0.422905
0.944595 0.941995 0.423630
0.125793 0.125793 0.868821
0.171358 0.126017 0.863763
0.374269 0.126631 0.851799
0.738874 0.127226 0.846346
0.941661 0.127583 0.843322
0.125938 0.171153 0.858370
0.171395 0.171395 0.857498
0.373872 0.172120 0.846606
0.737951 0.173042 0.842741
0.940188 0.173753 0.840590
0.125607 0.373726 0.836020
0.171538 0.374182 0.835704
0.375754 0.375754 0.834554
0.739599 0.377798 0.833363
0.939164 0.379678 0.833060
0.135883 0.736304 0.824672
0.184216 0.736475 0.824486
0.394125 0.737504 0.824196
0.749700 0.739913 0.824493
0.942314 0.742097 0.825179
0.144140 0.936284 0.819235
0.193647 0.936336 0.819075
0.405264 0.937066 0.819159
0.755164 0.939060 0.820392
0.944101 0.940875 0.821835
0.126242 0.126242 1.000000
0.171673 0.126631 1.000000
0.373675 0.127729 1.000000
0.736170 0.128972 1.000000
0.937161 0.129870 1.000000
0.126552 0.171754 1.000000
0.172105 0.172105 1.000000
0.374766 0.173222 1.000000
0.737117 0.174617 1.000000
0.937141 0.175806 1.000000
0.126824 0.374152 0.998456
0.173704 0.374333 0.998528
0.380507 0.375086 0.998852
0.741503 0.376730 0.999657
0.938158 0.378854 1.000000
0.136663 0.732879 0.996123
0.185207 0.732911 0.996126
0.394632 0.733599 0.996565
0.747737 0.735672 0.998005
0.939234 0.737677 0.999437
0.142067 0.932155 0.995285
0.191423 0.932140 0.995267
0.401732 0.932711 0.995812
0.750644 0.934561 0.997601
0.939729 0.936299 0.999290
