indra/newview/app_settings/luts/H6.cube
#Created by: Affinity Photo (Serif Europe Ltd.)
TITLE "TS3"
#LUT size
LUT_3D_SIZE 8
#data domain
#LUT data points
DOMAIN_MIN 0.000000 0.000000 0.000000
DOMAIN_MAX 0.918033 0.918033 0.918033
0.133202 0.133202 0.180991
0.154834 0.133241 0.180831
0.212477 0.133271 0.180354
0.354915 0.133053 0.179018
0.594109 0.132128 0.176304
0.807284 0.130670 0.172968
0.938611 0.129304 0.170118
1.000000 0.128662 0.168496
0.132878 0.154267 0.179582
0.154250 0.154250 0.179402
0.211123 0.154144 0.178886
0.351486 0.153664 0.177507
0.587893 0.152414 0.174823
0.800587 0.150718 0.171607
0.931894 0.149226 0.168891
1.000000 0.148567 0.167415
0.131670 0.208065 0.175544
0.152427 0.207920 0.175347
0.207516 0.207516 0.174810
0.343273 0.206494 0.173467
0.573930 0.204639 0.171011
0.786066 0.202580 0.168173
0.917831 0.200960 0.165812
1.000000 0.200247 0.164664
0.128717 0.332322 0.166507
0.148535 0.332104 0.166356
0.200997 0.331561 0.165948
0.330434 0.330434 0.164953
0.554218 0.328834 0.163155
0.766647 0.327426 0.161067
0.899874 0.326524 0.159313
0.984988 0.326006 0.158024
0.125795 0.544104 0.154234
0.145232 0.544194 0.154124
0.196668 0.544422 0.153823
0.323898 0.544931 0.153071
0.545790 0.545790 0.151686
0.758378 0.546814 0.150085
0.891563 0.547771 0.148785
0.975715 0.548571 0.147870
0.124736 0.755530 0.142868
0.144496 0.755721 0.142735
0.196761 0.756186 0.142389
0.325819 0.757142 0.141601
0.549532 0.758194 0.141012
0.760769 0.759188 0.140935
0.892009 0.760075 0.140976
0.974765 0.760777 0.141068
0.128849 0.888089 0.137733
0.149197 0.888157 0.137696
0.202899 0.888343 0.137622
0.334331 0.888793 0.137531
0.557447 0.889614 0.137548
0.765190 0.890614 0.137757
0.894134 0.891513 0.138061
0.975644 0.892221 0.138355
0.133267 0.971222 0.135368
0.153921 0.971266 0.135319
0.208339 0.971410 0.135239
0.340675 0.971826 0.135200
0.562898 0.972657 0.135383
0.768214 0.973699 0.135816
0.895622 0.974638 0.136317
0.976316 0.975373 0.136758
0.132467 0.132467 0.209272
0.153951 0.132502 0.209024
0.211148 0.132525 0.208327
0.352429 0.132309 0.206534
0.590201 0.131427 0.203163
0.803287 0.130054 0.199227
0.934666 0.128774 0.195960
1.000000 0.128194 0.193963
0.132130 0.153376 0.207385
0.153357 0.153357 0.207120
0.209800 0.153252 0.206393
0.349068 0.152792 0.204584
0.584183 0.151612 0.201292
0.796855 0.150026 0.197527
0.928284 0.148641 0.194436
1.000000 0.148071 0.192596
0.130948 0.206817 0.202257
0.151579 0.206681 0.201988
0.206306 0.206306 0.201274
0.341178 0.205360 0.199578
0.570886 0.203657 0.196640
0.783113 0.201780 0.193378
0.915087 0.200316 0.190733
1.000000 0.199354 0.188878
0.128209 0.330895 0.191519
0.147965 0.330709 0.191325
0.200255 0.330251 0.190814
0.329305 0.329305 0.189617
0.552758 0.327976 0.187548
0.765305 0.326836 0.185226
0.898659 0.326134 0.183317
0.983756 0.325753 0.181930
0.125614 0.543710 0.177858
0.145061 0.543826 0.177727
0.196522 0.544116 0.177376
0.323814 0.544748 0.176524
0.545774 0.545774 0.175000
0.758311 0.546950 0.173280
0.891388 0.548021 0.171904
0.975421 0.548901 0.170946
0.124772 0.755754 0.165748
0.144569 0.755948 0.165599
0.196928 0.756421 0.165216
0.326185 0.757393 0.164356
0.550333 0.758271 0.164073
0.761280 0.759335 0.163916
0.892315 0.760279 0.163903
0.974966 0.761023 0.163961
0.129545 0.888216 0.160478
0.149942 0.888286 0.160426
0.203765 0.888480 0.160317
0.335383 0.888955 0.160164
0.558446 0.889823 0.160107
0.765858 0.890875 0.160259
0.894578 0.891818 0.160528
0.975982 0.892555 0.160802
0.134054 0.971436 0.157775
0.154758 0.971482 0.157712
0.209303 0.971633 0.157600
0.341827 0.972070 0.157508
0.563989 0.972941 0.157634
0.768960 0.974028 0.158029
0.896142 0.975002 0.158510
0.976734 0.975762 0.158942
0.130805 0.130805 0.290173
0.152059 0.130951 0.283095
0.208218 0.130968 0.281817
0.346820 0.130776 0.278844
0.581333 0.130020 0.273833
0.794241 0.128862 0.268438
0.925855 0.127796 0.264181
1.000000 0.127404 0.261290
0.130574 0.151484 0.280438
0.151466 0.151466 0.279950
0.206925 0.151374 0.278681
0.343698 0.150981 0.275783
0.575895 0.149993 0.270998
0.788534 0.148685 0.265925
0.920324 0.147557 0.261953
1.000000 0.147232 0.259256
0.129490 0.204178 0.272549
0.149844 0.204071 0.272101
0.203773 0.203773 0.270955
0.336713 0.203029 0.268408
0.564359 0.201701 0.264331
0.776776 0.200261 0.260094
0.909230 0.199157 0.256803
0.994413 0.198411 0.254492
0.127268 0.328064 0.257741
0.146903 0.327957 0.257449
0.198858 0.327695 0.256705
0.327162 0.327162 0.255052
0.549976 0.326447 0.252376
0.762713 0.325898 0.249533
0.896264 0.325635 0.247280
0.981275 0.325557 0.245681
0.125351 0.543252 0.240846
0.144836 0.543420 0.240669
0.196396 0.543835 0.240204
0.323914 0.544710 0.239120
0.546063 0.546063 0.237274
0.758388 0.547543 0.235278
0.891127 0.548843 0.233732
0.974833 0.549889 0.232682
0.124919 0.756428 0.226914
0.144807 0.756624 0.226728
0.197804 0.756898 0.226505
0.328398 0.757524 0.226119
0.552463 0.758583 0.225621
0.762642 0.759801 0.225274
0.893145 0.760872 0.225139
0.975524 0.761708 0.225123
0.131338 0.888602 0.221155
0.151856 0.888676 0.221062
0.205978 0.888885 0.220864
0.338047 0.889412 0.220560
0.560954 0.890380 0.220332
0.767521 0.891547 0.220365
0.895681 0.892581 0.220572
0.976817 0.893384 0.220818
0.136013 0.971992 0.217568
0.156839 0.972040 0.217467
0.211693 0.972205 0.217277
0.344660 0.972685 0.217062
0.566644 0.973641 0.217069
0.770755 0.974822 0.217402
0.897383 0.975870 0.217868
0.977725 0.976682 0.218307
0.128333 0.128333 0.464765
0.148933 0.128485 0.453634
0.203324 0.128588 0.446323
0.337261 0.128520 0.441517
0.566300 0.128096 0.434231
0.779076 0.127406 0.427086
0.911454 0.126771 0.421798
0.996661 0.126299 0.418211
0.128163 0.148448 0.449307
0.148453 0.148453 0.448453
0.202295 0.148502 0.441311
0.334882 0.148320 0.436825
0.562336 0.147786 0.430100
0.775038 0.147055 0.423562
0.907674 0.146431 0.418744
0.992838 0.145987 0.415482
0.127467 0.200215 0.432360
0.147379 0.200179 0.431664
0.200069 0.200069 0.429938
0.330058 0.199767 0.426325
0.554639 0.199194 0.420983
0.767353 0.198573 0.415828
0.900563 0.198123 0.412031
0.985662 0.197847 0.409457
0.126233 0.324580 0.412775
0.145734 0.324612 0.412378
0.197331 0.324691 0.411391
0.324860 0.324860 0.409291
0.547009 0.325154 0.406090
0.759780 0.325556 0.402877
0.893287 0.325992 0.400442
0.977924 0.326398 0.398772
0.125228 0.543838 0.392843
0.144837 0.544068 0.392611
0.196716 0.544628 0.392015
0.324926 0.545783 0.390682
0.547521 0.547521 0.388537
0.759143 0.549376 0.386358
0.891274 0.550665 0.385234
0.974708 0.551605 0.384750
0.128147 0.757103 0.378506
0.148456 0.757230 0.378358
0.202093 0.757557 0.378007
0.333588 0.758297 0.377333
0.557283 0.759555 0.376497
0.765692 0.761011 0.375904
0.895006 0.762279 0.375635
0.976782 0.763258 0.375553
0.135183 0.889541 0.370648
0.155947 0.889615 0.370484
0.210677 0.889836 0.370139
0.343603 0.890425 0.369609
0.566053 0.891535 0.369172
0.770809 0.892867 0.369106
0.897806 0.894035 0.369300
0.978384 0.894932 0.369567
0.139941 0.973091 0.365722
0.161005 0.973139 0.365559
0.216453 0.973312 0.365247
0.350202 0.973842 0.364869
0.571688 0.974910 0.364775
0.774045 0.976219 0.365126
0.899586 0.977368 0.365672
0.979427 0.978249 0.366197
0.126331 0.126331 0.702597
0.146189 0.126430 0.696662
0.198704 0.126606 0.689355
0.328197 0.126815 0.684804
0.552577 0.126936 0.673200
0.765449 0.126877 0.667351
0.898768 0.126782 0.663281
0.983765 0.126717 0.660641
0.126283 0.145951 0.692486
0.146014 0.146014 0.691668
0.198254 0.146177 0.684548
0.327129 0.146369 0.680487
0.550801 0.146504 0.669557
0.763649 0.146500 0.664374
0.897065 0.146477 0.660772
0.981996 0.146477 0.658435
0.126127 0.197234 0.681684
0.145712 0.197334 0.675864
0.197488 0.197488 0.674384
0.325397 0.197759 0.671406
0.547973 0.198081 0.661895
0.760726 0.198353 0.658061
0.894164 0.198599 0.655377
0.978832 0.198823 0.653632
0.125873 0.323456 0.660374
0.145399 0.323616 0.660067
0.197065 0.324002 0.659309
0.324784 0.324784 0.657726
0.546938 0.325895 0.649894
0.759054 0.327090 0.647612
0.891657 0.328132 0.645979
0.975332 0.328978 0.644927
0.125173 0.546387 0.638989
0.145017 0.546620 0.638781
0.197603 0.547155 0.638276
0.328218 0.547963 0.637412
0.552463 0.549405 0.636313
0.762876 0.551099 0.635432
0.893506 0.552567 0.634899
0.975979 0.553701 0.634611
0.133429 0.758200 0.628038
0.154077 0.758303 0.627871
0.208534 0.758596 0.627504
0.341121 0.759336 0.626893
0.563910 0.760686 0.626281
0.769581 0.762286 0.626004
0.897147 0.763681 0.626019
0.978018 0.764753 0.626153
0.140101 0.890351 0.620813
0.161173 0.890404 0.620644
0.216642 0.890594 0.620316
0.350411 0.891173 0.619905
0.571862 0.892331 0.619762
0.774144 0.893744 0.620064
0.899641 0.894979 0.620571
0.979459 0.895923 0.621068
0.144338 0.973747 0.616533
0.165669 0.973776 0.616376
0.221749 0.973920 0.616102
0.356126 0.974434 0.615880
0.576607 0.975528 0.616117
0.776805 0.976883 0.616859
0.901091 0.978069 0.617724
0.980313 0.978972 0.618479
0.125784 0.125783 0.887469
0.145361 0.125887 0.883275
0.197139 0.126120 0.882038
0.325079 0.126529 0.875858
0.547644 0.126980 0.868774
0.760307 0.127325 0.866000
0.893570 0.127581 0.864202
0.978012 0.127788 0.863109
0.125864 0.145314 0.880853
0.145418 0.145418 0.880413
0.197143 0.145658 0.879359
0.324959 0.146089 0.873502
0.547345 0.146598 0.866864
0.759877 0.147032 0.864491
0.893002 0.147378 0.862955
0.977268 0.147663 0.862026
0.125993 0.196856 0.874971
0.145544 0.196980 0.874681
0.197272 0.197272 0.873985
0.325089 0.197820 0.868737
0.547327 0.198553 0.862918
0.759444 0.199280 0.861274
0.892075 0.199904 0.860210
0.975824 0.200418 0.859579
0.125783 0.324706 0.862818
0.145480 0.324892 0.862677
0.197591 0.325343 0.862328
0.326251 0.326251 0.861599
0.548879 0.327559 0.856512
0.760253 0.328766 0.855777
0.891847 0.329765 0.855446
0.974896 0.330611 0.855365
0.129280 0.547069 0.851110
0.149647 0.547189 0.851045
0.203405 0.547509 0.850902
0.334944 0.548273 0.850668
0.558075 0.549636 0.850471
0.765681 0.551264 0.850470
0.894527 0.552710 0.850613
0.976003 0.553837 0.850795
0.137000 0.757543 0.845904
0.157896 0.757594 0.845823
0.212889 0.757787 0.845681
0.345916 0.758388 0.845565
0.567406 0.759618 0.845705
0.770809 0.761148 0.846146
0.897037 0.762506 0.846672
0.977131 0.763554 0.847138
0.142299 0.889018 0.842671
0.163540 0.889034 0.842591
0.219334 0.889151 0.842479
0.353162 0.889627 0.842502
0.573352 0.890691 0.842948
0.774004 0.892041 0.843752
0.898618 0.893236 0.844575
0.977897 0.894151 0.845254
0.145400 0.972022 0.840953
0.166829 0.972021 0.840880
0.223052 0.972107 0.840803
0.357220 0.972537 0.840941
0.576548 0.973550 0.841612
0.775661 0.974846 0.842663
0.899431 0.975988 0.843679
0.978309 0.976858 0.844492
0.126546 0.126546 1.000000
0.146126 0.126703 1.000000
0.197903 0.127066 1.000000
0.325495 0.127385 1.000000
0.547588 0.127219 0.996484
0.759659 0.127699 0.995174
0.892203 0.128100 0.994428
0.975887 0.128437 0.994046
0.126684 0.146124 1.000000
0.146278 0.146278 1.000000
0.197831 0.146329 1.000000
0.325451 0.146290 0.999925
0.547824 0.146890 0.995376
0.759674 0.147460 0.994308
0.891961 0.147953 0.993713
0.975406 0.148369 0.993426
0.126020 0.197248 0.998279
0.145673 0.197374 0.998134
0.197673 0.197673 0.997787
0.326097 0.198253 0.997118
0.548602 0.199050 0.993047
0.759857 0.199887 0.992380
0.891560 0.200490 0.992246
0.974639 0.200933 0.992337
0.125370 0.325820 0.993309
0.145423 0.325887 0.993297
0.198418 0.326055 0.993273
0.328745 0.326439 0.993269
0.552107 0.327175 0.993451
0.761780 0.328213 0.990559
0.892089 0.329144 0.990993
0.974300 0.329895 0.991362
0.131465 0.545474 0.987668
0.151998 0.545520 0.987672
0.206082 0.545685 0.987715
0.337804 0.546104 0.991308
0.559686 0.547173 0.991820
0.765526 0.548676 0.989107
0.893341 0.549971 0.989788
0.974149 0.551000 0.990344
0.137344 0.754568 0.986184
0.158318 0.754569 0.986169
0.213392 0.754655 0.986196
0.346122 0.755086 0.986449
0.566422 0.756133 0.987143
0.768711 0.757394 0.991625
0.894526 0.758789 0.989015
0.974210 0.759777 0.989730
0.141106 0.885674 0.985440
0.162343 0.885658 0.985416
0.217996 0.885708 0.985443
0.351216 0.886080 0.985747
0.570370 0.887035 0.986581
0.770683 0.888305 0.987716
0.895249 0.889446 0.988749
0.974356 0.890326 0.989551
0.143121 0.968444 0.985142
0.164483 0.968421 0.985115
0.220404 0.968462 0.985146
0.353774 0.968824 0.985487
0.572234 0.969769 0.986402
0.771523 0.971015 0.987623
0.895577 0.972123 0.988715
0.974465 0.972969 0.989553
0.126066 0.126066 1.000000
0.145556 0.126242 1.000000
0.197103 0.126649 1.000000
0.324394 0.127385 1.000000
0.545730 0.128260 1.000000
0.757325 0.128987 1.000000
0.889704 0.129568 1.000000
0.973085 0.130059 1.000000
0.126297 0.145645 1.000000
0.145818 0.145818 1.000000
0.197454 0.146221 1.000000
0.324951 0.146957 1.000000
0.546418 0.147851 1.000000
0.757783 0.148632 1.000000
0.889868 0.149287 1.000000
0.973005 0.149852 1.000000
0.126402 0.197349 1.000000
0.146021 0.197520 1.000000
0.197920 0.197920 1.000000
0.326031 0.198661 1.000000
0.548021 0.199611 1.000000
0.758967 0.200534 1.000000
0.890344 0.201408 1.000000
0.973013 0.202191 1.000000
0.125436 0.325597 0.998843
0.145488 0.325672 0.998881
0.198483 0.325861 0.998972
0.328845 0.326317 0.999169
0.552229 0.327106 0.999535
0.761809 0.328109 1.000000
0.891679 0.329484 1.000000
0.973352 0.330674 1.000000
0.131540 0.545250 0.997237
0.152080 0.545290 0.997247
0.206177 0.545442 0.997305
0.337855 0.545932 0.997534
0.559675 0.546985 0.998081
0.765409 0.548367 0.998840
0.893168 0.549649 0.999564
0.973803 0.550826 1.000000
0.137264 0.754249 0.996010
0.158239 0.754246 0.995999
0.213305 0.754324 0.996039
0.345990 0.754742 0.996319
0.566201 0.755774 0.997055
0.768539 0.757153 0.998064
0.894251 0.758412 0.998999
0.973915 0.759396 0.999735
0.140908 0.885344 0.995425
0.162139 0.885325 0.995405
0.217768 0.885372 0.995440
0.350922 0.885736 0.995764
0.570001 0.886684 0.996627
0.770327 0.887949 0.997788
0.894915 0.889087 0.998838
0.974020 0.889965 0.999652
0.142844 0.968105 0.995210
0.164197 0.968082 0.995186
0.220083 0.968120 0.995223
0.353374 0.968478 0.995576
0.571775 0.969419 0.996509
0.771114 0.970663 0.997744
0.895214 0.971770 0.998844
0.974113 0.972616 0.999685
