indra/newview/app_settings/luts/H6.cube
#Created by: Affinity Photo (Serif Europe Ltd.)
TITLE "TS3"
#LUT size
LUT_3D_SIZE 62
#data domain
DOMAIN_MIN 0.0 0.0 0.0
DOMAIN_MAX 1.0 1.0 1.0
#LUT data points
0.133202 0.133202 0.180991
0.134203 0.133205 0.180984
0.136213 0.133209 0.180970
0.138240 0.133213 0.180955
0.141332 0.133219 0.180932
0.143439 0.133223 0.180917
0.146689 0.133229 0.180893
0.150070 0.133234 0.180867
0.154834 0.133241 0.180831
0.158637 0.133246 0.180801
0.164073 0.133253 0.180759
0.169999 0.133259 0.180712
0.176496 0.133264 0.180659
0.183651 0.133268 0.180600
0.191561 0.133271 0.180534
0.202634 0.133273 0.180440
0.212477 0.133271 0.180354
0.226044 0.133266 0.180236
0.237919 0.133258 0.180130
0.254038 0.133242 0.179984
0.271560 0.133220 0.179823
0.290458 0.133191 0.179646
0.310690 0.133154 0.179453
0.332201 0.133108 0.179244
0.354915 0.133053 0.179018
0.383635 0.132975 0.178725
0.408663 0.132899 0.178464
0.439826 0.132795 0.178130
0.466575 0.132698 0.177835
0.499383 0.132568 0.177462
0.532699 0.132424 0.177069
0.560638 0.132295 0.176728
0.594109 0.132128 0.176304
0.627226 0.131950 0.175865
0.654330 0.131794 0.175489
0.685998 0.131597 0.175029
0.711476 0.131427 0.174639
0.740724 0.131217 0.174165
0.763929 0.131038 0.173767
0.786103 0.130855 0.173367
0.807284 0.130670 0.172968
0.827513 0.130485 0.172570
0.846831 0.130298 0.172176
0.865285 0.130112 0.171785
0.879487 0.129964 0.171476
0.896624 0.129780 0.171094
0.909901 0.129633 0.170791
0.926030 0.129450 0.170416
0.938611 0.129304 0.170118
0.950949 0.129159 0.169823
0.963082 0.129014 0.169529
0.975045 0.128870 0.169237
0.986874 0.128725 0.168946
0.995678 0.128617 0.168729
1.000000 0.128844 0.168723
1.000000 0.128752 0.168609
1.000000 0.128662 0.168496
1.000000 0.128603 0.168422
1.000000 0.128514 0.168311
1.000000 0.128455 0.168238
1.000000 0.128397 0.168165
1.000000 0.128368 0.168129
0.133190 0.134188 0.180929
0.134190 0.134190 0.180922
0.136199 0.134194 0.180907
0.138225 0.134198 0.180892
0.141316 0.134204 0.180870
0.143421 0.134207 0.180854
0.146669 0.134213 0.180830
0.150049 0.134218 0.180804
0.154809 0.134224 0.180768
0.158610 0.134229 0.180738
0.164043 0.134235 0.180695
0.169965 0.134240 0.180647
0.176458 0.134244 0.180595
0.183609 0.134248 0.180535
0.191514 0.134250 0.180469
0.202579 0.134250 0.180374
0.212416 0.134248 0.180289
0.225974 0.134241 0.180169
0.237841 0.134232 0.180063
0.253948 0.134215 0.179917
0.271458 0.134191 0.179756
0.290342 0.134160 0.179578
0.310561 0.134121 0.179385
0.332056 0.134074 0.179175
0.354754 0.134017 0.178949
0.383455 0.133937 0.178657
0.408466 0.133859 0.178395
0.439610 0.133753 0.178061
0.466342 0.133653 0.177766
0.499131 0.133522 0.177393
0.532430 0.133376 0.177000
0.560355 0.133245 0.176659
0.593811 0.133076 0.176235
0.626917 0.132896 0.175797
0.654013 0.132738 0.175422
0.685675 0.132540 0.174962
0.711150 0.132369 0.174573
0.740399 0.132157 0.174100
0.763603 0.131976 0.173702
0.785778 0.131792 0.173303
0.806960 0.131606 0.172905
0.827190 0.131419 0.172508
0.846508 0.131232 0.172114
0.864962 0.131045 0.171724
0.879163 0.130896 0.171416
0.896299 0.130711 0.171034
0.909575 0.130563 0.170732
0.925703 0.130380 0.170358
0.938282 0.130233 0.170061
0.950618 0.130087 0.169766
0.962749 0.129942 0.169473
0.974710 0.129797 0.169182
0.986536 0.129652 0.168892
0.995337 0.129544 0.168675
1.000000 0.129773 0.168671
1.000000 0.129681 0.168557
1.000000 0.129590 0.168445
1.000000 0.129530 0.168371
1.000000 0.129441 0.168261
1.000000 0.129382 0.168188
1.000000 0.129323 0.168116
1.000000 0.129294 0.168080
0.133164 0.136164 0.180803
0.134163 0.136166 0.180796
0.136170 0.136170 0.180781
0.138194 0.136173 0.180766
0.141281 0.136178 0.180743
0.143384 0.136181 0.180727
0.146628 0.136186 0.180702
0.150004 0.136190 0.180676
0.154759 0.136195 0.180639
0.158555 0.136199 0.180609
0.163982 0.136204 0.180566
0.169897 0.136207 0.180518
0.176382 0.136210 0.180464
0.183524 0.136212 0.180405
0.191418 0.136213 0.180338
0.202470 0.136210 0.180242
0.212293 0.136206 0.180156
0.225832 0.136196 0.180036
0.237682 0.136185 0.179929
0.253767 0.136165 0.179782
0.271252 0.136138 0.179620
0.290110 0.136104 0.179442
0.310300 0.136061 0.179248
0.331765 0.136010 0.179037
0.354432 0.135950 0.178811
0.383094 0.135865 0.178518
0.408073 0.135784 0.178256
0.439176 0.135673 0.177922
0.465876 0.135570 0.177627
0.498627 0.135434 0.177254
0.531890 0.135285 0.176862
0.559789 0.135150 0.176521
0.593217 0.134977 0.176098
0.626299 0.134793 0.175661
0.653380 0.134632 0.175287
0.685029 0.134430 0.174828
0.710500 0.134256 0.174440
0.739748 0.134041 0.173968
0.762954 0.133857 0.173572
0.785130 0.133671 0.173175
0.806313 0.133483 0.172778
0.826544 0.133294 0.172382
0.845863 0.133104 0.171990
0.864316 0.132916 0.171602
0.878517 0.132765 0.171295
0.895652 0.132578 0.170915
0.908926 0.132430 0.170614
0.925051 0.132244 0.170242
0.937627 0.132097 0.169946
0.949960 0.131950 0.169653
0.962085 0.131804 0.169361
0.974041 0.131658 0.169071
0.985861 0.131512 0.168783
0.994657 0.131403 0.168567
1.000000 0.131636 0.168566
1.000000 0.131543 0.168454
1.000000 0.131451 0.168343
1.000000 0.131391 0.168269
1.000000 0.131300 0.168160
1.000000 0.131241 0.168088
1.000000 0.131181 0.168017
1.000000 0.131152 0.167981
0.133137 0.138154 0.180674
0.134135 0.138155 0.180667
0.136139 0.138158 0.180652
0.138161 0.138161 0.180637
0.141245 0.138165 0.180614
0.143346 0.138168 0.180598
0.146586 0.138172 0.180573
0.149958 0.138175 0.180546
0.154708 0.138179 0.180509
0.158499 0.138182 0.180478
0.163919 0.138185 0.180435
0.169827 0.138188 0.180386
0.176304 0.138189 0.180332
0.183437 0.138190 0.180272
0.191321 0.138188 0.180204
0.202358 0.138184 0.180108
0.212168 0.138177 0.180021
0.225688 0.138165 0.179900
0.237522 0.138151 0.179793
0.253584 0.138128 0.179645
0.271044 0.138098 0.179482
0.289876 0.138060 0.179303
0.310037 0.138014 0.179109
0.331472 0.137960 0.178898
0.354108 0.137896 0.178671
0.382731 0.137807 0.178377
0.407676 0.137722 0.178116
0.438740 0.137607 0.177781
0.465407 0.137500 0.177486
0.498121 0.137360 0.177113
0.531349 0.137206 0.176722
0.559221 0.137068 0.176382
0.592621 0.136891 0.175960
0.625680 0.136703 0.175523
0.652745 0.136539 0.175150
0.684382 0.136334 0.174693
0.709848 0.136157 0.174306
0.739097 0.135938 0.173836
0.762304 0.135752 0.173441
0.784481 0.135564 0.173045
0.805666 0.135373 0.172650
0.825898 0.135182 0.172256
0.845217 0.134990 0.171865
0.863671 0.134800 0.171479
0.877872 0.134648 0.171173
0.895006 0.134459 0.170795
0.908279 0.134309 0.170495
0.924400 0.134123 0.170124
0.936974 0.133974 0.169830
0.949302 0.133826 0.169538
0.961424 0.133679 0.169248
0.973374 0.133532 0.168960
0.985189 0.133385 0.168673
0.993980 0.133276 0.168458
1.000000 0.133514 0.168461
1.000000 0.133420 0.168350
1.000000 0.133327 0.168240
1.000000 0.133265 0.168167
1.000000 0.133174 0.168059
1.000000 0.133113 0.167988
1.000000 0.133053 0.167917
1.000000 0.133023 0.167882
0.133094 0.141179 0.180476
0.134090 0.141180 0.180469
0.136091 0.141183 0.180453
0.138109 0.141185 0.180438
0.141188 0.141188 0.180414
0.143285 0.141189 0.180398
0.146520 0.141192 0.180372
0.149885 0.141194 0.180346
0.154627 0.141197 0.180307
0.158412 0.141198 0.180277
0.163822 0.141199 0.180232
0.169719 0.141200 0.180183
0.176184 0.141199 0.180128
0.183303 0.141197 0.180067
0.191172 0.141193 0.179998
0.202186 0.141184 0.179901
0.211976 0.141175 0.179813
0.225468 0.141158 0.179691
0.237277 0.141141 0.179583
0.253304 0.141113 0.179434
0.270727 0.141078 0.179270
0.289518 0.141035 0.179091
0.309636 0.140984 0.178895
0.331026 0.140925 0.178684
0.353614 0.140855 0.178456
0.382179 0.140760 0.178162
0.407074 0.140669 0.177900
0.438079 0.140548 0.177566
0.464697 0.140436 0.177271
0.497354 0.140289 0.176899
0.530530 0.140129 0.176508
0.558361 0.139986 0.176169
0.591719 0.139803 0.175748
0.624743 0.139609 0.175313
0.651786 0.139440 0.174941
0.683405 0.139230 0.174486
0.708864 0.139048 0.174101
0.738113 0.138825 0.173634
0.761323 0.138635 0.173241
0.783503 0.138443 0.172848
0.804690 0.138249 0.172454
0.824924 0.138055 0.172063
0.844245 0.137860 0.171675
0.862700 0.137667 0.171291
0.876900 0.137513 0.170987
0.894033 0.137322 0.170612
0.907304 0.137170 0.170314
0.923421 0.136981 0.169946
0.935991 0.136831 0.169654
0.948314 0.136682 0.169364
0.960429 0.136533 0.169076
0.972373 0.136384 0.168790
0.984178 0.136237 0.168505
0.992962 0.136126 0.168292
1.000000 0.136371 0.168302
1.000000 0.136275 0.168192
1.000000 0.136181 0.168084
1.000000 0.136118 0.168013
1.000000 0.136025 0.167906
1.000000 0.135963 0.167836
1.000000 0.135902 0.167766
1.000000 0.135872 0.167732
0.133063 0.143235 0.180339
0.134058 0.143236 0.180332
0.136057 0.143237 0.180316
0.138073 0.143239 0.180301
0.141147 0.143241 0.180277
0.143242 0.143242 0.180260
0.146473 0.143244 0.180234
0.149835 0.143245 0.180207
0.154570 0.143247 0.180169
0.158351 0.143247 0.180138
0.163754 0.143247 0.180093
0.169644 0.143246 0.180043
0.176100 0.143244 0.179988
0.183211 0.143240 0.179926
0.191069 0.143234 0.179857
0.202068 0.143223 0.179759
0.211844 0.143211 0.179671
0.225317 0.143192 0.179548
0.237109 0.143172 0.179439
0.253113 0.143141 0.179290
0.270511 0.143103 0.179125
0.289274 0.143057 0.178945
0.309364 0.143003 0.178749
0.330723 0.142939 0.178537
0.353279 0.142866 0.178309
0.381804 0.142766 0.178015
0.406666 0.142672 0.177753
0.437631 0.142547 0.177418
0.464216 0.142431 0.177124
0.496836 0.142280 0.176752
0.529976 0.142115 0.176362
0.557780 0.141969 0.176024
0.591110 0.141782 0.175604
0.624110 0.141584 0.175170
0.651139 0.141412 0.174799
0.682746 0.141198 0.174346
0.708200 0.141014 0.173962
0.737449 0.140788 0.173496
0.760661 0.140595 0.173105
0.782843 0.140401 0.172713
0.804032 0.140205 0.172322
0.824269 0.140008 0.171932
0.843591 0.139812 0.171545
0.862046 0.139616 0.171163
0.876247 0.139461 0.170861
0.893379 0.139268 0.170487
0.906648 0.139115 0.170191
0.922764 0.138925 0.169825
0.935330 0.138774 0.169534
0.947651 0.138623 0.169246
0.959762 0.138474 0.168959
0.971700 0.138324 0.168675
0.983500 0.138176 0.168391
0.992280 0.138065 0.168179
1.000000 0.138315 0.168194
1.000000 0.138218 0.168086
1.000000 0.138122 0.167978
1.000000 0.138058 0.167908
1.000000 0.137964 0.167803
1.000000 0.137902 0.167733
1.000000 0.137840 0.167664
1.000000 0.137809 0.167630
0.133013 0.146395 0.180126
0.134007 0.146396 0.180119
0.136001 0.146397 0.180103
0.138014 0.146398 0.180087
0.141083 0.146399 0.180063
0.143174 0.146399 0.180046
0.146399 0.146399 0.180020
0.149755 0.146399 0.179992
0.154482 0.146399 0.179953
0.158255 0.146398 0.179921
0.163648 0.146396 0.179876
0.169526 0.146392 0.179825
0.175970 0.146388 0.179769
0.183066 0.146381 0.179707
0.190908 0.146373 0.179637
0.201885 0.146358 0.179538
0.211640 0.146343 0.179449
0.225083 0.146319 0.179325
0.236849 0.146296 0.179216
0.252818 0.146260 0.179065
0.270177 0.146217 0.178900
0.288899 0.146166 0.178719
0.308944 0.146106 0.178522
0.330256 0.146037 0.178310
0.352764 0.145959 0.178081
0.381229 0.145852 0.177787
0.406041 0.145753 0.177525
0.436944 0.145620 0.177191
0.463480 0.145499 0.176896
0.496042 0.145341 0.176526
0.529128 0.145171 0.176136
0.556892 0.145019 0.175799
0.590179 0.144826 0.175381
0.623144 0.144623 0.174949
0.650150 0.144446 0.174580
0.681739 0.144226 0.174129
0.707187 0.144038 0.173747
0.736437 0.143807 0.173284
0.759652 0.143611 0.172895
0.781838 0.143412 0.172506
0.803031 0.143213 0.172117
0.823270 0.143013 0.171730
0.842595 0.142814 0.171346
0.861052 0.142616 0.170967
0.875253 0.142459 0.170667
0.892384 0.142264 0.170296
0.905652 0.142109 0.170002
0.921764 0.141917 0.169639
0.934327 0.141764 0.169350
0.946643 0.141612 0.169064
0.958748 0.141461 0.168780
0.970680 0.141310 0.168497
0.982472 0.141161 0.168216
0.991244 0.141049 0.168006
1.000000 0.141306 0.168028
1.000000 0.141207 0.167922
1.000000 0.141109 0.167816
1.000000 0.141045 0.167747
1.000000 0.140949 0.167643
1.000000 0.140886 0.167575
1.000000 0.140823 0.167507
1.000000 0.140792 0.167473
0.132959 0.149672 0.179902
0.133950 0.149672 0.179894
0.135941 0.149672 0.179878
0.137950 0.149672 0.179862
0.141014 0.149672 0.179837
0.143101 0.149671 0.179820
0.146320 0.149670 0.179793
0.149669 0.149669 0.179766
0.154387 0.149667 0.179726
0.158153 0.149664 0.179694
0.163535 0.149660 0.179647
0.169402 0.149654 0.179596
0.175833 0.149647 0.179540
0.182914 0.149638 0.179477
0.190740 0.149627 0.179406
0.201693 0.149608 0.179306
0.211426 0.149590 0.179216
0.224839 0.149562 0.179092
0.236578 0.149535 0.178981
0.252511 0.149494 0.178830
0.269830 0.149446 0.178664
0.288509 0.149389 0.178482
0.308509 0.149324 0.178285
0.329773 0.149250 0.178072
0.352231 0.149166 0.177843
0.380635 0.149052 0.177549
0.405394 0.148947 0.177287
0.436235 0.148808 0.176953
0.462720 0.148681 0.176660
0.495224 0.148517 0.176290
0.528256 0.148339 0.175902
0.555978 0.148182 0.175566
0.589222 0.147983 0.175149
0.622151 0.147774 0.174719
0.649135 0.147593 0.174352
0.680706 0.147368 0.173904
0.706146 0.147175 0.173524
0.735399 0.146939 0.173064
0.758618 0.146739 0.172678
0.780808 0.146537 0.172291
0.802004 0.146335 0.171905
0.822247 0.146132 0.171520
0.841575 0.145930 0.171140
0.860034 0.145729 0.170763
0.874236 0.145570 0.170465
0.891367 0.145372 0.170097
0.904634 0.145216 0.169806
0.920743 0.145022 0.169445
0.933303 0.144867 0.169159
0.945614 0.144714 0.168875
0.957714 0.144562 0.168593
0.969639 0.144410 0.168313
0.981423 0.144259 0.168034
0.990189 0.144146 0.167826
1.000000 0.144274 0.167763
1.000000 0.144310 0.167753
1.000000 0.144211 0.167649
1.000000 0.144145 0.167581
1.000000 0.144048 0.167479
1.000000 0.143983 0.167412
1.000000 0.143919 0.167345
1.000000 0.143888 0.167312
0.132878 0.154267 0.179582
0.133867 0.154267 0.179574
0.135853 0.154266 0.179558
0.137857 0.154265 0.179541
0.140912 0.154262 0.179515
0.142994 0.154261 0.179498
0.146205 0.154258 0.179471
0.149545 0.154255 0.179442
0.154250 0.154250 0.179402
0.158005 0.154245 0.179369
0.163373 0.154238 0.179322
0.169223 0.154229 0.179270
0.175636 0.154219 0.179213
0.182697 0.154206 0.179149
0.190500 0.154191 0.179077
0.201420 0.154167 0.178976
0.211123 0.154144 0.178886
0.224494 0.154110 0.178760
0.236196 0.154077 0.178649
0.252078 0.154030 0.178496
0.269342 0.153975 0.178329
0.287962 0.153911 0.178147
0.307899 0.153838 0.177949
0.329097 0.153756 0.177736
0.351486 0.153664 0.177507
0.379805 0.153541 0.177212
0.404493 0.153428 0.176951
0.435248 0.153280 0.176618
0.461664 0.153145 0.176325
0.494087 0.152972 0.175957
0.527044 0.152786 0.175571
0.554710 0.152621 0.175237
0.587893 0.152414 0.174823
0.620775 0.152197 0.174396
0.647727 0.152009 0.174032
0.679274 0.151777 0.173587
0.704706 0.151579 0.173211
0.733962 0.151336 0.172755
0.757187 0.151131 0.172372
0.779383 0.150925 0.171989
0.800587 0.150718 0.171607
0.820835 0.150510 0.171227
0.840168 0.150305 0.170850
0.858630 0.150100 0.170477
0.872834 0.149939 0.170183
0.889966 0.149738 0.169819
0.903232 0.149579 0.169531
0.919338 0.149382 0.169174
0.931894 0.149226 0.168891
0.944200 0.149071 0.168611
0.956293 0.148917 0.168332
0.968209 0.148764 0.168055
0.979982 0.148612 0.167780
0.988739 0.148498 0.167574
1.000000 0.148399 0.167343
1.000000 0.148669 0.167516
1.000000 0.148567 0.167415
1.000000 0.148500 0.167348
1.000000 0.148401 0.167249
1.000000 0.148335 0.167184
1.000000 0.148270 0.167119
1.000000 0.148237 0.167086
0.132810 0.157918 0.179323
0.133797 0.157918 0.179315
0.135779 0.157916 0.179298
0.137779 0.157913 0.179282
0.140828 0.157910 0.179256
0.142906 0.157907 0.179238
0.146109 0.157903 0.179211
0.149443 0.157898 0.179182
0.154138 0.157891 0.179141
0.157885 0.157885 0.179108
0.163241 0.157876 0.179060
0.169079 0.157864 0.179008
0.175477 0.157851 0.178949
0.182522 0.157836 0.178885
0.190306 0.157817 0.178813
0.201201 0.157789 0.178711
0.210881 0.157763 0.178620
0.224218 0.157723 0.178493
0.235890 0.157687 0.178381
0.251733 0.157634 0.178228
0.268954 0.157573 0.178060
0.287527 0.157504 0.177878
0.307415 0.157425 0.177679
0.328561 0.157337 0.177466
0.350897 0.157240 0.177237
0.379150 0.157109 0.176943
0.403781 0.156990 0.176682
0.434470 0.156834 0.176350
0.460831 0.156694 0.176058
0.493192 0.156514 0.175691
0.526091 0.156321 0.175307
0.553713 0.156151 0.174975
0.586851 0.155937 0.174563
0.619695 0.155714 0.174139
0.646624 0.155521 0.173777
0.678153 0.155284 0.173335
0.703578 0.155081 0.172962
0.732836 0.154834 0.172509
0.756067 0.154625 0.172129
0.778269 0.154415 0.171749
0.799478 0.154204 0.171370
0.819732 0.153994 0.170993
0.839069 0.153785 0.170619
0.857535 0.153579 0.170250
0.871741 0.153415 0.169958
0.888874 0.153212 0.169598
0.902139 0.153052 0.169312
0.918244 0.152853 0.168959
0.930797 0.152695 0.168679
0.943099 0.152539 0.168401
0.955187 0.152384 0.168125
0.967097 0.152229 0.167851
0.978863 0.152076 0.167578
0.987614 0.151962 0.167374
0.999208 0.151810 0.167103
1.000000 0.152138 0.167329
1.000000 0.152035 0.167230
1.000000 0.151967 0.167165
1.000000 0.151866 0.167068
1.000000 0.151799 0.167004
1.000000 0.151733 0.166940
1.000000 0.151700 0.166908
0.132709 0.163112 0.178949
0.133693 0.163110 0.178941
0.135670 0.163107 0.178924
0.137663 0.163103 0.178907
0.140704 0.163098 0.178881
0.142775 0.163094 0.178863
0.145969 0.163088 0.178835
0.149293 0.163081 0.178805
0.153974 0.163071 0.178764
0.157710 0.163062 0.178730
0.163050 0.163050 0.178682
0.168869 0.163035 0.178629
0.175247 0.163018 0.178570
0.182269 0.162998 0.178504
0.190028 0.162976 0.178432
0.200886 0.162942 0.178329
0.210533 0.162910 0.178237
0.223823 0.162864 0.178109
0.235455 0.162822 0.177997
0.251241 0.162762 0.177843
0.268402 0.162693 0.177675
0.286910 0.162616 0.177491
0.306729 0.162529 0.177293
0.327803 0.162433 0.177080
0.350064 0.162327 0.176851
0.378224 0.162187 0.176558
0.402778 0.162059 0.176298
0.433374 0.161893 0.175967
0.459660 0.161745 0.175677
0.491934 0.161555 0.175312
0.524753 0.161352 0.174931
0.552314 0.161175 0.174601
0.585389 0.160953 0.174193
0.618182 0.160721 0.173772
0.645078 0.160522 0.173414
0.676582 0.160277 0.172976
0.701999 0.160068 0.172607
0.731262 0.159814 0.172159
0.754502 0.159600 0.171784
0.776713 0.159386 0.171408
0.797931 0.159171 0.171034
0.818193 0.158956 0.170661
0.837537 0.158744 0.170292
0.856009 0.158534 0.169928
0.870218 0.158368 0.169640
0.887353 0.158162 0.169284
0.900619 0.157999 0.169002
0.916723 0.157798 0.168653
0.929273 0.157639 0.168377
0.941570 0.157481 0.168103
0.953652 0.157324 0.167830
0.965554 0.157169 0.167560
0.977310 0.157014 0.167291
0.986052 0.156899 0.167090
0.997634 0.156746 0.166823
1.000000 0.157083 0.167065
1.000000 0.156978 0.166969
1.000000 0.156908 0.166905
1.000000 0.156805 0.166811
1.000000 0.156737 0.166749
1.000000 0.156669 0.166687
1.000000 0.156635 0.166656
0.132594 0.168737 0.178538
0.133575 0.168735 0.178529
0.135545 0.168730 0.178512
0.137532 0.168725 0.178494
0.140563 0.168718 0.178468
0.142628 0.168713 0.178449
0.145812 0.168704 0.178421
0.149125 0.168695 0.178391
0.153791 0.168682 0.178349
0.157515 0.168671 0.178315
0.162837 0.168655 0.178266
0.168637 0.168637 0.178212
0.174993 0.168616 0.178153
0.181991 0.168592 0.178087
0.189723 0.168564 0.178013
0.200542 0.168524 0.177910
0.210153 0.168487 0.177817
0.223394 0.168434 0.177688
0.234982 0.168386 0.177576
0.250709 0.168318 0.177422
0.267805 0.168241 0.177253
0.286245 0.168156 0.177069
0.305990 0.168060 0.176871
0.326988 0.167955 0.176658
0.349169 0.167840 0.176430
0.377232 0.167690 0.176138
0.401704 0.167553 0.175879
0.432203 0.167377 0.175550
0.458409 0.167220 0.175262
0.490592 0.167020 0.174900
0.523327 0.166808 0.174522
0.550826 0.166623 0.174195
0.583834 0.166392 0.173791
0.616574 0.166152 0.173375
0.643437 0.165946 0.173021
0.674915 0.165693 0.172588
0.700323 0.165479 0.172223
0.729593 0.165218 0.171781
0.752843 0.165000 0.171410
0.775066 0.164780 0.171040
0.796294 0.164561 0.170670
0.816567 0.164343 0.170302
0.835919 0.164126 0.169938
0.854398 0.163913 0.169579
0.868612 0.163744 0.169295
0.885750 0.163536 0.168944
0.899018 0.163372 0.168666
0.915121 0.163168 0.168323
0.927669 0.163007 0.168051
0.939962 0.162848 0.167781
0.952038 0.162690 0.167512
0.963933 0.162533 0.167246
0.975680 0.162377 0.166981
0.984413 0.162262 0.166783
0.995982 0.162108 0.166520
1.000000 0.162454 0.166780
1.000000 0.162346 0.166687
1.000000 0.162275 0.166626
1.000000 0.162170 0.166535
1.000000 0.162100 0.166474
1.000000 0.162031 0.166415
1.000000 0.161997 0.166385
0.132462 0.174864 0.178082
0.133440 0.174861 0.178074
0.135403 0.174855 0.178056
0.137384 0.174849 0.178038
0.140405 0.174839 0.178011
0.142463 0.174832 0.177993
0.145636 0.174821 0.177964
0.148937 0.174810 0.177934
0.153587 0.174793 0.177891
0.157298 0.174780 0.177857
0.162601 0.174760 0.177807
0.168380 0.174738 0.177753
0.174713 0.174713 0.177693
0.181685 0.174684 0.177626
0.189388 0.174652 0.177552
0.200165 0.174605 0.177448
0.209739 0.174563 0.177355
0.222926 0.174502 0.177226
0.234467 0.174447 0.177113
0.250131 0.174371 0.176958
0.267158 0.174286 0.176790
0.285525 0.174191 0.176606
0.305192 0.174087 0.176408
0.326109 0.173973 0.176196
0.348206 0.173849 0.175969
0.376166 0.173687 0.175679
0.400552 0.173542 0.175421
0.430947 0.173355 0.175095
0.457070 0.173189 0.174809
0.489158 0.172979 0.174451
0.521805 0.172757 0.174076
0.549237 0.172564 0.173753
0.582177 0.172324 0.173353
0.614862 0.172075 0.172942
0.641690 0.171863 0.172593
0.673143 0.171603 0.172166
0.698543 0.171382 0.171805
0.727820 0.171115 0.171369
0.751083 0.170891 0.171004
0.773318 0.170667 0.170639
0.794560 0.170444 0.170275
0.814844 0.170222 0.169913
0.834207 0.170002 0.169555
0.852695 0.169786 0.169201
0.866914 0.169615 0.168921
0.884058 0.169404 0.168576
0.897328 0.169238 0.168303
0.913431 0.169032 0.167964
0.925978 0.168870 0.167697
0.938268 0.168709 0.167431
0.950339 0.168550 0.167167
0.962227 0.168392 0.166905
0.973965 0.168236 0.166644
0.982690 0.168120 0.166450
0.994246 0.167965 0.166191
1.000000 0.168267 0.166422
1.000000 0.168211 0.166383
1.000000 0.168139 0.166324
1.000000 0.168031 0.166236
1.000000 0.167960 0.166178
1.000000 0.167890 0.166121
1.000000 0.167855 0.166092
0.132311 0.181563 0.177578
0.133285 0.181560 0.177569
0.135242 0.181552 0.177551
0.137216 0.181544 0.177533
0.140225 0.181532 0.177506
0.142276 0.181523 0.177487
0.145437 0.181510 0.177458
0.148726 0.181497 0.177427
0.153358 0.181477 0.177384
0.157055 0.181460 0.177350
0.162338 0.181437 0.177300
0.168095 0.181410 0.177245
0.174403 0.181381 0.177184
0.181348 0.181348 0.177117
0.189019 0.181310 0.177043
0.199752 0.181257 0.176938
0.209285 0.181208 0.176845
0.222416 0.181139 0.176716
0.233907 0.181078 0.176603
0.249503 0.180993 0.176448
0.266457 0.180899 0.176280
0.284746 0.180795 0.176097
0.304331 0.180681 0.175900
0.325161 0.180558 0.175689
0.347170 0.180424 0.175464
0.375020 0.180251 0.175175
0.399315 0.180097 0.174920
0.429602 0.179898 0.174597
0.455637 0.179724 0.174314
0.487625 0.179503 0.173959
0.520179 0.179271 0.173589
0.547543 0.179070 0.173270
0.580411 0.178821 0.172876
0.613038 0.178564 0.172471
0.639832 0.178344 0.172126
0.671258 0.178077 0.171705
0.696650 0.177850 0.171351
0.725936 0.177577 0.170922
0.749214 0.177348 0.170562
0.771465 0.177120 0.170203
0.792721 0.176892 0.169845
0.813019 0.176667 0.169489
0.832396 0.176444 0.169137
0.850894 0.176225 0.168789
0.865120 0.176052 0.168514
0.882271 0.175839 0.168175
0.895544 0.175671 0.167906
0.911650 0.175464 0.167574
0.924196 0.175301 0.167311
0.936484 0.175139 0.167050
0.948551 0.174979 0.166791
0.960432 0.174821 0.166534
0.972162 0.174664 0.166278
0.980879 0.174547 0.166087
0.992423 0.174393 0.165833
1.000000 0.174426 0.165805
1.000000 0.174646 0.166054
1.000000 0.174572 0.165997
1.000000 0.174462 0.165913
1.000000 0.174390 0.165857
1.000000 0.174318 0.165802
1.000000 0.174282 0.165775
0.132140 0.188911 0.177018
0.133110 0.188906 0.177009
0.135059 0.188897 0.176992
0.137025 0.188887 0.176973
0.140023 0.188873 0.176946
0.142065 0.188862 0.176927
0.145214 0.188847 0.176897
0.148490 0.188830 0.176867
0.153103 0.188807 0.176823
0.156785 0.188788 0.176788
0.162047 0.188760 0.176738
0.167779 0.188729 0.176683
0.174061 0.188695 0.176622
0.180976 0.188657 0.176555
