indra/newview/app_settings/luts/H7.cube
#Created by: Affinity Photo (Serif Europe Ltd.)
TITLE "Exported LUT"
#LUT size
LUT_3D_SIZE 8
#data domain
DOMAIN_MIN 0.0 0.0 0.0
DOMAIN_MAX 1.0 1.0 1.0
#LUT data points
0.078839 0.078839 0.149990
0.116787 0.079333 0.151966
0.240892 0.080797 0.146298
0.504042 0.083054 0.122371
0.786163 0.084412 0.100529
0.970423 0.084950 0.096533
1.000000 0.085104 0.101795
1.000000 0.085144 0.106063
0.088331 0.121042 0.160813
0.123344 0.121249 0.154552
0.211379 0.100907 0.132698
0.446015 0.089521 0.087095
0.725579 0.084973 0.039873
0.923681 0.085694 0.017406
1.000000 0.085878 0.007022
1.000000 0.085898 0.003479
0.107378 0.264746 0.195941
0.159477 0.268371 0.187492
0.271945 0.229768 0.157618
0.477362 0.169179 0.104698
0.756041 0.144300 0.047820
0.946632 0.127982 0.008542
1.000000 0.118091 0.000000
1.000000 0.113984 0.000000
0.131587 0.559984 0.255508
0.206635 0.563381 0.242833
0.411266 0.568704 0.207591
0.570051 0.438929 0.153227
0.786380 0.335045 0.092012
0.970776 0.290878 0.048785
1.000000 0.261810 0.022367
1.000000 0.249166 0.010836
0.159635 0.847817 0.312977
0.261260 0.849265 0.296067
0.494432 0.851749 0.257046
0.788252 0.854685 0.208188
0.856680 0.667764 0.148995
0.981590 0.567003 0.107657
1.000000 0.528183 0.081984
1.000000 0.510326 0.070677
0.189578 1.000000 0.354320
0.311605 1.000000 0.334176
0.559207 1.000000 0.293036
0.844980 1.000000 0.245540
1.000000 0.998909 0.209536
1.000000 0.832263 0.165142
1.000000 0.760861 0.135294
1.000000 0.744457 0.123668
0.216049 1.000000 0.378051
0.351130 1.000000 0.355681
0.605987 1.000000 0.313284
0.882801 1.000000 0.267269
1.000000 1.000000 0.235421
1.000000 1.000000 0.204931
1.000000 0.930156 0.176520
1.000000 0.887359 0.162968
0.229735 1.000000 0.388119
0.370280 1.000000 0.364822
0.627630 1.000000 0.322001
0.899584 1.000000 0.276804
1.000000 1.000000 0.245640
1.000000 1.000000 0.219229
1.000000 1.000000 0.193823
1.000000 0.970528 0.180918
0.079102 0.086726 0.199735
0.104834 0.079094 0.193267
0.241047 0.080700 0.214712
0.504473 0.082867 0.212719
0.786570 0.084201 0.216229
0.970539 0.084919 0.232669
1.000000 0.085326 0.251233
1.000000 0.085511 0.261117
0.080674 0.124127 0.189711
0.113262 0.126171 0.195336
0.228559 0.117615 0.184894
0.485501 0.120443 0.170016
0.768778 0.122376 0.158418
0.956969 0.123246 0.163557
1.000000 0.123706 0.175373
1.000000 0.123907 0.182498
0.085089 0.268390 0.213298
0.138896 0.276228 0.230758
0.278750 0.266153 0.207386
0.491198 0.191590 0.151466
0.772661 0.160346 0.094016
0.959766 0.140237 0.055903
1.000000 0.128146 0.033497
1.000000 0.125241 0.027183
0.088210 0.561236 0.263471
0.176967 0.568652 0.289005
0.370516 0.572199 0.259460
0.573498 0.486078 0.207233
0.788841 0.376599 0.147069
0.971253 0.329223 0.105002
1.000000 0.297445 0.079360
1.000000 0.283407 0.068204
0.103590 0.847584 0.322453
0.223728 0.849064 0.347453
0.449161 0.851511 0.314105
0.745247 0.854457 0.265213
0.857013 0.713554 0.209259
0.981877 0.615333 0.165684
1.000000 0.576406 0.140470
1.000000 0.558376 0.129396
0.118744 1.000000 0.366296
0.268544 1.000000 0.388178
0.512861 1.000000 0.351720
0.804909 1.000000 0.303434
1.000000 1.000000 0.268370
1.000000 0.870439 0.226975
1.000000 0.802864 0.198305
1.000000 0.787154 0.186937
0.131754 1.000000 0.392304
0.304751 1.000000 0.411216
0.559410 1.000000 0.373118
0.845087 1.000000 0.325899
1.000000 1.000000 0.292703
1.000000 1.000000 0.265244
1.000000 0.962935 0.238245
1.000000 0.922421 0.225381
0.138585 1.000000 0.403531
0.322544 1.000000 0.421079
0.581099 1.000000 0.382386
0.862897 1.000000 0.335828
1.000000 1.000000 0.303433
1.000000 1.000000 0.279621
1.000000 1.000000 0.255067
1.000000 1.000000 0.242791
0.080450 0.102435 0.360951
0.090578 0.079558 0.353757
0.173246 0.080492 0.340976
0.508039 0.084415 0.455388
0.790268 0.086184 0.482146
0.973370 0.087392 0.512299
1.000000 0.088169 0.538015
1.000000 0.088523 0.550490
0.082847 0.169111 0.350335
0.114990 0.152945 0.352850
0.193354 0.128408 0.333934
0.488858 0.132328 0.396157
0.772321 0.134798 0.418781
0.959617 0.136325 0.446355
1.000000 0.137327 0.471182
1.000000 0.137787 0.483516
0.085412 0.273133 0.309052
0.119105 0.276894 0.328308
0.237577 0.280075 0.354531
0.496189 0.260133 0.345998
0.778822 0.263749 0.361333
0.964324 0.266272 0.384849
1.000000 0.267994 0.407661
1.000000 0.268792 0.419300
0.088069 0.564247 0.339036
0.125138 0.568973 0.351880
0.295778 0.573410 0.402272
0.577358 0.557922 0.372929
0.791795 0.443762 0.314351
0.972409 0.392702 0.273705
1.000000 0.357703 0.249109
1.000000 0.342007 0.238443
0.088050 0.847467 0.378030
0.129090 0.848645 0.388576
0.365475 0.851024 0.467535
0.678743 0.854018 0.439771
0.856637 0.777723 0.390810
0.981883 0.684368 0.345922
1.000000 0.647020 0.319574
1.000000 0.629602 0.307971
0.089026 1.000000 0.408343
0.131857 1.000000 0.415978
0.425323 1.000000 0.510819
0.741618 1.000000 0.482972
0.972967 1.000000 0.445905
1.000000 0.922912 0.411732
1.000000 0.861019 0.385155
1.000000 0.846600 0.374397
0.090410 1.000000 0.425707
0.142447 1.000000 0.438659
0.470159 1.000000 0.536337
0.784886 1.000000 0.509113
1.000000 1.000000 0.474115
1.000000 1.000000 0.450876
1.000000 1.000000 0.425928
1.000000 0.970857 0.414103
0.091084 1.000000 0.433353
0.150186 1.000000 0.450221
0.491349 1.000000 0.547521
0.804292 1.000000 0.520776
1.000000 1.000000 0.486718
1.000000 1.000000 0.465538
1.000000 1.000000 0.443469
1.000000 1.000000 0.432098
0.084423 0.126872 0.676618
0.082851 0.084880 0.667169
0.144129 0.083376 0.658081
0.330192 0.084867 0.628548
0.782073 0.089451 0.797754
0.977316 0.090857 0.830959
1.000000 0.091633 0.847890
1.000000 0.091980 0.855779
0.086552 0.217755 0.651416
0.119331 0.194635 0.666557
0.159312 0.131411 0.645813
0.362133 0.133670 0.613473
0.778051 0.138510 0.751187
0.963387 0.140166 0.776115
1.000000 0.141233 0.796182
1.000000 0.141713 0.805521
0.088808 0.448574 0.719627
0.123272 0.413390 0.717063
0.242992 0.356093 0.685930
0.433299 0.287306 0.639971
0.784357 0.292469 0.718354
0.967216 0.295343 0.746216
1.000000 0.297280 0.769066
1.000000 0.298164 0.779861
0.088542 0.569235 0.563891
0.126035 0.572581 0.600095
0.251934 0.575703 0.647321
0.516771 0.578806 0.685047
0.794940 0.566720 0.700638
0.973633 0.568982 0.733461
1.000000 0.570491 0.760186
1.000000 0.571172 0.772871
0.087849 0.847266 0.579020
0.128864 0.848419 0.614549
0.259747 0.850412 0.659366
0.565202 0.853277 0.728528
0.856092 0.845436 0.730819
0.981317 0.758417 0.688025
1.000000 0.722625 0.662375
1.000000 0.705756 0.651048
0.088849 1.000000 0.585073
0.131655 1.000000 0.617597
0.267277 1.000000 0.658392
0.630408 1.000000 0.773974
0.916995 1.000000 0.779795
1.000000 0.977418 0.751254
1.000000 0.921020 0.726410
1.000000 0.907962 0.716137
0.090250 1.000000 0.586145
0.133945 1.000000 0.616421
0.273190 1.000000 0.654037
0.676664 1.000000 0.801506
0.950745 1.000000 0.809439
1.000000 1.000000 0.786948
1.000000 1.000000 0.765891
1.000000 1.000000 0.754868
0.090931 1.000000 0.586608
0.135076 1.000000 0.615791
0.276053 1.000000 0.651854
0.697829 1.000000 0.813743
0.965791 1.000000 0.822716
1.000000 1.000000 0.800654
1.000000 1.000000 0.783260
1.000000 1.000000 0.772482
0.088003 0.156715 0.987017
0.086834 0.104062 0.974855
0.124494 0.086650 0.965406
0.276200 0.087718 0.941466
0.535176 0.089161 0.899308
0.869773 0.091629 0.972724
1.000000 0.093190 1.000000
1.000000 0.093664 1.000000
0.089050 0.274834 0.969888
0.122700 0.245395 0.984877
0.135993 0.134838 0.957288
0.304706 0.136673 0.930580
0.571568 0.138712 0.887088
0.898225 0.141580 0.964909
1.000000 0.143275 1.000000
1.000000 0.143724 1.000000
0.088352 0.524271 1.000000
0.123356 0.487068 1.000000
0.245341 0.427362 1.000000
0.369013 0.290276 0.958224
0.647221 0.293431 0.912454
0.951654 0.296672 0.995127
1.000000 0.298009 1.000000
1.000000 0.298588 1.000000
0.087353 0.822761 1.000000
0.125025 0.788454 1.000000
0.251012 0.731116 1.000000
0.516161 0.663412 1.000000
0.729249 0.581337 0.981921
0.973284 0.583840 1.000000
1.000000 0.585361 1.000000
1.000000 0.586048 1.000000
0.087516 0.851280 0.898370
0.128524 0.852419 0.940801
0.259402 0.854397 0.990405
0.527624 0.857138 1.000000
0.804517 0.859835 1.000000
0.980644 0.857524 1.000000
1.000000 0.858833 1.000000
1.000000 0.859424 1.000000
0.088545 1.000000 0.889311
0.131341 1.000000 0.931626
0.266954 1.000000 0.981556
0.538067 1.000000 1.000000
0.817406 1.000000 1.000000
1.000000 1.000000 1.000000
1.000000 0.973027 1.000000
1.000000 0.961044 1.000000
0.089953 1.000000 0.882091
0.133637 1.000000 0.924137
0.272870 1.000000 0.973819
0.546068 1.000000 1.000000
0.856803 1.000000 1.000000
1.000000 1.000000 1.000000
1.000000 1.000000 1.000000
1.000000 1.000000 1.000000
0.090639 1.000000 0.878323
0.134771 1.000000 0.920179
0.275735 1.000000 0.969646
0.549895 1.000000 1.000000
0.874267 1.000000 1.000000
1.000000 1.000000 1.000000
1.000000 1.000000 1.000000
1.000000 1.000000 1.000000
0.089882 0.185815 1.000000
0.088569 0.120096 1.000000
0.111219 0.088173 1.000000
0.236719 0.088959 1.000000
0.479976 0.090275 1.000000
0.707350 0.091475 1.000000
0.904854 0.092656 1.000000
0.998649 0.093316 1.000000
0.088830 0.324838 1.000000
0.123200 0.291107 1.000000
0.136841 0.156390 1.000000
0.261877 0.137958 1.000000
0.515504 0.139881 1.000000
0.741886 0.141363 1.000000
0.931456 0.142813 1.000000
1.000000 0.143624 1.000000
0.088051 0.583823 1.000000
0.123058 0.545351 1.000000
0.245011 0.484020 1.000000
0.319316 0.291197 1.000000
0.589011 0.293865 1.000000
0.808532 0.296020 1.000000
0.981043 0.297567 1.000000
1.000000 0.298275 1.000000
0.087184 0.871835 1.000000
0.124837 0.839713 1.000000
0.250778 0.785783 1.000000
0.515857 0.720698 1.000000
0.671459 0.580919 1.000000
0.877788 0.583347 1.000000
1.000000 0.585829 1.000000
1.000000 0.586914 1.000000
0.086731 1.000000 1.000000
0.127782 1.000000 1.000000
0.258763 1.000000 1.000000
0.527163 0.961311 1.000000
0.804228 0.914060 1.000000
0.938339 0.857251 1.000000
1.000000 0.859094 1.000000
1.000000 0.859827 1.000000
0.088222 1.000000 1.000000
0.131060 1.000000 1.000000
0.266723 1.000000 1.000000
0.537870 1.000000 1.000000
0.813518 1.000000 1.000000
0.987344 1.000000 1.000000
1.000000 1.000000 1.000000
1.000000 1.000000 1.000000
0.089694 1.000000 1.000000
0.133395 1.000000 1.000000
0.272676 1.000000 1.000000
0.545909 1.000000 1.000000
0.820498 1.000000 1.000000
0.992595 1.000000 1.000000
1.000000 1.000000 1.000000
1.000000 1.000000 1.000000
0.090378 1.000000 1.000000
0.134524 1.000000 1.000000
0.275537 1.000000 1.000000
0.549731 1.000000 1.000000
0.823786 1.000000 1.000000
0.995074 1.000000 1.000000
1.000000 1.000000 1.000000
1.000000 1.000000 1.000000
0.089764 0.208791 1.000000
0.089701 0.132931 1.000000
0.102890 0.089215 1.000000
0.211316 0.090227 1.000000
0.440437 0.092037 1.000000
0.667110 0.092934 1.000000
0.820618 0.092622 1.000000
0.883093 0.092950 1.000000
0.088721 0.361313 1.000000
0.123079 0.325448 1.000000
0.137898 0.175304 1.000000
0.233859 0.139060 1.000000
0.475158 0.141350 1.000000
0.702700 0.141726 1.000000
0.850888 0.142735 1.000000
0.910488 0.143169 1.000000
0.087924 0.626204 1.000000
0.122931 0.587284 1.000000
0.244887 0.525409 1.000000
0.291054 0.296681 1.000000
0.546737 0.293706 1.000000
0.770016 0.296347 1.000000
0.906088 0.298148 1.000000
0.961369 0.297837 1.000000
0.087086 0.904521 1.000000
0.124734 0.873897 1.000000
0.250667 0.822798 1.000000
0.515738 0.760283 1.000000
0.629620 0.580752 1.000000
0.843276 0.583429 1.000000
0.966122 0.585359 1.000000
1.000000 0.586221 1.000000
0.086510 1.000000 1.000000
0.127638 1.000000 1.000000
0.258684 1.000000 1.000000
0.527078 0.989658 1.000000
0.804136 0.944614 1.000000
0.907208 0.857122 1.000000
1.000000 0.858673 1.000000
1.000000 0.859405 1.000000
0.087920 1.000000 1.000000
0.130758 1.000000 1.000000
0.266421 1.000000 1.000000
0.537582 1.000000 1.000000
0.813350 1.000000 1.000000
0.987267 1.000000 1.000000
1.000000 1.000000 1.000000
1.000000 1.000000 1.000000
0.089604 1.000000 1.000000
0.133330 1.000000 1.000000
0.272611 1.000000 1.000000
0.545844 1.000000 1.000000
0.820433 1.000000 1.000000
0.992531 1.000000 1.000000
1.000000 1.000000 1.000000
1.000000 1.000000 1.000000
0.090350 1.000000 1.000000
0.134524 1.000000 1.000000
0.275538 1.000000 1.000000
0.549732 1.000000 1.000000
0.823786 1.000000 1.000000
0.995074 1.000000 1.000000
1.000000 1.000000 1.000000
1.000000 1.000000 1.000000
0.089659 0.220562 1.000000
0.089755 0.139168 1.000000
0.099086 0.089177 1.000000
0.200701 0.090400 1.000000
0.421658 0.092766 1.000000
0.645226 0.094664 1.000000
0.798566 0.095898 1.000000
0.861895 0.096433 1.000000
0.088668 0.378780 1.000000
0.123030 0.341907 1.000000
0.137927 0.184647 1.000000
0.221396 0.138962 1.000000
0.456233 0.141235 1.000000
0.683006 0.143040 1.000000
0.833515 0.144235 1.000000
0.894394 0.144756 1.000000
0.087865 0.645665 1.000000
0.122873 0.606665 1.000000
0.244829 0.544701 1.000000
0.291007 0.312275 1.000000
0.527306 0.293590 1.000000
0.751928 0.296229 1.000000
0.891184 0.298045 1.000000
0.946644 0.298841 1.000000
0.087042 0.919052 1.000000
0.124689 0.889082 1.000000
0.250617 0.839261 1.000000
0.515684 0.778117 1.000000
0.610149 0.580675 1.000000
0.826747 0.583325 1.000000
0.952441 0.585833 1.000000
1.000000 0.587064 1.000000
0.087269 1.000000 1.000000
0.130399 1.000000 1.000000
0.266477 1.000000 1.000000
0.536795 1.000000 1.000000
0.809287 0.958370 1.000000
0.895698 0.861972 1.000000
1.000000 0.864829 1.000000
1.000000 0.866260 1.000000
0.098666 1.000000 1.000000
0.148464 1.000000 1.000000
0.305900 1.000000 1.000000
0.581969 1.000000 1.000000
0.840590 1.000000 1.000000
0.997293 1.000000 1.000000
1.000000 1.000000 1.000000
1.000000 1.000000 1.000000
0.117299 1.000000 1.000000
0.183529 1.000000 1.000000
0.375683 1.000000 1.000000
0.661421 1.000000 1.000000
0.899102 1.000000 1.000000
1.000000 1.000000 1.000000
1.000000 1.000000 1.000000
1.000000 1.000000 1.000000
0.135432 1.000000 1.000000
0.221054 1.000000 1.000000
0.442635 1.000000 1.000000
0.738637 1.000000 1.000000
0.962245 1.000000 1.000000
1.000000 1.000000 1.000000
1.000000 1.000000 1.000000
1.000000 1.000000 1.000000
