indra/newview/app_settings/luts/H7.cube
#Created by: Affinity Photo (Serif Europe Ltd.)
TITLE "Exported LUT"
#LUT size
LUT_3D_SIZE 4
#data domain
DOMAIN_MIN 0.0 0.0 0.0
DOMAIN_MAX 1.0 1.0 1.0
#LUT data points
0.078839 0.078839 0.149990
0.315526 0.081552 0.139811
0.919438 0.084839 0.096223
1.000000 0.085144 0.106063
0.115099 0.350027 0.214737
0.358696 0.289914 0.157173
0.902766 0.170046 0.028898
1.000000 0.142292 0.000000
0.179634 0.969192 0.342866
0.636757 0.973642 0.267100
0.978732 0.785368 0.159650
1.000000 0.676515 0.105054
0.229735 1.000000 0.388119
0.723173 1.000000 0.306100
1.000000 1.000000 0.229478
1.000000 0.970528 0.180918
0.081507 0.109496 0.453448
0.214576 0.081646 0.426108
0.924415 0.088262 0.611780
1.000000 0.089815 0.658204
0.087101 0.359519 0.379000
0.316303 0.368612 0.448565
0.917906 0.353743 0.479324
1.000000 0.357817 0.526073
0.088435 0.968732 0.439555
0.470918 0.972674 0.573916
0.978033 0.901742 0.506294
1.000000 0.807611 0.457277
0.091052 1.000000 0.465453
0.558248 1.000000 0.624243
1.000000 1.000000 0.571799
1.000000 1.000000 0.534088
0.088977 0.176106 1.000000
0.143542 0.088005 1.000000
0.655879 0.090879 1.000000
1.000000 0.093483 1.000000
0.087805 0.665687 1.000000
0.321271 0.543276 1.000000
0.786401 0.380777 1.000000
1.000000 0.383918 1.000000
0.087747 0.980211 1.000000
0.342536 0.983653 1.000000
0.937131 0.989008 1.000000
1.000000 0.979440 1.000000
0.090455 1.000000 1.000000
0.355696 1.000000 1.000000
0.956191 1.000000 1.000000
1.000000 1.000000 1.000000
0.089659 0.220562 1.000000
0.121516 0.089400 1.000000
0.576473 0.094107 1.000000
0.861895 0.096433 1.000000
0.087572 0.742936 1.000000
0.321032 0.622463 1.000000
0.711404 0.380642 1.000000
0.965296 0.384245 1.000000
0.094139 1.000000 1.000000
0.371278 1.000000 1.000000
0.945453 1.000000 1.000000
1.000000 0.987670 1.000000
0.135432 1.000000 1.000000
0.539016 1.000000 1.000000
1.000000 1.000000 1.000000
1.000000 1.000000 1.000000
