indra/newview/app_settings/luts/H7.cube
#Created by: Affinity Photo (Serif Europe Ltd.)
TITLE "Exported LUT"
#LUT size
LUT_3D_SIZE 64
#data domain
DOMAIN_MIN 0.0 0.0 0.0
DOMAIN_MAX 1.0 1.0 1.0
#LUT data points
0.078839 0.078839 0.149990
0.079368 0.078846 0.149896
0.082170 0.078887 0.149401
0.085539 0.078931 0.149638
0.089384 0.078981 0.150059
0.093696 0.079037 0.150494
0.098512 0.079099 0.150924
0.103898 0.079169 0.151328
0.109950 0.079246 0.151684
0.116787 0.079333 0.151966
0.124548 0.079432 0.152148
0.133390 0.079543 0.152201
0.143491 0.079668 0.152092
0.155043 0.079810 0.151788
0.168258 0.079970 0.151254
0.183360 0.080149 0.150451
0.200516 0.080348 0.149353
0.219713 0.080565 0.147964
0.240892 0.080797 0.146298
0.263981 0.081041 0.144371
0.288893 0.081293 0.142201
0.315526 0.081552 0.139811
0.343763 0.081814 0.137225
0.373475 0.082074 0.134470
0.404520 0.082332 0.131574
0.436742 0.082583 0.128570
0.469976 0.082824 0.125491
0.504042 0.083054 0.122371
0.538418 0.083269 0.119279
0.572417 0.083464 0.116292
0.605850 0.083639 0.113442
0.638546 0.083795 0.110755
0.670350 0.083933 0.108256
0.701127 0.084052 0.105966
0.730755 0.084171 0.103906
0.759131 0.084299 0.102092
0.786163 0.084412 0.100529
0.811778 0.084510 0.099224
0.835936 0.084595 0.098179
0.858694 0.084669 0.097377
0.880143 0.084734 0.096798
0.900366 0.084790 0.096419
0.919438 0.084839 0.096223
0.937430 0.084881 0.096188
0.954406 0.084918 0.096297
0.970423 0.084950 0.096533
0.985533 0.084978 0.096878
0.999782 0.085002 0.097316
1.000000 0.085023 0.097833
1.000000 0.085042 0.098413
1.000000 0.085058 0.099043
1.000000 0.085072 0.099709
1.000000 0.085084 0.100398
1.000000 0.085095 0.101098
1.000000 0.085104 0.101795
1.000000 0.085113 0.102480
1.000000 0.085120 0.103139
1.000000 0.085126 0.103763
1.000000 0.085131 0.104340
1.000000 0.085135 0.104860
1.000000 0.085139 0.105310
1.000000 0.085141 0.105676
1.000000 0.085143 0.105940
1.000000 0.085144 0.106063
0.078868 0.079491 0.150183
0.078976 0.079694 0.150225
0.080037 0.079346 0.149927
0.082247 0.079066 0.149442
0.085042 0.078928 0.148893
0.088393 0.078975 0.148301
0.092284 0.079030 0.147614
0.096736 0.079093 0.146827
0.101799 0.079159 0.146986
0.107561 0.079233 0.147196
0.114136 0.079318 0.147355
0.121664 0.079414 0.147429
0.130312 0.079524 0.147382
0.140270 0.079649 0.147176
0.151749 0.079791 0.146770
0.164984 0.079953 0.146121
0.180226 0.080135 0.145185
0.197701 0.080340 0.143921
0.217425 0.080565 0.142328
0.239339 0.080808 0.140418
0.263363 0.081064 0.138207
0.289399 0.081331 0.135715
0.317331 0.081604 0.132967
0.347025 0.081881 0.129989
0.378331 0.082157 0.126810
0.411083 0.082429 0.123465
0.445100 0.082694 0.119989
0.480186 0.082949 0.116420
0.515786 0.083188 0.112833
0.551166 0.083408 0.109321
0.586100 0.083606 0.105921
0.620387 0.083784 0.102667
0.653841 0.083942 0.099589
0.686298 0.084080 0.096713
0.717611 0.084199 0.094061
0.747650 0.084301 0.091654
0.776306 0.084386 0.089505
0.803484 0.084456 0.087628
0.829117 0.084513 0.086030
0.852373 0.084555 0.084800
0.874021 0.084588 0.083829
0.894428 0.084612 0.083066
0.913670 0.084630 0.082490
0.931818 0.084641 0.082083
0.948936 0.084648 0.081827
0.965082 0.084651 0.081706
0.980309 0.084650 0.081703
0.994663 0.084646 0.081804
1.000000 0.084639 0.081992
1.000000 0.084631 0.082256
1.000000 0.084622 0.082581
1.000000 0.084611 0.082954
1.000000 0.084600 0.083365
1.000000 0.084588 0.083801
1.000000 0.084577 0.084253
1.000000 0.084565 0.084708
1.000000 0.084553 0.085156
1.000000 0.084543 0.085589
1.000000 0.084533 0.085996
1.000000 0.084524 0.086367
1.000000 0.084516 0.086692
1.000000 0.084509 0.086959
1.000000 0.084505 0.087152
1.000000 0.084503 0.087243
0.079002 0.082544 0.151084
0.080020 0.082724 0.150954
0.081839 0.082983 0.150703
0.083208 0.082300 0.150249
0.085459 0.081548 0.149613
0.088617 0.081034 0.148886
0.092238 0.080418 0.148044
0.096355 0.079707 0.147083
0.101035 0.079153 0.146067
0.106376 0.079227 0.145124
0.112454 0.079311 0.144050
0.119392 0.079402 0.143589
0.127339 0.079504 0.143513
0.136470 0.079619 0.143300
0.146977 0.079750 0.142912
0.159076 0.079900 0.142307
0.172999 0.080069 0.141442
0.188995 0.080259 0.140274
0.207185 0.080471 0.138780
0.227538 0.080701 0.136967
0.249996 0.080947 0.134846
0.274481 0.081205 0.132433
0.300898 0.081473 0.129746
0.329130 0.081746 0.126808
0.359045 0.082021 0.123646
0.390495 0.082295 0.120288
0.423315 0.082564 0.116768
0.457326 0.082826 0.113119
0.491993 0.083075 0.109416
0.526602 0.083305 0.105752
0.560929 0.083516 0.102163
0.594772 0.083708 0.098685
0.627945 0.083880 0.095349
0.660278 0.084033 0.092182
0.691620 0.084167 0.089208
0.721838 0.084284 0.086448
0.750814 0.084384 0.083919
0.778450 0.084469 0.081636
0.804661 0.084539 0.079609
0.829388 0.084597 0.077844
0.852660 0.084643 0.076332
0.874566 0.084679 0.075052
0.895192 0.084706 0.073985
0.914617 0.084726 0.073110
0.932912 0.084740 0.072409
0.950144 0.084749 0.071865
0.966370 0.084753 0.071461
0.981644 0.084753 0.071181
0.996012 0.084751 0.071010
1.000000 0.084745 0.070933
1.000000 0.084738 0.070937
1.000000 0.084729 0.071009
1.000000 0.084719 0.071136
1.000000 0.084708 0.071308
1.000000 0.084697 0.071513
1.000000 0.084686 0.071740
1.000000 0.084675 0.071982
1.000000 0.084664 0.072226
1.000000 0.084653 0.072465
1.000000 0.084644 0.072689
1.000000 0.084636 0.072891
1.000000 0.084629 0.073059
1.000000 0.084624 0.073182
1.000000 0.084622 0.073240
0.079942 0.086234 0.152029
0.081169 0.086395 0.151855
0.083132 0.086630 0.151571
0.085585 0.086894 0.151206
0.087091 0.085791 0.150601
0.089252 0.084488 0.149817
0.092860 0.083878 0.148979
0.096929 0.083188 0.148035
0.101516 0.082426 0.146974
0.106698 0.081595 0.145785
0.112575 0.080703 0.144451
0.119266 0.079755 0.142953
0.126948 0.079508 0.141489
0.135768 0.079627 0.139931
0.145889 0.079758 0.138683
0.157514 0.079902 0.138071
0.170868 0.080065 0.137210
0.186189 0.080249 0.136057
0.203629 0.080454 0.134584
0.223178 0.080678 0.132794
0.244789 0.080917 0.130695
0.268398 0.081170 0.128299
0.293921 0.081433 0.125623
0.321256 0.081703 0.122686
0.350284 0.081976 0.119513
0.380868 0.082250 0.116128
0.412856 0.082520 0.112562
0.446081 0.082784 0.108848
0.480027 0.083037 0.105056
0.513997 0.083273 0.101281
0.547773 0.083491 0.097559
0.581154 0.083690 0.093925
0.613957 0.083871 0.090409
0.646013 0.084033 0.087041
0.677171 0.084176 0.083844
0.707296 0.084303 0.080842
0.736269 0.084413 0.078051
0.763987 0.084507 0.075487
0.790366 0.084587 0.073162
0.815333 0.084654 0.071085
0.838859 0.084709 0.069258
0.861010 0.084753 0.067665
0.881868 0.084788 0.066287
0.901511 0.084815 0.065106
0.920010 0.084835 0.064104
0.937429 0.084849 0.063265
0.953827 0.084859 0.062573
0.969258 0.084864 0.062012
0.983766 0.084865 0.061568
0.997393 0.084864 0.061228
1.000000 0.084860 0.060978
1.000000 0.084854 0.060807
1.000000 0.084846 0.060703
1.000000 0.084838 0.060655
1.000000 0.084829 0.060653
1.000000 0.084819 0.060688
1.000000 0.084809 0.060750
1.000000 0.084799 0.060832
1.000000 0.084790 0.060925
1.000000 0.084782 0.061020
1.000000 0.084774 0.061112
1.000000 0.084768 0.061193
1.000000 0.084764 0.061254
1.000000 0.084761 0.061283
0.081096 0.090457 0.153090
0.082413 0.090605 0.152896
0.084494 0.090824 0.152586
0.087066 0.091074 0.152195
0.090070 0.091340 0.151732
0.091503 0.089645 0.150964
0.093571 0.087802 0.150035
0.097676 0.087094 0.149079
0.102282 0.086323 0.148014
0.107468 0.085494 0.146825
0.113331 0.084611 0.145498
0.119989 0.083680 0.144013
0.127580 0.082705 0.142345
0.136259 0.081693 0.140470
0.146204 0.080647 0.138355
0.157625 0.079914 0.136070
0.170766 0.080083 0.133748
0.185813 0.080271 0.131405
0.202917 0.080473 0.129927
0.222075 0.080694 0.128133
0.243249 0.080930 0.126030
0.266381 0.081180 0.123628
0.291394 0.081441 0.120942
0.318194 0.081709 0.117989
0.346672 0.081981 0.114791
0.376699 0.082254 0.111373
0.408131 0.082524 0.107762
0.440811 0.082790 0.103987
0.474235 0.083045 0.100122
0.507723 0.083284 0.096257
0.541059 0.083506 0.092429
0.574049 0.083710 0.088674
0.606512 0.083896 0.085021
0.638282 0.084064 0.081500
0.669209 0.084215 0.078135
0.699159 0.084348 0.074949
0.728014 0.084465 0.071960
0.755670 0.084567 0.069185
0.782041 0.084654 0.066636
0.807055 0.084728 0.064323
0.830660 0.084790 0.062253
0.852894 0.084841 0.060415
0.873835 0.084882 0.058793
0.893559 0.084915 0.057368
0.912135 0.084941 0.056124
0.929629 0.084960 0.055045
0.946096 0.084974 0.054118
0.961590 0.084983 0.053326
0.976155 0.084989 0.052657
0.989834 0.084991 0.052097
1.000000 0.084991 0.051635
1.000000 0.084988 0.051260
1.000000 0.084983 0.050960
1.000000 0.084977 0.050725
1.000000 0.084970 0.050547
1.000000 0.084962 0.050417
1.000000 0.084954 0.050325
1.000000 0.084946 0.050266
1.000000 0.084938 0.050232
1.000000 0.084930 0.050216
1.000000 0.084924 0.050213
1.000000 0.084918 0.050218
1.000000 0.084914 0.050224
1.000000 0.084912 0.050228
0.082356 0.095210 0.154285
0.083744 0.095350 0.154076
0.085926 0.095559 0.153744
0.088608 0.095799 0.153331
0.091727 0.096059 0.152844
0.095279 0.096330 0.152282
0.096453 0.093847 0.151328
0.098441 0.091463 0.150255
0.103107 0.090657 0.149169
0.108349 0.089799 0.147963
0.114262 0.088895 0.146622
0.120965 0.087949 0.145126
0.128593 0.086966 0.143451
0.137299 0.085952 0.141572
0.147257 0.084910 0.139458
0.158656 0.083844 0.137077
0.171707 0.082759 0.134392
0.186633 0.081658 0.131364
0.203574 0.080541 0.127968
0.222587 0.080722 0.124595
0.243575 0.080968 0.120954
0.266476 0.081217 0.118542
0.291224 0.081477 0.115841
0.317730 0.081744 0.112870
0.345887 0.082015 0.109648
0.375574 0.082288 0.106198
0.406653 0.082559 0.102547
0.438971 0.082826 0.098722
0.472036 0.083082 0.094794
0.505177 0.083324 0.090856
0.538185 0.083549 0.086945
0.570868 0.083756 0.083093
0.603050 0.083947 0.079333
0.634569 0.084119 0.075691
0.665275 0.084275 0.072195
0.695038 0.084414 0.068865
0.723739 0.084537 0.065722
0.751277 0.084644 0.062781
0.777565 0.084738 0.060057
0.802530 0.084818 0.057560
0.826117 0.084885 0.055298
0.848342 0.084942 0.053265
0.869280 0.084989 0.051445
0.889006 0.085027 0.049822
0.907586 0.085058 0.048380
0.925086 0.085082 0.047105
0.941560 0.085100 0.045981
0.957061 0.085114 0.044996
0.971633 0.085124 0.044137
0.985317 0.085130 0.043392
0.998147 0.085132 0.042749
1.000000 0.085133 0.042199
1.000000 0.085131 0.041731
1.000000 0.085128 0.041336
1.000000 0.085123 0.041005
1.000000 0.085117 0.040731
1.000000 0.085111 0.040506
1.000000 0.085104 0.040324
1.000000 0.085098 0.040179
1.000000 0.085092 0.040065
1.000000 0.085086 0.039979
1.000000 0.085081 0.039916
1.000000 0.085078 0.039875
1.000000 0.085076 0.039857
0.083714 0.100542 0.155628
0.085161 0.100677 0.155406
0.087431 0.100880 0.155056
0.090215 0.101116 0.154622
0.093448 0.101372 0.154114
0.097127 0.101643 0.153529
0.101279 0.101923 0.152862
0.101998 0.098420 0.151691
0.103927 0.095478 0.150465
0.109246 0.094568 0.149231
0.115240 0.093617 0.147863
0.122025 0.092630 0.146342
0.129737 0.091612 0.144643
0.138529 0.090567 0.142741
0.148571 0.089501 0.140607
0.160052 0.088417 0.138208
0.173178 0.087320 0.135508
0.188168 0.086213 0.132469
0.205142 0.085097 0.129070
0.224089 0.083972 0.125313
0.244971 0.082836 0.121205
0.267735 0.081686 0.116756
0.292361 0.081516 0.112270
0.318738 0.081797 0.107610
0.346733 0.082070 0.104152
0.376232 0.082344 0.100680
0.407103 0.082615 0.096999
0.439197 0.082883 0.093137
0.472027 0.083141 0.089164
0.504931 0.083385 0.085171
0.537705 0.083612 0.081195
0.570160 0.083823 0.077270
0.602123 0.084017 0.073426
0.633435 0.084193 0.069692
0.663950 0.084353 0.066093
0.693539 0.084496 0.062651
0.722085 0.084624 0.059387
0.749488 0.084737 0.056317
0.775661 0.084835 0.053455
0.800534 0.084921 0.050813
0.824050 0.084994 0.048399
0.846215 0.085055 0.046210
0.867101 0.085107 0.044231
0.886782 0.085151 0.042446
0.905325 0.085186 0.040841
0.922790 0.085215 0.039401
0.939235 0.085239 0.038114
0.954709 0.085257 0.036967
0.969257 0.085270 0.035947
0.982920 0.085280 0.035044
0.995729 0.085286 0.034248
1.000000 0.085290 0.033547
1.000000 0.085291 0.032934
1.000000 0.085291 0.032399
1.000000 0.085289 0.031936
1.000000 0.085286 0.031537
1.000000 0.085282 0.031195
1.000000 0.085277 0.030905
1.000000 0.085272 0.030663
1.000000 0.085268 0.030463
1.000000 0.085263 0.030303
1.000000 0.085260 0.030180
1.000000 0.085257 0.030097
1.000000 0.085256 0.030059
0.085163 0.106540 0.157141
0.086662 0.106674 0.156909
0.089012 0.106875 0.156544
0.091893 0.107110 0.156092
0.095240 0.107367 0.155563
0.099049 0.107640 0.154955
0.103351 0.107924 0.154262
0.108199 0.108218 0.153473
0.108236 0.103409 0.152046
0.110129 0.099874 0.150654
0.116215 0.098852 0.149251
0.123101 0.097799 0.147693
0.130921 0.096719 0.145958
0.139829 0.095618 0.144021
0.149994 0.094500 0.141851
0.161605 0.093370 0.139418
0.174864 0.092233 0.136684
0.189988 0.091092 0.133613
0.207075 0.089947 0.130188
0.226107 0.088800 0.126412
0.247048 0.087649 0.122292
0.269842 0.086491 0.117838
0.294420 0.085325 0.113061
0.320694 0.084149 0.107976
0.348564 0.082958 0.102601
0.377946 0.082391 0.097146
0.408722 0.082682 0.091704
0.440694 0.082957 0.087259
0.473385 0.083217 0.083260
0.506137 0.083463 0.079232
0.538751 0.083692 0.075214
0.571043 0.083906 0.071238
0.602842 0.084103 0.067336
0.633992 0.084283 0.063534
0.664349 0.084446 0.059859
0.693786 0.084594 0.056334
0.722188 0.084726 0.052979
0.749458 0.084843 0.049810
0.775508 0.084947 0.046843
0.800271 0.085037 0.044088
0.823688 0.085115 0.041556
0.845765 0.085182 0.039244
0.866574 0.085239 0.037137
0.886185 0.085287 0.035221
0.904665 0.085327 0.033483
0.922074 0.085361 0.031909
0.938468 0.085389 0.030486
0.953897 0.085411 0.029203
0.968404 0.085429 0.028048
0.982028 0.085443 0.027011
0.994804 0.085453 0.026083
1.000000 0.085461 0.025254
1.000000 0.085465 0.024517
1.000000 0.085468 0.023862
1.000000 0.085469 0.023284
1.000000 0.085469 0.022775
1.000000 0.085467 0.022331
1.000000 0.085465 0.021948
1.000000 0.085462 0.021619
1.000000 0.085459 0.021344
1.000000 0.085456 0.021119
1.000000 0.085454 0.020944
1.000000 0.085452 0.020823
1.000000 0.085451 0.020768
0.086702 0.113325 0.158857
0.088248 0.113458 0.158616
0.090674 0.113661 0.158238
0.093650 0.113899 0.157769
0.097110 0.114159 0.157221
0.101053 0.114438 0.156590
0.105512 0.114729 0.155870
0.110545 0.115033 0.155050
0.115296 0.114420 0.154013
0.115292 0.108878 0.152386
0.117173 0.104698 0.150813
0.124166 0.103552 0.149211
0.132105 0.102383 0.147431
0.141143 0.101197 0.145447
0.151452 0.100000 0.143231
0.163218 0.098796 0.140749
0.176646 0.097589 0.137967
0.191942 0.096384 0.134849
0.209188 0.095182 0.131382
0.228359 0.093983 0.127568
0.249417 0.092786 0.123417
0.272305 0.091589 0.118937
0.296952 0.090392 0.114142
0.323272 0.089191 0.109046
0.351162 0.087984 0.103666
0.380506 0.086768 0.098023
0.411173 0.085539 0.092138
0.443019 0.084296 0.086036
0.475579 0.083272 0.079872
0.508256 0.083541 0.074083
0.540778 0.083787 0.068990
0.572960 0.084004 0.064989
0.604640 0.084203 0.061053
0.635666 0.084387 0.057210
0.665897 0.084554 0.053487
0.695206 0.084706 0.049906
0.723481 0.084842 0.046488
0.750625 0.084964 0.043250
0.776555 0.085072 0.040206
0.801201 0.085167 0.037370
0.824509 0.085249 0.034749
0.846486 0.085321 0.032344
0.867203 0.085383 0.030139
0.886732 0.085436 0.028120
0.905137 0.085481 0.026276
0.922479 0.085520 0.024594
0.938811 0.085552 0.023061
0.954184 0.085579 0.021666
0.968641 0.085602 0.020400
0.982219 0.085620 0.019251
0.994953 0.085634 0.018213
1.000000 0.085646 0.017276
1.000000 0.085654 0.016432
1.000000 0.085661 0.015674
1.000000 0.085665 0.014998
1.000000 0.085668 0.014396
1.000000 0.085669 0.013864
1.000000 0.085669 0.013398
1.000000 0.085669 0.012995
1.000000 0.085668 0.012654
1.000000 0.085667 0.012372
1.000000 0.085666 0.012152
1.000000 0.085665 0.011998
1.000000 0.085664 0.011927
0.088331 0.121042 0.160813
0.089923 0.121177 0.160564
0.092422 0.121384 0.160173
0.095491 0.121627 0.159689
0.099066 0.121895 0.159122
0.103147 0.122182 0.158468
0.107770 0.122484 0.157721
0.112997 0.122799 0.156869
0.118911 0.123125 0.155897
0.123344 0.121249 0.154552
0.123320 0.114900 0.152705
0.125212 0.110009 0.150928
0.133274 0.108722 0.149095
0.142449 0.107422 0.147056
0.152911 0.106115 0.144782
0.164846 0.104806 0.142242
0.178459 0.103499 0.139401
0.193950 0.102199 0.136223
0.211379 0.100907 0.132698
0.230721 0.099624 0.128833
0.251931 0.098350 0.124635
0.274954 0.097082 0.120114
0.299715 0.095821 0.115282
0.326126 0.094563 0.110157
0.354086 0.093307 0.104754
0.383476 0.092050 0.099094
0.414167 0.090788 0.093200
0.446015 0.089521 0.087095
0.478541 0.088256 0.080868
0.511097 0.087008 0.074639
0.543487 0.085776 0.068440
0.575535 0.084558 0.062302
0.607123 0.084286 0.056535
0.638075 0.084500 0.051028
0.668210 0.084677 0.046933
0.697413 0.084832 0.043325
0.725579 0.084973 0.039873
0.752610 0.085099 0.036594
0.778425 0.085211 0.033503
0.802957 0.085311 0.030613
0.826152 0.085399 0.027935
0.848024 0.085475 0.025464
0.868646 0.085542 0.023189
0.888087 0.085600 0.021096
0.906412 0.085651 0.019172
0.923681 0.085694 0.017406
0.939948 0.085731 0.015787
0.955260 0.085763 0.014305
0.969663 0.085790 0.012949
0.983192 0.085813 0.011711
0.995880 0.085832 0.010583
1.000000 0.085848 0.009556
1.000000 0.085860 0.008624
1.000000 0.085870 0.007781
1.000000 0.085878 0.007022
1.000000 0.085885 0.006341
1.000000 0.085889 0.005734
1.000000 0.085892 0.005199
1.000000 0.085895 0.004733
1.000000 0.085896 0.004334
1.000000 0.085897 0.004004
1.000000 0.085897 0.003744
1.000000 0.085898 0.003562
1.000000 0.085898 0.003479
0.090054 0.129863 0.163050
0.091690 0.130002 0.162795
0.094262 0.130216 0.162392
0.097425 0.130467 0.161893
0.101117 0.130745 0.161307
0.105340 0.131043 0.160630
0.110135 0.131358 0.159856
0.115565 0.131687 0.158971
0.121719 0.132030 0.157960
0.128702 0.132385 0.156802
0.132542 0.128824 0.155086
0.132497 0.121562 0.152992
0.134425 0.115877 0.150987
0.143739 0.114431 0.148884
0.154356 0.112981 0.146545
0.166465 0.111533 0.143936
0.180271 0.110093 0.141024
0.195967 0.108664 0.137775
0.213594 0.107249 0.134183
0.233123 0.105848 0.130253
0.254508 0.104462 0.125995
0.277689 0.103090 0.121418
0.302591 0.101729 0.116536
0.329126 0.100380 0.111365
0.357188 0.099040 0.105924
0.386660 0.097706 0.100231
0.417411 0.096377 0.094311
0.449296 0.095050 0.088187
0.481838 0.093735 0.081947
0.514387 0.092448 0.075711
0.546752 0.091185 0.069514
0.578756 0.089945 0.063383
0.610236 0.088725 0.057347
0.641043 0.087524 0.051431
0.671041 0.086341 0.045659
0.700107 0.085176 0.040051
0.728186 0.085080 0.034946
0.755142 0.085244 0.030118
0.780857 0.085369 0.026661
0.805279 0.085473 0.023748
0.828363 0.085566 0.021040
0.850131 0.085647 0.018534
0.870658 0.085719 0.016216
0.890011 0.085782 0.014075
0.908257 0.085838 0.012098
0.925452 0.085886 0.010274
0.941652 0.085929 0.008594
0.956904 0.085966 0.007046
0.971252 0.085998 0.005624
0.984731 0.086026 0.004317
0.997375 0.086050 0.003119
1.000000 0.086070 0.002022
1.000000 0.086087 0.001021
1.000000 0.086102 0.000109
1.000000 0.086114 0.000000
1.000000 0.086124 0.000000
1.000000 0.086132 0.000000
1.000000 0.086139 0.000000
1.000000 0.086144 0.000000
1.000000 0.086148 0.000000
1.000000 0.086151 0.000000
1.000000 0.086153 0.000000
1.000000 0.086155 0.000000
1.000000 0.086155 0.000000
0.091873 0.139983 0.165616
0.093554 0.140128 0.165354
0.096198 0.140350 0.164940
0.099459 0.140612 0.164426
0.103272 0.140902 0.163821
0.107643 0.141214 0.163121
0.112616 0.141544 0.162318
0.118260 0.141891 0.161399
0.124665 0.142252 0.160347
0.131942 0.142626 0.159142
0.140220 0.143015 0.157761
0.143092 0.137253 0.155603
0.143025 0.128957 0.153235
0.145011 0.122385 0.150975
0.155783 0.120757 0.148560
0.168067 0.119135 0.145874
0.182069 0.117525 0.142882
0.197973 0.115931 0.139552
0.215803 0.114356 0.135881
0.235527 0.112800 0.131875
0.257098 0.111265 0.127544
0.280452 0.109750 0.122899
0.305514 0.108254 0.117953
0.332190 0.106776 0.112724
0.360377 0.105314 0.107229
0.389954 0.103867 0.101489
0.420790 0.102433 0.095527
0.452738 0.101009 0.089368
0.485321 0.099606 0.083100
0.517890 0.098242 0.076844
0.550253 0.096913 0.070632
0.582236 0.095617 0.064494
0.613678 0.094350 0.058457
0.644431 0.093112 0.052545
0.674360 0.091900 0.046782
0.703346 0.090714 0.041189
0.731281 0.089551 0.035783
0.758073 0.088413 0.030580
0.783645 0.087298 0.025595
0.807929 0.086207 0.020838
0.830906 0.085686 0.016488
0.852606 0.085810 0.012565
0.873069 0.085920 0.009119
0.892338 0.085988 0.006956
0.910505 0.086049 0.004953
0.927630 0.086103 0.003097
0.943765 0.086151 0.001379
0.958958 0.086194 0.000000
0.973252 0.086231 0.000000
0.986684 0.086264 0.000000
0.999284 0.086293 0.000000
1.000000 0.086319 0.000000
1.000000 0.086341 0.000000
1.000000 0.086360 0.000000
1.000000 0.086377 0.000000
1.000000 0.086392 0.000000
1.000000 0.086404 0.000000
1.000000 0.086414 0.000000
1.000000 0.086423 0.000000
1.000000 0.086430 0.000000
1.000000 0.086436 0.000000
1.000000 0.086440 0.000000
1.000000 0.086443 0.000000
1.000000 0.086445 0.000000
0.093792 0.151620 0.168557
0.095518 0.151772 0.168289
0.098238 0.152004 0.167863
0.101598 0.152278 0.167335
0.105537 0.152583 0.166710
0.110064 0.152911 0.165986
0.115224 0.153259 0.165154
0.121090 0.153625 0.164199
0.127758 0.154007 0.163105
0.135343 0.154404 0.161850
0.143977 0.154816 0.160411
0.153811 0.155243 0.158761
0.155214 0.146649 0.156090
0.155123 0.137187 0.153417
0.157195 0.129623 0.150873
0.169652 0.127788 0.148100
0.183848 0.125969 0.145018
0.199958 0.124170 0.141598
0.217992 0.122395 0.137838
0.237915 0.120645 0.133745
0.259676 0.118921 0.129330
0.283212 0.117223 0.124604
0.308442 0.115551 0.119583
0.335273 0.113904 0.114282
0.363597 0.112281 0.108720
0.393295 0.110680 0.102919
0.424231 0.109100 0.096902
0.456260 0.107539 0.090694
0.488903 0.106009 0.084384
0.521509 0.104530 0.078093
0.553888 0.103097 0.071853
0.585868 0.101707 0.065693
0.617288 0.100358 0.059641
0.648001 0.099047 0.053721
0.677875 0.097771 0.047956
0.706791 0.096530 0.042365
0.734644 0.095323 0.036967
0.761342 0.094147 0.031776
0.786809 0.093002 0.026808
0.810980 0.091887 0.022072
0.833816 0.090803 0.017576
0.855358 0.089748 0.013314
0.875680 0.088724 0.009271
0.894852 0.087730 0.005436
0.912937 0.086768 0.001798
0.930008 0.086256 0.000000
0.946121 0.086352 0.000000
0.961300 0.086444 0.000000
0.975555 0.086499 0.000000
0.988941 0.086539 0.000000
1.000000 0.086573 0.000000
1.000000 0.086605 0.000000
1.000000 0.086633 0.000000
1.000000 0.086658 0.000000
1.000000 0.086680 0.000000
1.000000 0.086699 0.000000
1.000000 0.086716 0.000000
1.000000 0.086731 0.000000
1.000000 0.086744 0.000000
1.000000 0.086755 0.000000
1.000000 0.086764 0.000000
1.000000 0.086771 0.000000
1.000000 0.086776 0.000000
1.000000 0.086778 0.000000
0.095813 0.165011 0.171924
0.097586 0.165170 0.171649
0.100385 0.165414 0.171212
0.103849 0.165703 0.170667
0.107920 0.166024 0.170022
0.112609 0.166371 0.169274
0.117965 0.166740 0.168411
0.124065 0.167127 0.167419
0.131009 0.167532 0.166281
0.138916 0.167953 0.164974
0.147922 0.168391 0.163475
0.158182 0.168845 0.161755
0.169287 0.168735 0.159728
0.169152 0.157134 0.156530
0.169035 0.146362 0.153522
0.171223 0.137691 0.150663
0.185610 0.135621 0.147482
0.201921 0.133575 0.143961
0.220156 0.131558 0.140102
0.240277 0.129570 0.135912
0.262231 0.127614 0.131402
0.285951 0.125690 0.126585
0.311354 0.123799 0.121475
0.338346 0.121939 0.116091
0.366816 0.120111 0.110450
0.396644 0.118313 0.104575
0.427692 0.116544 0.098489
0.459813 0.114803 0.092218
0.492527 0.113104 0.085852
0.525183 0.111468 0.079512
0.557591 0.109890 0.073231
0.589580 0.108368 0.067038
0.620989 0.106897 0.060958
0.651674 0.105475 0.055017
0.681503 0.104100 0.049237
0.710358 0.102769 0.043636
0.738136 0.101481 0.038234
0.764747 0.100234 0.033045
0.790115 0.099027 0.028083
0.814178 0.097858 0.023357
0.836901 0.096726 0.018875
0.858338 0.095632 0.014627
0.878561 0.094575 0.010600
0.897641 0.093554 0.006782
0.915639 0.092571 0.003162
0.932615 0.091624 0.000000
0.948619 0.090714 0.000000
0.963700 0.089842 0.000000
0.977898 0.089007 0.000000
0.991249 0.088210 0.000000
