indra/newview/app_settings/luts/H8.cube
#Created by: Affinity Photo (Serif Europe Ltd.)
TITLE "Exported LUT"
#LUT size
LUT_3D_SIZE 64
#data domain
DOMAIN_MIN 0.0 0.0 0.0
DOMAIN_MAX 1.0 1.0 1.0
#LUT data points
0.078431 0.115998 0.149020
0.078431 0.115998 0.149020
0.078431 0.112076 0.149020
0.078431 0.108154 0.149020
0.078431 0.104233 0.149020
0.078431 0.100311 0.149020
0.078431 0.096390 0.149020
0.078431 0.094555 0.152941
0.078431 0.086712 0.152941
0.078431 0.078869 0.152941
0.085837 0.078431 0.152941
0.093680 0.078431 0.152941
0.105445 0.078431 0.152941
0.119044 0.078431 0.156863
0.136312 0.078431 0.168627
0.163258 0.078431 0.184314
0.186283 0.078431 0.200000
0.217151 0.082353 0.219608
0.239216 0.082353 0.228579
0.262745 0.082353 0.241101
0.290196 0.082353 0.251788
0.313726 0.082353 0.264310
0.345098 0.082353 0.277085
0.372549 0.082353 0.287772
0.403922 0.082353 0.304469
0.435294 0.082353 0.317243
0.470588 0.082353 0.332105
0.505882 0.082353 0.346966
0.537255 0.082353 0.359741
0.572549 0.082353 0.378524
0.603922 0.082353 0.391298
0.639216 0.082353 0.406160
0.670588 0.082353 0.422856
0.701961 0.082353 0.435631
0.729412 0.082353 0.446318
0.760784 0.082353 0.463014
0.784314 0.086275 0.473450
0.811765 0.086274 0.484137
0.835294 0.086275 0.496659
0.858824 0.086275 0.509181
0.878431 0.086275 0.519616
0.901961 0.086275 0.532138
0.917647 0.086275 0.540486
0.937255 0.086275 0.550921
0.952941 0.086275 0.559269
0.968627 0.086275 0.567617
0.984314 0.086275 0.575966
1.000000 0.086275 0.584314
1.000000 0.086275 0.584314
1.000000 0.086275 0.584314
1.000000 0.086275 0.584314
1.000000 0.086275 0.584314
1.000000 0.086275 0.588236
1.000000 0.086275 0.588236
1.000000 0.086275 0.588236
1.000000 0.086275 0.588236
1.000000 0.086275 0.588236
1.000000 0.086275 0.588236
1.000000 0.086275 0.592157
1.000000 0.086275 0.592157
1.000000 0.086275 0.592157
1.000000 0.086275 0.592157
1.000000 0.086275 0.592157
1.000000 0.086275 0.592157
0.078431 0.115998 0.149020
0.078431 0.115998 0.149020
0.078431 0.115998 0.149020
0.078431 0.112076 0.149020
0.078431 0.108154 0.149020
0.078431 0.104233 0.149020
0.078431 0.100311 0.149020
0.078431 0.094303 0.145098
0.078431 0.090381 0.145098
0.078431 0.088547 0.149020
0.078431 0.080704 0.149020
0.084002 0.078431 0.149020
0.091846 0.078431 0.149020
0.103610 0.078431 0.149020
0.121131 0.078431 0.152941
0.138399 0.078431 0.164706
0.161424 0.078431 0.180392
0.184448 0.078431 0.196078
0.215686 0.082353 0.212135
0.239216 0.082353 0.224657
0.262745 0.082353 0.233258
0.290196 0.082353 0.247867
0.317647 0.082353 0.258554
0.345098 0.082353 0.269242
0.376471 0.082353 0.282016
0.411765 0.082353 0.296878
0.447059 0.082353 0.315661
0.478431 0.082353 0.328436
0.517647 0.082353 0.345384
0.552941 0.082353 0.360245
0.584314 0.082353 0.373020
0.619608 0.082353 0.387882
0.654902 0.082353 0.402743
0.686275 0.082353 0.419439
0.717647 0.082353 0.432214
0.749020 0.082353 0.444989
0.776471 0.086275 0.457510
0.803922 0.086275 0.468198
0.827451 0.086274 0.480720
0.850980 0.086275 0.493243
0.874510 0.082353 0.500008
0.894118 0.082353 0.510443
0.913726 0.082353 0.520879
0.933333 0.082353 0.531314
0.949020 0.082353 0.539661
0.964706 0.082353 0.548010
0.980392 0.082353 0.556357
0.996078 0.082353 0.564706
1.000000 0.082353 0.566793
1.000000 0.082353 0.566793
1.000000 0.082353 0.566793
1.000000 0.082353 0.566793
1.000000 0.082353 0.566793
1.000000 0.082353 0.566793
1.000000 0.082353 0.566793
1.000000 0.086275 0.572549
1.000000 0.086275 0.572549
1.000000 0.086275 0.572549
1.000000 0.086275 0.572549
1.000000 0.086275 0.572549
1.000000 0.086275 0.572549
1.000000 0.086275 0.572549
1.000000 0.086275 0.572549
1.000000 0.086275 0.572549
0.078431 0.122006 0.152941
0.078431 0.119919 0.149020
0.082353 0.117832 0.149020
0.082353 0.117832 0.149020
0.082353 0.113911 0.149020
0.082353 0.109989 0.149020
0.082353 0.106067 0.149020
0.078431 0.096390 0.149020
0.078431 0.090381 0.145098
0.078431 0.086460 0.145098
0.078431 0.078616 0.145098
0.082168 0.078431 0.145098
0.090011 0.078431 0.145098
0.101776 0.078431 0.145098
0.113540 0.078431 0.145098
0.136565 0.078431 0.160784
0.153833 0.078431 0.172549
0.176858 0.078431 0.188235
0.207843 0.082353 0.204039
0.227451 0.082353 0.214474
0.250980 0.082353 0.223075
0.274510 0.082353 0.235597
0.301961 0.082353 0.246285
0.329412 0.082353 0.256972
0.360784 0.082353 0.273668
0.392157 0.082353 0.286443
0.423529 0.082353 0.299217
0.458824 0.082353 0.314079
0.490196 0.082353 0.326853
0.525490 0.082353 0.341715
0.560784 0.082353 0.356577
0.596078 0.082353 0.371438
0.627451 0.082353 0.384212
0.658824 0.082353 0.400909
0.690196 0.082353 0.413683
0.721569 0.082353 0.426458
0.749020 0.082353 0.433224
0.780392 0.082353 0.449920
0.803922 0.078431 0.456686
0.827451 0.078431 0.469208
0.850980 0.074510 0.475974
0.874510 0.074510 0.488496
0.894118 0.074510 0.498931
0.913726 0.074510 0.509366
0.933333 0.070588 0.514045
0.949020 0.070588 0.522393
0.964706 0.070588 0.530742
0.980392 0.070588 0.539089
0.996078 0.070588 0.547437
1.000000 0.070588 0.549524
1.000000 0.070588 0.549524
1.000000 0.070588 0.549524
1.000000 0.070588 0.549524
1.000000 0.070588 0.549524
1.000000 0.070588 0.549524
1.000000 0.070588 0.549524
1.000000 0.070588 0.549524
1.000000 0.070588 0.549524
1.000000 0.070588 0.549524
1.000000 0.074510 0.555280
1.000000 0.074510 0.555280
1.000000 0.074510 0.555280
1.000000 0.074510 0.555280
1.000000 0.074510 0.555280
0.078431 0.125928 0.152941
0.082353 0.123841 0.152941
0.082353 0.123841 0.152941
0.086275 0.121754 0.152941
0.086275 0.119667 0.149020
0.086275 0.115745 0.149020
0.082353 0.106067 0.149020
0.082353 0.102146 0.149020
0.082353 0.096137 0.145098
0.082353 0.092216 0.145098
0.082353 0.084373 0.145098
0.084255 0.078431 0.141176
0.092098 0.078431 0.141176
0.103863 0.078431 0.141176
0.117462 0.078431 0.145098
0.134730 0.078431 0.156863
0.157755 0.078431 0.172549
0.175023 0.078431 0.184314
0.203922 0.082353 0.198031
0.223529 0.082353 0.208466
0.243137 0.082353 0.214979
0.266667 0.082353 0.227501
0.294118 0.082353 0.238189
0.321569 0.082353 0.248876
0.349020 0.082353 0.259564
0.380392 0.082353 0.276260
0.411765 0.082353 0.289035
0.447059 0.082353 0.303896
0.478431 0.082353 0.316671
0.513726 0.082353 0.331532
0.549020 0.082353 0.346394
0.580392 0.082353 0.359169
0.615686 0.082353 0.374030
0.647059 0.082353 0.386805
0.678431 0.082353 0.399579
0.705882 0.082353 0.414188
0.737255 0.078431 0.421207
0.764706 0.074510 0.430059
0.792157 0.074510 0.444669
0.815686 0.070588 0.451435
0.839216 0.070588 0.463957
0.862745 0.066667 0.470723
0.882353 0.066667 0.481158
0.901961 0.066667 0.491593
0.921569 0.062745 0.496272
0.937255 0.062745 0.504620
0.952941 0.062745 0.512968
0.968628 0.062745 0.521316
0.984314 0.062745 0.529664
0.996078 0.062745 0.535925
1.000000 0.062745 0.538012
1.000000 0.062745 0.538012
1.000000 0.058824 0.532256
1.000000 0.058824 0.532256
1.000000 0.058824 0.532256
1.000000 0.058824 0.532256
1.000000 0.058824 0.532256
1.000000 0.062745 0.538012
1.000000 0.062745 0.538012
1.000000 0.062745 0.538012
1.000000 0.062745 0.538012
1.000000 0.062745 0.538012
1.000000 0.062745 0.538012
1.000000 0.062745 0.538012
0.082353 0.127762 0.152941
0.082353 0.127762 0.152941
0.086275 0.125675 0.152941
0.086275 0.125675 0.152941
0.090196 0.123588 0.152941
0.090196 0.121501 0.149020
0.086275 0.111824 0.149020
0.086275 0.107902 0.149020
0.086275 0.103980 0.149020
0.086275 0.097972 0.145098
0.086275 0.090129 0.145098
0.088176 0.082353 0.145098
0.098107 0.082353 0.141176
0.105950 0.082353 0.141176
0.119549 0.082353 0.145098
0.134730 0.078431 0.156863
0.161676 0.078431 0.172549
0.178945 0.078431 0.184314
0.203922 0.082353 0.194109
0.223529 0.082353 0.204544
0.243137 0.082353 0.211058
0.266667 0.082353 0.223580
0.290196 0.082353 0.232180
0.317647 0.082353 0.242868
0.345098 0.082353 0.253555
0.376471 0.082353 0.266330
0.407843 0.082353 0.279105
0.439216 0.082353 0.295801
0.474510 0.082353 0.310662
0.505882 0.082353 0.323437
0.541176 0.082353 0.338298
0.572549 0.082353 0.351073
0.607843 0.082353 0.365934
0.639216 0.082353 0.378709
0.670588 0.078431 0.389649
0.698039 0.074510 0.394580
0.729412 0.070588 0.405521
0.756863 0.070588 0.420129
0.780392 0.066667 0.426895
0.807843 0.062745 0.435748
0.831373 0.062745 0.448271
0.850980 0.058824 0.452950
0.874510 0.058824 0.465471
0.894118 0.058824 0.475907
0.913726 0.054902 0.480585
0.929412 0.054902 0.488933
0.945098 0.054902 0.497281
0.960784 0.054902 0.505630
0.976471 0.050980 0.508222
0.988235 0.050981 0.514483
1.000000 0.050980 0.520744
1.000000 0.050980 0.520744
1.000000 0.050980 0.520744
1.000000 0.050980 0.520744
1.000000 0.050980 0.520744
1.000000 0.050980 0.520744
1.000000 0.050980 0.520744
1.000000 0.050980 0.520744
1.000000 0.050980 0.520744
1.000000 0.050980 0.520744
1.000000 0.050980 0.520744
1.000000 0.050980 0.520744
1.000000 0.050980 0.520744
1.000000 0.050980 0.520744
0.082353 0.131684 0.152941
0.082353 0.131684 0.152941
0.086275 0.129597 0.152941
0.090196 0.127510 0.152941
0.090196 0.127510 0.152941
0.094118 0.129344 0.152941
0.094118 0.121501 0.152941
0.090196 0.113658 0.149020
0.090196 0.109737 0.149020
0.090196 0.101893 0.149020
0.090196 0.095885 0.145098
0.090263 0.086275 0.145098
0.098107 0.086275 0.145098
0.108037 0.086275 0.141176
0.123471 0.086275 0.149020
0.136817 0.082353 0.156863
0.163763 0.082353 0.172549
0.188235 0.082353 0.185761
0.203922 0.082353 0.194109
0.223529 0.082353 0.200623
0.243137 0.082353 0.207136
0.266667 0.082353 0.215737
0.290196 0.082353 0.228259
0.317647 0.082353 0.238946
0.345098 0.082353 0.249634
0.376471 0.082353 0.262408
0.407843 0.082353 0.275183
0.439216 0.082353 0.287958
0.470588 0.082353 0.300732
0.505882 0.082353 0.315594
0.537255 0.082353 0.328368
0.572549 0.082353 0.343230
0.603922 0.078431 0.354170
0.635294 0.074510 0.365109
0.666667 0.070588 0.376050
0.694118 0.070588 0.386737
0.725490 0.066667 0.397677
0.752941 0.062745 0.406530
0.776471 0.058824 0.413296
0.803922 0.058824 0.427905
0.827451 0.054902 0.434671
0.847059 0.054902 0.445106
0.870588 0.050980 0.451872
0.890196 0.050980 0.462307
0.905882 0.047059 0.464899
0.925490 0.047059 0.475334
0.941177 0.047059 0.483682
0.956863 0.043137 0.486274
0.972549 0.043137 0.494622
0.984314 0.043137 0.500883
1.000000 0.043137 0.509232
1.000000 0.043137 0.509232
1.000000 0.043137 0.509232
1.000000 0.043137 0.509232
1.000000 0.039216 0.503475
1.000000 0.039216 0.503475
1.000000 0.039216 0.503475
1.000000 0.039216 0.503475
1.000000 0.039216 0.503475
1.000000 0.039216 0.503475
1.000000 0.039216 0.503475
1.000000 0.039216 0.503475
1.000000 0.039216 0.503475
1.000000 0.039216 0.503475
0.082353 0.141614 0.156863
0.086275 0.139527 0.156863
0.086275 0.139527 0.156863
0.090196 0.135353 0.152941
0.094118 0.133266 0.152941
0.098039 0.131179 0.152941
0.101961 0.129092 0.152941
0.098039 0.123336 0.152941
0.094118 0.111571 0.149020
0.094118 0.107650 0.149020
0.094118 0.103728 0.149020
0.094437 0.094118 0.145098
0.100194 0.090196 0.145098
0.110124 0.090196 0.141176
0.125558 0.090196 0.149020
0.146747 0.090196 0.160784
0.161929 0.086275 0.172549
0.188235 0.086275 0.187596
0.203922 0.086275 0.192022
0.223529 0.082353 0.200623
0.243137 0.082353 0.207136
0.266667 0.082353 0.215737
0.294118 0.082353 0.226424
0.317647 0.082353 0.231103
0.345098 0.082353 0.245712
0.376471 0.082353 0.258487
0.407843 0.082353 0.271261
0.439216 0.082353 0.284036
0.470588 0.082353 0.296810
0.505882 0.082353 0.311672
0.537255 0.082353 0.324447
0.568627 0.078431 0.335387
0.603922 0.074510 0.348414
0.635294 0.070588 0.359353
0.662745 0.066667 0.364285
0.694118 0.062745 0.375225
0.721569 0.058824 0.384078
0.749020 0.054902 0.392931
0.776471 0.054902 0.407540
0.800000 0.050980 0.414306
0.823529 0.047059 0.421072
0.847059 0.047059 0.433594
0.866667 0.043137 0.438273
0.886275 0.043137 0.448708
0.905882 0.039216 0.453387
0.921569 0.039216 0.461735
0.941177 0.039216 0.472170
0.952941 0.035294 0.472675
0.968627 0.035294 0.481023
0.984314 0.035294 0.489371
0.996079 0.035294 0.495632
1.000000 0.035294 0.497719
1.000000 0.031373 0.491963
1.000000 0.031373 0.491963
1.000000 0.031373 0.491963
1.000000 0.031373 0.491963
1.000000 0.031373 0.491963
1.000000 0.031373 0.491963
1.000000 0.031373 0.491963
1.000000 0.031373 0.491963
1.000000 0.031373 0.491963
1.000000 0.031373 0.491963
1.000000 0.031373 0.491963
1.000000 0.031373 0.491963
0.086275 0.143449 0.156863
0.086275 0.143449 0.156863
0.090196 0.141362 0.156863
0.090196 0.141362 0.156863
0.094118 0.139275 0.156863
0.098039 0.137188 0.156863
0.101961 0.136935 0.152941
0.109804 0.132761 0.152941
0.101961 0.121249 0.152941
0.098039 0.113406 0.149020
0.098039 0.105563 0.149020
0.098039 0.101641 0.149020
0.104368 0.098039 0.145098
0.114045 0.094118 0.145098
0.127645 0.094118 0.149020
0.144913 0.094118 0.160784
0.171859 0.094118 0.176471
0.188235 0.090196 0.185509
0.207843 0.090196 0.192022
0.227451 0.090196 0.198536
0.247059 0.086275 0.207136
0.270588 0.086275 0.215737
0.294118 0.086275 0.224337
0.321569 0.082353 0.237112
0.349020 0.082353 0.243878
0.376471 0.082353 0.254565
0.407843 0.082353 0.263418
0.439216 0.082353 0.276193
0.474510 0.082353 0.291054
0.505882 0.078431 0.301994
0.537255 0.074510 0.312934
0.572549 0.070588 0.325962
0.603922 0.066667 0.336901
0.635294 0.062745 0.347841
0.662745 0.058824 0.352773
0.694118 0.054902 0.363713
0.721569 0.054902 0.378322
0.749020 0.050980 0.387175
0.776471 0.047059 0.396028
0.800000 0.043137 0.402794
0.823529 0.043137 0.415316
0.847059 0.039216 0.422082
0.866667 0.035294 0.426761
0.886275 0.035294 0.437196
0.905882 0.035294 0.447631
0.921569 0.031373 0.450223
0.937255 0.031373 0.458571
0.952941 0.027451 0.461163
0.968628 0.027451 0.469511
0.980392 0.027451 0.475772
0.996078 0.027451 0.484120
1.000000 0.023529 0.480451
1.000000 0.023529 0.480451
1.000000 0.023529 0.480451
1.000000 0.023529 0.480451
1.000000 0.023529 0.480451
1.000000 0.023529 0.480451
1.000000 0.023529 0.480451
1.000000 0.023529 0.480451
1.000000 0.019608 0.474695
1.000000 0.019608 0.474695
1.000000 0.019608 0.474695
1.000000 0.019608 0.474695
1.000000 0.019608 0.474695
0.086275 0.153379 0.160784
0.090196 0.149205 0.156863
0.090196 0.149205 0.156863
0.094118 0.147118 0.156863
0.098039 0.145031 0.156863
0.101961 0.142944 0.156863
0.105882 0.140857 0.156863
0.109804 0.138770 0.156863
0.113725 0.134596 0.152941
0.109804 0.128839 0.152941
0.105882 0.117075 0.149020
0.101961 0.103476 0.149020
0.108289 0.101961 0.149020
0.118219 0.101961 0.145098
0.131566 0.098039 0.152941
0.152756 0.098039 0.164706
0.173946 0.098039 0.176471
0.192157 0.098039 0.183422
0.207843 0.094118 0.193857
0.227451 0.094118 0.200370
0.250980 0.094118 0.205049
0.270588 0.090196 0.213650
0.298039 0.090196 0.224337
0.321569 0.090196 0.232938
0.352941 0.086275 0.243878
0.380392 0.086275 0.254565
0.411765 0.086275 0.263418
0.443137 0.082353 0.278280
0.474510 0.078431 0.285298
0.509804 0.074510 0.298325
0.541176 0.070588 0.309265
0.572549 0.066667 0.320205
0.603922 0.062745 0.331145
0.635294 0.058824 0.338163
0.666667 0.054902 0.349104
0.694118 0.050980 0.357957
0.721569 0.047059 0.366810
0.749020 0.043137 0.375663
0.776471 0.039216 0.384515
0.800000 0.039216 0.397038
0.823529 0.035294 0.403804
0.847059 0.031373 0.410569
0.866667 0.031373 0.421005
0.886275 0.027451 0.425683
0.905882 0.027451 0.436118
0.921569 0.023529 0.438711
0.937255 0.023529 0.447058
0.952941 0.023529 0.455407
0.968628 0.019608 0.457999
0.980392 0.019608 0.464260
0.996078 0.019608 0.472608
1.000000 0.015686 0.468938
1.000000 0.015686 0.468938
1.000000 0.015686 0.468938
1.000000 0.015686 0.468938
1.000000 0.015686 0.468938
1.000000 0.015686 0.468938
1.000000 0.011765 0.463182
1.000000 0.011765 0.463182
1.000000 0.011765 0.463182
1.000000 0.011765 0.463182
1.000000 0.011765 0.463182
1.000000 0.011765 0.463182
1.000000 0.011765 0.463182
0.090196 0.159135 0.160784
0.090196 0.159135 0.160784
0.094118 0.157048 0.160784
0.094118 0.157048 0.160784
0.098039 0.154961 0.160784
0.101961 0.150787 0.156863
0.105882 0.148700 0.156863
0.113725 0.144526 0.156863
0.117647 0.142439 0.156863
0.121569 0.138265 0.152941
0.113725 0.126752 0.152941
0.109804 0.114988 0.149020
0.112463 0.109804 0.149020
0.120306 0.105882 0.145098
0.135740 0.105882 0.152941
0.156930 0.105882 0.164706
0.177868 0.101961 0.180392
0.192157 0.101961 0.185256
0.211765 0.101961 0.191770
0.231373 0.098039 0.200370
0.250980 0.098039 0.206884
0.274510 0.098039 0.215484
0.298039 0.094118 0.222250
0.325490 0.094118 0.232938
0.352941 0.094118 0.243625
0.384314 0.090196 0.254565
0.415686 0.090196 0.267340
0.447059 0.086275 0.274358
0.478431 0.082353 0.285298
0.509804 0.074510 0.294404
0.545098 0.066667 0.301674
0.576471 0.062745 0.312614
0.607843 0.054902 0.321720
0.639216 0.050980 0.328739
0.666667 0.047059 0.337591
0.698039 0.043137 0.348531
0.725490 0.039216 0.357384
0.752941 0.035294 0.366237
0.776471 0.035294 0.378759
0.803922 0.031373 0.387612
0.827451 0.027451 0.394378
0.847059 0.023529 0.399058
0.870588 0.023529 0.411580
0.886275 0.019608 0.414171
0.905882 0.019608 0.424607
0.925490 0.015686 0.429285
0.941177 0.015686 0.437634
0.956863 0.015686 0.445981
0.968628 0.011765 0.446486
0.984314 0.011765 0.454834
0.996078 0.011765 0.461095
1.000000 0.007843 0.457427
1.000000 0.007843 0.457427
1.000000 0.007843 0.457427
1.000000 0.007843 0.457427
1.000000 0.007843 0.457427
1.000000 0.003922 0.451670
1.000000 0.003922 0.451670
1.000000 0.003922 0.451670
1.000000 0.003922 0.451670
1.000000 0.003922 0.451670
1.000000 0.003922 0.451670
1.000000 0.003922 0.451670
1.000000 0.003922 0.451670
0.090196 0.164706 0.160347
0.090196 0.164706 0.160347
0.094118 0.160784 0.156678
0.098039 0.160784 0.158765
0.101961 0.160717 0.160784
0.105882 0.158630 0.160784
0.109804 0.156543 0.160784
0.113725 0.158378 0.160784
0.121569 0.152116 0.156863
0.129412 0.147942 0.156863
0.129412 0.140099 0.156863
0.121569 0.126500 0.152941
0.117647 0.120744 0.152941
0.126315 0.113725 0.149020
0.139914 0.113725 0.152941
0.155096 0.109804 0.164706
0.180392 0.109804 0.178743
0.196078 0.109804 0.183169
0.211765 0.105882 0.189683
0.231373 0.105882 0.196196
0.254902 0.105882 0.204797
0.278431 0.101961 0.215484
0.301961 0.101961 0.224085
0.329412 0.101961 0.230851
0.356863 0.098039 0.243625
0.388235 0.098039 0.256400
0.415686 0.094118 0.261331
0.450980 0.086275 0.272524
0.482353 0.082353 0.283464
0.513726 0.074510 0.288647
0.545098 0.070588 0.303509
0.580392 0.062745 0.310780
0.611765 0.058824 0.321720
0.639216 0.050980 0.328739
0.670588 0.047059 0.339679
0.701961 0.039216 0.344862
0.729412 0.035294 0.353715
0.756863 0.031373 0.362568
0.780392 0.027451 0.369334
0.803922 0.023529 0.376100
0.827451 0.019608 0.382866
0.850980 0.019608 0.395388
0.870588 0.015686 0.400067
0.890196 0.015686 0.410502
0.909804 0.011765 0.415181
0.925490 0.011765 0.423529
0.941177 0.007843 0.426121
0.956863 0.007843 0.434469
0.972549 0.003922 0.437061
0.984314 0.003922 0.443322
0.996078 0.003922 0.449584
1.000000 0.003922 0.451670
1.000000 0.000000 0.445914
1.000000 0.000000 0.445914
1.000000 0.000000 0.445914
1.000000 0.000000 0.445914
1.000000 0.000000 0.445914
1.000000 0.000000 0.445914
1.000000 0.000000 0.445914
1.000000 0.000000 0.445914
1.000000 0.000000 0.445914
1.000000 0.000000 0.445914
1.000000 0.000000 0.445914
1.000000 0.000000 0.445914
0.090196 0.164706 0.148582
0.094118 0.164706 0.150669
0.098039 0.164706 0.152756
0.098039 0.164706 0.152756
0.101961 0.164706 0.154843
0.105882 0.164706 0.156930
0.113725 0.160784 0.155348
0.117647 0.160784 0.157435
0.125490 0.159960 0.160784
0.133333 0.155786 0.160784
0.141176 0.149525 0.156863
0.137255 0.143768 0.156863
0.129412 0.130169 0.152941
0.130489 0.121569 0.149020
0.145923 0.121569 0.156863
0.165026 0.117647 0.168627
0.180392 0.117647 0.174569
0.196078 0.117647 0.182917
0.215686 0.113725 0.191517
0.235294 0.113726 0.198031
0.258824 0.109804 0.208718
0.282353 0.109804 0.213397
0.305882 0.109804 0.221998
0.333333 0.105882 0.234772
0.360784 0.105882 0.241538
0.388235 0.101961 0.254313
0.419608 0.094118 0.259497
0.450980 0.090196 0.270437
0.486275 0.082353 0.281629
0.517647 0.078431 0.292569
0.549020 0.070588 0.297753
0.580392 0.062745 0.306858
0.611765 0.058824 0.317798
0.643137 0.050980 0.322982
0.674510 0.047059 0.337844
0.701961 0.043137 0.346697
0.729412 0.035294 0.349794
0.756863 0.031373 0.358647
0.784314 0.027451 0.371421
0.807843 0.019608 0.372431
0.831373 0.015686 0.379197
0.850980 0.011765 0.383876
0.874510 0.007843 0.390642
0.894118 0.007843 0.401077
0.909804 0.003922 0.403669
0.929412 0.003922 0.414104
0.945098 0.000000 0.416696
0.960784 0.000000 0.425044
0.972549 0.000000 0.431305
0.988235 0.000000 0.439653
1.000000 0.000000 0.445914
1.000000 0.000000 0.445914
1.000000 0.000000 0.445914
1.000000 0.000000 0.445914
1.000000 0.000000 0.445914
1.000000 0.000000 0.445914
1.000000 0.000000 0.445914
1.000000 0.000000 0.445914
1.000000 0.000000 0.445914
1.000000 0.000000 0.445914
1.000000 0.000000 0.445914
1.000000 0.000000 0.445914
1.000000 0.000000 0.445914
1.000000 0.000000 0.445914
0.094118 0.168627 0.144660
0.094118 0.168627 0.144660
0.098039 0.168627 0.146747
0.101961 0.168627 0.148834
0.105882 0.168627 0.150921
0.109804 0.164706 0.147252
0.113725 0.164706 0.149339
0.121569 0.164706 0.153513
0.129412 0.164706 0.157687
0.137255 0.160784 0.156105
0.145098 0.160784 0.160279
0.152941 0.156863 0.154776
0.150602 0.145098 0.156863
0.150349 0.137255 0.156863
0.150097 0.129412 0.156863
0.167365 0.129412 0.168627
0.184314 0.125490 0.176403
0.200000 0.125490 0.180830
0.219608 0.121569 0.189430
0.239216 0.121569 0.195944
0.258824 0.117647 0.204544
0.282353 0.117647 0.213145
0.309804 0.113726 0.221998
0.333333 0.113725 0.230598
0.364706 0.109804 0.241538
0.392157 0.101961 0.248557
0.423529 0.098039 0.259497
0.454902 0.090196 0.268602
0.490196 0.086275 0.281629
0.521569 0.078431 0.286813
0.552941 0.070588 0.295918
0.584314 0.066667 0.306858
0.615686 0.058824 0.312042
0.647059 0.054902 0.326904
0.678431 0.047059 0.332088
0.705882 0.043137 0.340941
0.733333 0.035294 0.347959
0.760784 0.031373 0.356812
0.788235 0.027451 0.365665
0.811765 0.023529 0.376352
0.835294 0.015686 0.377362
0.854902 0.011765 0.382042
0.874510 0.007843 0.386720
0.894118 0.003922 0.395321
0.913726 0.000000 0.400000
0.929412 0.000000 0.408348
0.945098 0.000000 0.416696
0.960784 0.000000 0.425044
0.976471 0.000000 0.433392
0.988235 0.000000 0.439653
1.000000 0.000000 0.445914
1.000000 0.000000 0.445914
1.000000 0.000000 0.445914
1.000000 0.000000 0.445914
1.000000 0.000000 0.445914
1.000000 0.000000 0.445914
1.000000 0.000000 0.445914
1.000000 0.000000 0.445914
1.000000 0.000000 0.445914
1.000000 0.000000 0.445914
1.000000 0.000000 0.445914
1.000000 0.000000 0.445914
1.000000 0.000000 0.445914
1.000000 0.000000 0.445914
0.094118 0.172549 0.138652
0.098039 0.172549 0.140739
0.101961 0.172549 0.142826
0.101961 0.172549 0.142826
0.109804 0.168627 0.141244
0.113725 0.168627 0.143331
0.117647 0.168627 0.141496
0.125490 0.168627 0.145670
0.129412 0.168627 0.143836
0.137255 0.168627 0.148010
0.149020 0.168627 0.154271
0.159202 0.168627 0.156863
0.168627 0.164453 0.160784
0.168627 0.156863 0.163124
0.168627 0.145098 0.165463
0.172549 0.137255 0.167803
0.184314 0.137255 0.174064
0.200000 0.133333 0.180577
0.219608 0.133333 0.187091
0.239216 0.129412 0.195691
0.262745 0.129412 0.204292
0.286275 0.125490 0.211058
0.309804 0.121569 0.217824
0.337255 0.117647 0.230598
0.368627 0.109804 0.235782
0.396078 0.105882 0.248557
0.427451 0.098039 0.253740
0.458824 0.094118 0.268602
0.494118 0.086275 0.275873
0.525490 0.078431 0.284978
0.556863 0.074510 0.295918
0.588235 0.066667 0.301102
0.619608 0.062745 0.315964
0.650980 0.054902 0.321148
0.682353 0.050980 0.332088
0.709804 0.043137 0.339106
0.737255 0.039216 0.347959
0.764706 0.031373 0.351056
0.788235 0.027451 0.361744
0.815686 0.023529 0.370596
0.835294 0.019608 0.375276
0.858824 0.015686 0.385963
0.878431 0.011765 0.390642
0.898039 0.007843 0.395321
0.913726 0.003922 0.397912
0.933333 0.000000 0.406513
0.949020 0.000000 0.414861
0.964706 0.000000 0.423210
0.976471 0.000000 0.429471
0.992157 0.000000 0.441740
