indra/newview/app_settings/luts/H8.cube
#Created by: Affinity Photo (Serif Europe Ltd.)
TITLE "Exported LUT"
#LUT size
LUT_3D_SIZE 8
#data domain
DOMAIN_MIN 0.0 0.0 0.0
DOMAIN_MAX 1.0 1.0 1.0
#LUT data points
0.078431 0.115998 0.149020
0.078431 0.078869 0.152941
0.239216 0.082353 0.228579
0.505882 0.082353 0.346966
0.784314 0.086275 0.473450
0.968627 0.086275 0.567617
1.000000 0.086275 0.588236
1.000000 0.086275 0.592157
0.090196 0.159135 0.160784
0.121569 0.138265 0.152941
0.211765 0.101961 0.191770
0.447059 0.086275 0.274358
0.725490 0.039216 0.357384
0.925490 0.015686 0.429285
1.000000 0.007843 0.457427
1.000000 0.003922 0.451670
0.105882 0.266667 0.110511
0.189683 0.266667 0.160784
0.270588 0.170849 0.156863
0.478431 0.105882 0.241404
0.756863 0.047059 0.326769
0.945098 0.007843 0.385071
1.000000 0.000000 0.414541
1.000000 0.000000 0.418463
0.239249 0.560784 0.133333
0.362467 0.564706 0.207843
0.568627 0.533485 0.207843
0.568627 0.217992 0.152941
0.788235 0.090196 0.218548
0.972549 0.047059 0.296457
1.000000 0.023529 0.303980
1.000000 0.011765 0.298476
0.373071 0.847059 0.160784
0.544425 0.850981 0.262745
0.809257 0.850981 0.258824
0.854902 0.577211 0.207843
0.854902 0.291004 0.149020
0.980392 0.105882 0.108541
1.000000 0.082353 0.123655
1.000000 0.070588 0.125995
0.455541 1.000000 0.188235
0.653589 1.000000 0.309804
0.936447 1.000000 0.294118
1.000000 0.756156 0.247059
1.000000 0.578423 0.207843
1.000000 0.386839 0.164706
1.000000 0.301641 0.137255
1.000000 0.279694 0.125490
0.472305 1.000000 0.215686
0.693377 1.000000 0.352941
0.973071 1.000000 0.313725
1.000000 0.727376 0.266667
1.000000 0.593032 0.235294
1.000000 0.576336 0.203922
1.000000 0.491139 0.176471
1.000000 0.441741 0.164706
0.483565 1.000000 0.231373
0.706724 1.000000 0.364706
0.988505 1.000000 0.321569
1.000000 0.717950 0.278431
1.000000 0.599293 0.247059
1.000000 0.584684 0.219608
1.000000 0.570075 0.192157
1.000000 0.532442 0.180392
0.078431 0.150972 0.200000
0.078431 0.111504 0.192157
0.179265 0.082353 0.239216
0.505882 0.082353 0.437162
0.788235 0.082353 0.591349
0.968627 0.086275 0.700951
1.000000 0.086275 0.737255
1.000000 0.086275 0.749019
0.082353 0.181840 0.188235
0.113726 0.169318 0.196078
0.212152 0.117647 0.227451
0.486275 0.121569 0.362720
0.768627 0.121569 0.501220
0.956863 0.121569 0.609240
1.000000 0.125490 0.641875
1.000000 0.125490 0.649718
0.086275 0.266667 0.115762
0.137255 0.274510 0.158327
0.278431 0.229100 0.207843
0.490196 0.152941 0.293209
0.772549 0.094118 0.388504
0.960784 0.054902 0.450728
1.000000 0.035294 0.454582
1.000000 0.027451 0.446991
0.162333 0.560784 0.086275
0.271447 0.568627 0.176471
0.535589 0.572549 0.258824
0.572549 0.292182 0.207843
0.788235 0.149020 0.261752
0.972549 0.105882 0.343583
1.000000 0.078431 0.349272
1.000000 0.066667 0.347690
0.278886 0.847059 0.101961
0.431961 0.850980 0.223529
0.736901 0.850981 0.313725
0.854902 0.651654 0.266667
0.858824 0.367281 0.207843
0.980392 0.181588 0.164706
1.000000 0.141176 0.162939
1.000000 0.129412 0.165278
0.340166 1.000000 0.117647
0.535370 1.000000 0.266667
0.858083 1.000000 0.352941
1.000000 0.824590 0.301961
1.000000 0.609728 0.266667
1.000000 0.459446 0.227451
1.000000 0.378171 0.200000
1.000000 0.356224 0.188235
0.335740 1.000000 0.133333
0.569401 1.000000 0.305882
0.894706 1.000000 0.372549
1.000000 0.797896 0.325490
1.000000 0.624338 0.294118
1.000000 0.609728 0.266667
1.000000 0.559825 0.239216
1.000000 0.508340 0.223530
0.329731 1.000000 0.137255
0.584583 1.000000 0.321569
0.908054 1.000000 0.384314
1.000000 0.784550 0.337255
1.000000 0.628512 0.301961
1.000000 0.615990 0.278431
1.000000 0.603467 0.254902
1.000000 0.597206 0.243137
0.082353 0.250139 0.360784
0.078431 0.212758 0.352941
0.082353 0.129900 0.341176
0.339309 0.086275 0.509804
0.726299 0.086275 0.792157
0.959707 0.086274 0.972549
0.976471 0.086275 1.000000
0.966793 0.090196 1.000000
0.082353 0.310544 0.349020
0.113726 0.280249 0.352941
0.129412 0.175191 0.333333
0.394396 0.133333 0.490196
0.772549 0.133333 0.759791
0.960784 0.137255 0.885332
1.000000 0.137255 0.929731
1.000000 0.137255 0.941496
0.086275 0.309804 0.226138
0.117647 0.329412 0.267693
0.239216 0.338955 0.352941
0.498039 0.258824 0.472406
0.780392 0.262745 0.636270
0.964706 0.266667 0.755802
1.000000 0.266667 0.798115
1.000000 0.270588 0.807792
0.089910 0.564706 0.086275
0.133872 0.568628 0.125490
0.332492 0.572549 0.294118
0.576471 0.448338 0.372549
0.792157 0.313725 0.438930
0.972549 0.274510 0.528352
1.000000 0.250980 0.543718
1.000000 0.239216 0.542136
0.200959 0.847059 0.086275
0.252512 0.847059 0.129412
0.521535 0.850980 0.364706
0.854902 0.810149 0.439216
0.854902 0.530203 0.392157
0.980392 0.348178 0.345098
1.000000 0.317647 0.351376
1.000000 0.309804 0.355550
0.256736 1.000000 0.090196
0.312211 1.000000 0.133333
0.644046 1.000000 0.423529
1.000000 0.983338 0.482353
1.000000 0.733182 0.447059
1.000000 0.608517 0.411765
1.000000 0.535084 0.384314
1.000000 0.513137 0.372549
0.237128 1.000000 0.090196
0.300193 1.000000 0.141176
0.685668 1.000000 0.470588
1.000000 0.954810 0.509804
1.000000 0.720340 0.474510
1.000000 0.707818 0.450980
1.000000 0.695296 0.427451
1.000000 0.661584 0.415686
0.229285 1.000000 0.090196
0.299941 1.000000 0.149020
0.702684 1.000000 0.490196
1.000000 0.941463 0.521569
1.000000 0.726601 0.486274
1.000000 0.716166 0.466667
1.000000 0.703644 0.443137
1.000000 0.697383 0.431373
0.086275 0.440629 0.678431
0.082353 0.397240 0.666667
0.082353 0.326399 0.658824
0.086275 0.131145 0.627451
0.404729 0.090196 0.796079
0.649904 0.090196 0.976471
0.668754 0.090196 1.000000
0.660911 0.090196 1.000000
0.086275 0.520138 0.650980
0.117647 0.488260 0.666667
0.133333 0.379281 0.647059
0.133333 0.160498 0.611765
0.459817 0.137255 0.776471
0.714669 0.141176 0.964706
0.746866 0.141176 1.000000
0.739023 0.141176 1.000000
0.090196 0.721569 0.660069
0.121569 0.717647 0.706303
0.243137 0.592695 0.686275
0.286275 0.329008 0.639216
0.590104 0.294118 0.784314
0.833191 0.294118 0.968627
0.857798 0.298039 1.000000
0.846032 0.298039 1.000000
0.090196 0.568627 0.310090
0.125490 0.600000 0.374922
0.250980 0.647059 0.506859
0.517647 0.670134 0.686274
0.769149 0.568627 0.796079
0.972549 0.568627 0.948296
1.000000 0.568628 0.990356
0.999966 0.572549 1.000000
0.086275 0.847059 0.175511
0.129412 0.847059 0.233763
0.258824 0.850981 0.343685
0.564706 0.854902 0.574973
0.854902 0.780274 0.729412
0.980392 0.686275 0.772212
1.000000 0.662745 0.783405
1.000000 0.650980 0.781823
0.090196 1.000000 0.100126
0.133333 1.000000 0.154456
0.266667 1.000000 0.268552
0.686375 1.000000 0.631373
1.000000 0.965480 0.780392
1.000000 0.844989 0.752941
1.000000 0.775478 0.725490
1.000000 0.759539 0.717647
0.090196 1.000000 0.100126
0.133333 1.000000 0.154456
0.280215 1.000000 0.274510
0.727998 1.000000 0.678431
1.000000 0.948717 0.807843
1.000000 0.887301 0.788235
1.000000 0.874779 0.764706
1.000000 0.868518 0.752941
0.090196 1.000000 0.104048
0.133333 1.000000 0.154456
0.284137 1.000000 0.274510
0.741092 1.000000 0.698039
1.000000 0.941378 0.823529
1.000000 0.893562 0.800000
1.000000 0.885214 0.784314
1.000000 0.878953 0.772549
0.086275 0.636876 0.988235
0.086275 0.579635 0.976471
0.086275 0.514550 0.964706
0.086275 0.353008 0.941177
0.103409 0.090196 0.898039
0.401011 0.090196 0.972549
0.517900 0.094118 1.000000
0.517900 0.094118 1.000000
0.090196 0.742001 0.968627
0.121569 0.706202 0.984314
0.133333 0.567685 0.956863
0.137255 0.390204 0.929412
0.173929 0.137255 0.886275
0.459766 0.141176 0.964706
0.545031 0.145098 1.000000
0.545031 0.145098 1.000000
0.090196 1.000000 0.990323
0.121569 0.953766 1.000000
0.247059 0.828158 1.000000
0.290196 0.566558 0.956863
0.317311 0.294118 0.913726
0.581453 0.298039 0.996079
0.626425 0.298039 1.000000
0.626425 0.298039 1.000000
0.086275 1.000000 0.690196
0.125490 1.000000 0.746361
0.250980 1.000000 0.871969
0.517647 0.919448 1.000000
0.580392 0.644248 0.980392
0.751326 0.584314 1.000000
0.778777 0.584314 1.000000
0.778777 0.584314 1.000000
0.086275 0.898039 0.513086
0.129412 0.941177 0.599361
0.258824 0.992157 0.739140
0.529412 1.000000 0.890735
0.803922 0.963174 1.000000
0.905260 0.858824 1.000000
0.924868 0.858824 1.000000
0.924868 0.858824 1.000000
0.090196 1.000000 0.406009
0.129412 1.000000 0.470017
0.266667 1.000000 0.590121
0.537255 1.000000 0.753732
0.815686 1.000000 0.901910
1.000000 1.000000 1.000000
0.985391 0.972549 1.000000
0.979130 0.960784 1.000000
0.090196 1.000000 0.398166
0.133333 1.000000 0.464260
0.274510 1.000000 0.586451
0.545098 1.000000 0.757906
0.854902 1.000000 0.922781
1.000000 1.000000 1.000000
1.000000 1.000000 1.000000
1.000000 1.000000 1.000000
0.090196 1.000000 0.394244
0.133333 1.000000 0.460338
0.274510 1.000000 0.582530
0.549020 1.000000 0.759993
0.874510 1.000000 0.933215
1.000000 1.000000 1.000000
1.000000 1.000000 1.000000
1.000000 1.000000 1.000000
0.090196 0.668501 1.000000
0.090196 0.605756 1.000000
0.086275 0.549019 1.000000
0.090196 0.429286 1.000000
0.090196 0.186148 1.000000
0.221695 0.090196 1.000000
0.423782 0.094118 1.000000
0.517900 0.094118 1.000000
0.090196 0.809678 1.000000
0.121569 0.757687 1.000000
0.137255 0.616006 1.000000
0.137255 0.470908 1.000000
0.141176 0.225683 1.000000
0.284121 0.141176 1.000000
0.476277 0.141176 1.000000
0.545031 0.145098 1.000000
0.086275 1.000000 0.929412
0.121569 1.000000 0.987411
0.243137 0.885147 1.000000
0.290196 0.640495 1.000000
0.294118 0.375663 1.000000
0.432181 0.294118 1.000000
0.606817 0.298039 1.000000
0.626425 0.298039 1.000000
0.086275 1.000000 0.643137
0.125490 1.000000 0.695380
0.250980 1.000000 0.817067
0.517647 0.978271 1.000000
0.580392 0.713507 1.000000
0.657208 0.584314 1.000000
0.778777 0.584314 1.000000
0.780864 0.588235 1.000000
0.086275 1.000000 0.513726
0.129412 1.000000 0.536683
0.258824 1.000000 0.605554
0.525490 1.000000 0.786687
0.803922 1.000000 0.981924
0.862122 0.858824 1.000000
0.924868 0.858824 1.000000
0.924868 0.858824 1.000000
0.086275 1.000000 0.513726
0.129412 1.000000 0.536683
0.266667 1.000000 0.609728
0.537255 1.000000 0.753732
0.811765 1.000000 0.899823
0.988235 1.000000 0.993739
1.000000 1.000000 1.000000
1.000000 1.000000 1.000000
0.090196 1.000000 0.515813
0.133333 1.000000 0.538770
0.274510 1.000000 0.613902
0.545098 1.000000 0.757906
0.819608 1.000000 0.903997
0.992157 1.000000 0.995826
1.000000 1.000000 1.000000
1.000000 1.000000 1.000000
0.090196 1.000000 0.515813
0.133333 1.000000 0.538770
0.274510 1.000000 0.613902
0.549020 1.000000 0.759993
0.823529 1.000000 0.906084
0.996078 1.000000 0.997913
1.000000 1.000000 1.000000
1.000000 1.000000 1.000000
0.090196 0.692030 1.000000
0.090196 0.617521 1.000000
0.090196 0.562619 1.000000
0.090196 0.452815 1.000000
0.090196 0.225364 1.000000
0.184567 0.094118 1.000000
0.337508 0.094118 1.000000
0.400253 0.094118 1.000000
0.090196 0.844972 1.000000
0.121569 0.792981 1.000000
0.137255 0.635614 1.000000
0.137255 0.498359 1.000000
0.141176 0.264900 1.000000
0.244904 0.141176 1.000000
0.393925 0.141176 1.000000
0.454835 0.145098 1.000000
0.086275 1.000000 0.886275
0.121569 1.000000 0.944273
0.243137 0.928284 1.000000
0.290196 0.675789 1.000000
0.294118 0.418800 1.000000
0.395052 0.298039 1.000000
0.532307 0.298039 1.000000
0.587209 0.298039 1.000000
0.086275 1.000000 0.607843
0.125490 1.000000 0.660086
0.250980 1.000000 0.777851
0.517647 1.000000 0.982513
0.580392 0.752722 1.000000
0.621914 0.584314 1.000000
0.743483 0.584314 1.000000
0.778777 0.584314 1.000000
0.086275 1.000000 0.513726
0.129412 1.000000 0.536683
0.258824 1.000000 0.605554
0.525490 1.000000 0.759236
0.803922 1.000000 0.950551
0.858824 0.886897 1.000000
0.924868 0.858824 1.000000
0.924868 0.858824 1.000000
0.086275 1.000000 0.513726
0.129412 1.000000 0.536683
0.266667 1.000000 0.609728
0.537255 1.000000 0.753732
0.811765 1.000000 0.899823
0.988235 1.000000 0.993739
1.000000 1.000000 1.000000
1.000000 1.000000 1.000000
0.090196 1.000000 0.515813
0.133333 1.000000 0.538770
0.274510 1.000000 0.613902
0.545098 1.000000 0.757906
0.819608 1.000000 0.903997
0.992157 1.000000 0.995826
1.000000 1.000000 1.000000
1.000000 1.000000 1.000000
0.090196 1.000000 0.515813
0.133333 1.000000 0.538770
0.274510 1.000000 0.613902
0.549020 1.000000 0.759993
0.823529 1.000000 0.906084
0.996078 1.000000 0.997913
1.000000 1.000000 1.000000
1.000000 1.000000 1.000000
0.090196 0.703795 1.000000
0.090196 0.621442 1.000000
0.090196 0.566540 1.000000
0.090196 0.464579 1.000000
0.094118 0.246806 1.000000
0.164959 0.094118 1.000000
0.317900 0.094118 1.000000
0.382732 0.098039 1.000000
0.090196 0.864579 1.000000
0.121569 0.808668 1.000000
0.137255 0.643457 1.000000
0.137255 0.514045 1.000000
0.141176 0.284507 1.000000
0.225297 0.141176 1.000000
0.380326 0.145098 1.000000
0.439149 0.145098 1.000000
0.086275 1.000000 0.866667
0.121569 1.000000 0.924666
0.243137 0.947892 1.000000
0.290196 0.691475 1.000000
0.294118 0.438408 1.000000
0.379366 0.298039 1.000000
0.516621 0.298039 1.000000
0.571523 0.298039 1.000000
0.086275 1.000000 0.596078
0.125490 1.000000 0.644400
0.250980 1.000000 0.762164
0.513726 1.000000 0.964740
0.580392 0.772330 1.000000
0.606228 0.584314 1.000000
0.731718 0.584314 1.000000
0.780864 0.588235 1.000000
0.086275 1.000000 0.513726
0.129412 1.000000 0.536683
0.266667 1.000000 0.609728
0.537255 1.000000 0.753732
0.807843 1.000000 0.940874
0.862745 0.904418 1.000000
0.929042 0.866667 1.000000
0.929042 0.866667 1.000000
0.098039 1.000000 0.519987
0.149020 1.000000 0.547118
0.305882 1.000000 0.630598
0.580392 1.000000 0.776689
0.839216 1.000000 0.914432
0.996078 1.000000 0.997913
1.000000 1.000000 1.000000
1.000000 1.000000 1.000000
0.117647 1.000000 0.530422
0.184314 1.000000 0.565901
0.376471 1.000000 0.668165
0.662745 1.000000 0.820517
0.898039 1.000000 0.945738
1.000000 1.000000 1.000000
1.000000 1.000000 1.000000
1.000000 1.000000 1.000000
0.137255 1.000000 0.540857
0.219608 1.000000 0.584684
0.443137 1.000000 0.703644
0.737255 1.000000 0.860170
0.960784 1.000000 0.979130
1.000000 1.000000 1.000000
1.000000 1.000000 1.000000
1.000000 1.000000 1.000000
