indra/newview/app_settings/luts/H8.cube
#Created by: Affinity Photo (Serif Europe Ltd.)
TITLE "Exported LUT"
#LUT size
LUT_3D_SIZE 4
#data domain
DOMAIN_MIN 0.0 0.0 0.0
DOMAIN_MAX 1.0 1.0 1.0
#LUT data points
0.078431 0.115998 0.149020
0.313726 0.082353 0.264310
0.917647 0.086275 0.540486
1.000000 0.086275 0.592157
0.136986 0.349020 0.113725
0.356863 0.183758 0.156863
0.901961 0.027451 0.351679
1.000000 0.000000 0.391012
0.439098 0.968627 0.180392
0.972549 0.934142 0.266667
0.980392 0.348128 0.160784
1.000000 0.202592 0.105882
0.483565 1.000000 0.231373
1.000000 0.909030 0.305882
1.000000 0.590945 0.231373
1.000000 0.532442 0.180392
0.082353 0.308070 0.454902
0.082353 0.132677 0.427451
0.794682 0.090196 0.925490
0.856990 0.090196 1.000000
0.086275 0.380392 0.243474
0.317647 0.437499 0.447059
0.917647 0.352941 0.778962
1.000000 0.356863 0.867761
0.208668 0.968627 0.090196
0.635765 0.972549 0.470588
0.976471 0.651519 0.505882
1.000000 0.519835 0.458824
0.197913 1.000000 0.090196
0.726029 1.000000 0.556863
1.000000 0.772516 0.572549
1.000000 0.751645 0.533333
0.090196 0.660658 1.000000
0.086275 0.513725 1.000000
0.170715 0.090196 1.000000
0.517900 0.094118 1.000000
0.086275 1.000000 0.847059
0.321569 0.906151 1.000000
0.458488 0.380392 1.000000
0.672339 0.384314 1.000000
0.086275 1.000000 0.533333
0.341177 1.000000 0.665068
0.937255 1.000000 0.978372
0.989565 0.980392 1.000000
0.090196 1.000000 0.515813
0.356863 1.000000 0.657730
0.956863 1.000000 0.977043
1.000000 1.000000 1.000000
0.090196 0.703795 1.000000
0.090196 0.543011 1.000000
0.094371 0.094118 1.000000
0.382732 0.098039 1.000000
0.086275 1.000000 0.772549
0.321569 0.984583 1.000000
0.380392 0.380729 1.000000
0.637045 0.384314 1.000000
0.094118 1.000000 0.517900
0.372549 1.000000 0.666078
0.945098 1.000000 0.970782
0.993739 0.988235 1.000000
0.137255 1.000000 0.540857
0.537255 1.000000 0.753732
1.000000 1.000000 1.000000
1.000000 1.000000 1.000000
